;Generated @ 2018-03-29 13:38
;Modifyied by Hyrel Code Converter Scripts (C3DM Format)
;C3DM Start Code
G21	;To Millimeters
G90	;Absolute coordinates
M203 X2000 Y2000 Z200	;G0 Speed
M104 S0 T12	;Extruder Temp
M140 S0	;Bed Temp
M106 S0 T12	;Fan Speed
M721 S1000 E0 P0 T12	;Un-Prime, Speed, Pulse, Pause, Tool
M722 S1000 E0 P0 T12	;Prime, Speed, Pulse, Pause, Tool

M756 S0.8	;Height for FLOW calculations
M221 P0.16 S1.0 W1.2 Z0.8 T12	;P(10) per nL, S multiplier, W width, Z height, T head


;Park From
G0 Z5	
G0 X240 Y10	
G0 X10 Y10	

;Stripped @ Z0.8
;G1 Strip Version 1.0
;Layer count: 10
;Layer: 1 @ Z0.8
G0 X95.061 Y76.845 Z0.8; Initial Move Into Print
;TYPE:SKIRT
;Curve: 1-1 @ Z0.8
G1 X95.46 Y76.386 E1.0 F1000.0
G1 X98.022 Y73.599 E1.0
G1 X98.678 Y72.945 E1.0
G1 X99.906 Y71.82 E1.0
G1 X100.488 Y71.323 E1.0
G1 X103.252 Y69.13 E1.0
G1 X104.004 Y68.584 E1.0
G1 X104.522 Y68.262 E1.0
G1 X107.831 Y66.331 E1.0
G1 X108.664 Y65.892 E1.0
G1 X110.128 Y65.201 E1.0
G1 X110.815 Y64.906 E1.0
G1 X114.114 Y63.62 E1.0
G1 X114.994 Y63.32 E1.0
G1 X115.586 Y63.164 E1.0
G1 X119.316 Y62.295 E1.0
G1 X120.262 Y62.118 E1.0
G1 X121.903 Y61.887 E1.0
G1 X122.631 Y61.81 E1.0
G1 X126.125 Y61.558 E1.0
G1 X127.054 Y61.531 E1.0
G1 X127.659 Y61.557 E1.0
G1 X131.501 Y61.827 E1.0
G1 X132.472 Y61.939 E1.0
G1 X134.076 Y62.199 E1.0
G1 X134.78 Y62.337 E1.0
G1 X138.203 Y63.128 E1.0
G1 X139.098 Y63.376 E1.0
G1 X139.67 Y63.58 E1.0
G1 X143.224 Y64.956 E1.0
G1 X144.097 Y65.339 E1.0
G1 X145.583 Y66.071 E1.0
G1 X146.236 Y66.421 E1.0
G1 X149.274 Y68.186 E1.0
G1 X150.057 Y68.687 E1.0
G1 X150.543 Y69.049 E1.0
G1 X153.551 Y71.425 E1.0
G1 X154.26 Y72.036 E1.0
G1 X155.42 Y73.128 E1.0
G1 X155.956 Y73.67 E1.0
G1 X158.368 Y76.285 E1.0
G1 X158.968 Y76.994 E1.0
G1 X159.323 Y77.48 E1.0
G1 X161.493 Y80.63 E1.0
G1 X161.993 Y81.428 E1.0
G1 X162.786 Y82.826 E1.0
G1 X163.131 Y83.488 E1.0
G1 X164.664 Y86.687 E1.0
G1 X165.03 Y87.541 E1.0
G1 X165.231 Y88.124 E1.0
G1 X166.384 Y91.803 E1.0
G1 X166.632 Y92.743 E1.0
G1 X166.98 Y94.347 E1.0
G1 X167.109 Y95.054 E1.0
G1 X167.621 Y98.51 E1.0
G1 X167.718 Y99.435 E1.0
G1 X167.738 Y100.042 E1.0
G1 X167.756 Y103.891 E1.0
G1 X167.717 Y104.855 E1.0
G1 X167.58 Y106.47 E1.0
G1 X167.494 Y107.194 E1.0
G1 X166.96 Y110.676 E1.0
G1 X166.78 Y111.588 E1.0
G1 X166.619 Y112.178 E1.0
G1 X165.504 Y115.849 E1.0
G1 X165.192 Y116.735 E1.0
G1 X164.598 Y118.214 E1.0
G1 X164.295 Y118.898 E1.0
G1 X162.747 Y122.093 E1.0
G1 X162.306 Y122.911 E1.0
G1 X161.979 Y123.427 E1.0
G1 X159.833 Y126.606 E1.0
G1 X159.272 Y127.364 E1.0
G1 X158.262 Y128.61 E1.0
G1 X157.769 Y129.177 E1.0
G1 X155.344 Y131.776 E1.0
G1 X154.681 Y132.427 E1.0
G1 X154.22 Y132.82 E1.0
G1 X151.254 Y135.208 E1.0
G1 X150.49 Y135.77 E1.0
G1 X149.107 Y136.696 E1.0
G1 X148.473 Y137.09 E1.0
G1 X145.428 Y138.837 E1.0
G1 X144.602 Y139.264 E1.0
G1 X144.045 Y139.504 E1.0
G1 X140.501 Y140.914 E1.0
G1 X139.605 Y141.226 E1.0
G1 X138.024 Y141.699 E1.0
G1 X137.305 Y141.887 E1.0
G1 X133.866 Y142.663 E1.0
G1 X132.952 Y142.828 E1.0
G1 X132.346 Y142.894 E1.0
G1 X128.54 Y143.197 E1.0
G1 X127.579 Y143.231 E1.0
G1 X125.912 Y143.215 E1.0
G1 X125.176 Y143.182 E1.0
G1 X121.689 Y142.91 E1.0
G1 X120.767 Y142.798 E1.0
G1 X120.177 Y142.684 E1.0
G1 X116.422 Y141.846 E1.0
G1 X115.5 Y141.597 E1.0
G1 X113.991 Y141.117 E1.0
G1 X113.291 Y140.867 E1.0
G1 X109.983 Y139.558 E1.0
G1 X109.135 Y139.18 E1.0
G1 X108.601 Y138.894 E1.0
G1 X105.297 Y137.007 E1.0
G1 X104.499 Y136.504 E1.0
G1 X103.136 Y135.559 E1.0
G1 X102.536 Y135.111 E1.0
G1 X99.791 Y132.911 E1.0
G1 X99.091 Y132.3 E1.0
G1 X98.662 Y131.866 E1.0
G1 X96.051 Y129.078 E1.0
G1 X95.432 Y128.356 E1.0
G1 X94.416 Y127.059 E1.0
G1 X93.977 Y126.457 E1.0
G1 X91.997 Y123.535 E1.0
G1 X91.51 Y122.744 E1.0
G1 X91.229 Y122.208 E1.0
G1 X89.522 Y118.705 E1.0
G1 X89.123 Y117.778 E1.0
G1 X88.569 Y116.306 E1.0
G1 X88.348 Y115.658 E1.0
G1 X87.324 Y112.307 E1.0
G1 X87.091 Y111.408 E1.0
G1 X86.981 Y110.811 E1.0
G1 X86.39 Y107.011 E1.0
G1 X86.285 Y106.052 E1.0
G1 X86.179 Y104.422 E1.0
G1 X86.156 Y103.693 E1.0
G1 X86.165 Y100.182 E1.0
G1 X86.207 Y99.254 E1.0
G1 X86.278 Y98.649 E1.0
G1 X86.829 Y94.876 E1.0
G1 X87.008 Y93.943 E1.0
G1 X87.393 Y92.321 E1.0
G1 X87.589 Y91.605 E1.0
G1 X88.631 Y88.258 E1.0
G1 X88.945 Y87.383 E1.0
G1 X89.191 Y86.827 E1.0
G1 X90.846 Y83.349 E1.0
G1 X91.299 Y82.497 E1.0
G1 X92.119 Y81.109 E1.0
G1 X92.51 Y80.495 E1.0
G1 X94.503 Y77.588 E1.0
G1 X95.061 Y76.845 E1.0
G1 X95.061 Y76.845 E1.0
;Curve end: 1-1 @ Z0.8 Distance: 255.93

G0 X98.408 Y108.918 ;Move To

;TYPE:WALL-OUTER
;Curve: 1-2 @ Z0.8
G1 X97.756 Y104.59 E1.0 F1000.0
G1 X97.756 Y100.211 E1.0
G1 X98.408 Y95.883 E1.0
G1 X99.696 Y91.706 E1.0
G1 X101.597 Y87.76 E1.0
G1 X104.065 Y84.14 E1.0
G1 X107.034 Y80.94 E1.0
G1 X110.463 Y78.206 E1.0
G1 X114.251 Y76.019 E1.0
G1 X118.325 Y74.419 E1.0
G1 X122.59 Y73.446 E1.0
G1 X126.956 Y73.118 E1.0
G1 X131.321 Y73.446 E1.0
G1 X135.586 Y74.419 E1.0
G1 X139.661 Y76.019 E1.0
G1 X143.453 Y78.208 E1.0
G1 X146.873 Y80.936 E1.0
G1 X149.846 Y84.14 E1.0
G1 X152.314 Y87.76 E1.0
G1 X154.215 Y91.706 E1.0
G1 X155.504 Y95.883 E1.0
G1 X156.156 Y100.211 E1.0
G1 X156.156 Y104.59 E1.0
G1 X155.504 Y108.918 E1.0
G1 X154.215 Y113.096 E1.0
G1 X152.314 Y117.042 E1.0
G1 X149.846 Y120.661 E1.0
G1 X146.873 Y123.865 E1.0
G1 X143.453 Y126.593 E1.0
G1 X139.661 Y128.782 E1.0
G1 X135.586 Y130.382 E1.0
G1 X131.321 Y131.355 E1.0
G1 X126.956 Y131.683 E1.0
G1 X122.59 Y131.355 E1.0
G1 X118.325 Y130.382 E1.0
G1 X114.251 Y128.782 E1.0
G1 X110.463 Y126.595 E1.0
G1 X107.034 Y123.861 E1.0
G1 X104.065 Y120.661 E1.0
G1 X101.597 Y117.042 E1.0
G1 X99.696 Y113.096 E1.0
G1 X98.408 Y108.918 E1.0
G1 X98.408 Y108.918 E1.0
;Curves end: 1-2 @ Z0.8 Distance: 179.42

G0 X99.971 Y108.558 ;Move To

;Curve: 1-3 @ Z0.8
;TYPE:FILL
G1 X99.356 Y104.472 E1.0 F1000.0
G1 X99.356 Y100.329 E1.0
G1 X99.972 Y96.237 E1.0
G1 X101.186 Y92.298 E1.0
G1 X102.987 Y88.564 E1.0
G1 X105.325 Y85.134 E1.0
G1 X108.12 Y82.122 E1.0
G1 X111.367 Y79.532 E1.0
G1 X114.945 Y77.466 E1.0
G1 X118.802 Y75.951 E1.0
G1 X122.826 Y75.034 E1.0
G1 X126.956 Y74.724 E1.0
G1 X131.085 Y75.034 E1.0
G1 X135.112 Y75.951 E1.0
G1 X138.965 Y77.465 E1.0
G1 X142.553 Y79.536 E1.0
G1 X145.783 Y82.114 E1.0
G1 X148.586 Y85.134 E1.0
G1 X150.924 Y88.564 E1.0
G1 X152.725 Y92.299 E1.0
G1 X153.94 Y96.237 E1.0
G1 X154.556 Y100.329 E1.0
G1 X154.556 Y104.472 E1.0
G1 X153.94 Y108.564 E1.0
G1 X152.725 Y112.503 E1.0
G1 X150.924 Y116.238 E1.0
G1 X148.586 Y119.667 E1.0
G1 X145.783 Y122.687 E1.0
G1 X142.553 Y125.265 E1.0
G1 X138.965 Y127.336 E1.0
G1 X135.112 Y128.85 E1.0
G1 X131.085 Y129.767 E1.0
G1 X126.956 Y130.077 E1.0
G1 X122.826 Y129.767 E1.0
G1 X118.802 Y128.85 E1.0
G1 X114.945 Y127.335 E1.0
G1 X111.367 Y125.269 E1.0
G1 X108.12 Y122.679 E1.0
G1 X105.325 Y119.667 E1.0
G1 X102.987 Y116.238 E1.0
G1 X101.189 Y112.509 E1.0
G1 X99.971 Y108.558 E1.0
G1 X99.971 Y108.558 E1.0
;Curves end: 1-3 @ Z0.8 Distance: 169.59

G0 X101.535 Y108.201 ;Move To

;Curve: 1-4 @ Z0.8
G1 X100.956 Y104.354 E1.0 F1000.0
G1 X100.956 Y100.447 E1.0
G1 X101.536 Y96.594 E1.0
G1 X102.68 Y92.884 E1.0
G1 X104.376 Y89.366 E1.0
G1 X106.579 Y86.135 E1.0
G1 X109.209 Y83.3 E1.0
G1 X112.271 Y80.858 E1.0
G1 X115.645 Y78.91 E1.0
G1 X119.274 Y77.484 E1.0
G1 X123.061 Y76.621 E1.0
G1 X126.956 Y76.329 E1.0
G1 X130.85 Y76.621 E1.0
G1 X134.64 Y77.484 E1.0
G1 X138.265 Y78.909 E1.0
G1 X141.649 Y80.862 E1.0
G1 X144.694 Y83.292 E1.0
G1 X147.332 Y86.135 E1.0
G1 X149.535 Y89.366 E1.0
G1 X151.231 Y92.883 E1.0
G1 X152.376 Y96.597 E1.0
G1 X152.956 Y100.447 E1.0
G1 X152.956 Y104.354 E1.0
G1 X152.376 Y108.205 E1.0
G1 X151.231 Y111.919 E1.0
G1 X149.535 Y115.436 E1.0
G1 X147.332 Y118.666 E1.0
G1 X144.694 Y121.509 E1.0
G1 X141.649 Y123.939 E1.0
G1 X138.265 Y125.892 E1.0
G1 X134.64 Y127.317 E1.0
G1 X130.85 Y128.18 E1.0
G1 X126.956 Y128.472 E1.0
G1 X123.061 Y128.18 E1.0
G1 X119.274 Y127.317 E1.0
G1 X115.645 Y125.891 E1.0
G1 X112.271 Y123.943 E1.0
G1 X109.209 Y121.501 E1.0
G1 X106.579 Y118.666 E1.0
G1 X104.376 Y115.436 E1.0
G1 X102.683 Y111.923 E1.0
G1 X101.535 Y108.201 E1.0
G1 X101.535 Y108.201 E1.0
;Curves end: 1-4 @ Z0.8 Distance: 159.74

G0 X103.099 Y107.842 ;Move To

;Curve: 1-5 @ Z0.8
G1 X102.556 Y104.236 E1.0 F1000.0
G1 X102.556 Y100.565 E1.0
G1 X103.1 Y96.951 E1.0
G1 X104.174 Y93.47 E1.0
G1 X105.765 Y90.168 E1.0
G1 X107.833 Y87.136 E1.0
G1 X110.298 Y84.478 E1.0
G1 X113.175 Y82.184 E1.0
G1 X116.345 Y80.354 E1.0
G1 X119.745 Y79.018 E1.0
G1 X123.297 Y78.208 E1.0
G1 X126.956 Y77.934 E1.0
G1 X130.615 Y78.208 E1.0
G1 X134.168 Y79.017 E1.0
G1 X137.565 Y80.353 E1.0
G1 X140.745 Y82.188 E1.0
G1 X143.604 Y84.47 E1.0
G1 X146.078 Y87.136 E1.0
G1 X148.146 Y90.169 E1.0
G1 X149.737 Y93.469 E1.0
G1 X150.812 Y96.954 E1.0
G1 X151.356 Y100.566 E1.0
G1 X151.356 Y104.236 E1.0
G1 X150.812 Y107.848 E1.0
G1 X149.737 Y111.333 E1.0
G1 X148.148 Y114.63 E1.0
G1 X146.075 Y117.668 E1.0
G1 X143.604 Y120.331 E1.0
G1 X140.745 Y122.613 E1.0
G1 X137.565 Y124.448 E1.0
G1 X134.168 Y125.784 E1.0
G1 X130.615 Y126.593 E1.0
G1 X126.956 Y126.867 E1.0
G1 X123.297 Y126.593 E1.0
G1 X119.745 Y125.783 E1.0
G1 X116.345 Y124.447 E1.0
G1 X113.175 Y122.617 E1.0
G1 X110.298 Y120.323 E1.0
G1 X107.836 Y117.668 E1.0
G1 X105.764 Y114.63 E1.0
G1 X104.177 Y111.339 E1.0
G1 X103.099 Y107.842 E1.0
G1 X103.099 Y107.842 E1.0
;Curves end: 1-5 @ Z0.8 Distance: 149.92

G0 X104.663 Y107.485 ;Move To

;Curve: 1-6 @ Z0.8
G1 X104.156 Y104.118 E1.0 F1000.0
G1 X104.156 Y100.683 E1.0
G1 X104.664 Y97.31 E1.0
G1 X105.668 Y94.054 E1.0
G1 X107.153 Y90.974 E1.0
G1 X109.09 Y88.134 E1.0
G1 X111.39 Y85.653 E1.0
G1 X114.075 Y83.512 E1.0
G1 X117.045 Y81.798 E1.0
G1 X120.216 Y80.552 E1.0
G1 X123.534 Y79.795 E1.0
G1 X126.956 Y79.539 E1.0
G1 X130.38 Y79.795 E1.0
G1 X133.693 Y80.55 E1.0
G1 X136.868 Y81.798 E1.0
G1 X139.845 Y83.516 E1.0
G1 X142.511 Y85.644 E1.0
G1 X144.824 Y88.137 E1.0
G1 X146.757 Y90.971 E1.0
G1 X148.243 Y94.053 E1.0
G1 X149.248 Y97.314 E1.0
G1 X149.756 Y100.684 E1.0
G1 X149.756 Y104.118 E1.0
G1 X149.248 Y107.488 E1.0
G1 X148.243 Y110.749 E1.0
G1 X146.761 Y113.824 E1.0
G1 X144.819 Y116.67 E1.0
G1 X142.511 Y119.157 E1.0
G1 X139.845 Y121.285 E1.0
G1 X136.868 Y123.003 E1.0
G1 X133.693 Y124.251 E1.0
G1 X130.38 Y125.006 E1.0
G1 X126.956 Y125.262 E1.0
G1 X123.534 Y125.006 E1.0
G1 X120.216 Y124.249 E1.0
G1 X117.045 Y123.003 E1.0
G1 X114.075 Y121.289 E1.0
G1 X111.39 Y119.148 E1.0
G1 X109.093 Y116.67 E1.0
G1 X107.151 Y113.824 E1.0
G1 X105.671 Y110.753 E1.0
G1 X104.663 Y107.485 E1.0
G1 X104.663 Y107.485 E1.0
;Curves end: 1-6 @ Z0.8 Distance: 140.15

G0 X106.227 Y107.126 ;Move To

;Curve: 1-7 @ Z0.8
G1 X105.756 Y104 E1.0 F1000.0
G1 X105.756 Y100.801 E1.0
G1 X106.228 Y97.667 E1.0
G1 X107.162 Y94.64 E1.0
G1 X108.54 Y91.78 E1.0
G1 X110.347 Y89.132 E1.0
G1 X112.48 Y86.831 E1.0
G1 X114.979 Y84.838 E1.0
G1 X117.744 Y83.242 E1.0
G1 X120.687 Y82.086 E1.0
G1 X123.771 Y81.382 E1.0
G1 X126.956 Y81.144 E1.0
G1 X130.143 Y81.382 E1.0
G1 X133.222 Y82.084 E1.0
G1 X136.168 Y83.242 E1.0
G1 X138.945 Y84.844 E1.0
G1 X141.418 Y86.818 E1.0
G1 X143.567 Y89.135 E1.0
G1 X145.37 Y91.777 E1.0
G1 X146.749 Y94.639 E1.0
G1 X147.684 Y97.671 E1.0
G1 X148.156 Y100.803 E1.0
G1 X148.156 Y103.999 E1.0
G1 X147.684 Y107.131 E1.0
G1 X146.749 Y110.163 E1.0
G1 X145.374 Y113.018 E1.0
G1 X143.563 Y115.672 E1.0
G1 X141.418 Y117.983 E1.0
G1 X138.945 Y119.957 E1.0
G1 X136.168 Y121.559 E1.0
G1 X133.222 Y122.717 E1.0
G1 X130.143 Y123.419 E1.0
G1 X126.956 Y123.657 E1.0
G1 X123.771 Y123.419 E1.0
G1 X120.687 Y122.715 E1.0
G1 X117.744 Y121.559 E1.0
G1 X114.979 Y119.963 E1.0
G1 X112.48 Y117.97 E1.0
G1 X110.35 Y115.672 E1.0
G1 X108.539 Y113.018 E1.0
G1 X107.165 Y110.169 E1.0
G1 X106.227 Y107.126 E1.0
G1 X106.227 Y107.126 E1.0
;Curves end: 1-7 @ Z0.8 Distance: 130.32

G0 X107.791 Y106.769 ;Move To

;Curve: 1-8 @ Z0.8
G1 X107.356 Y103.881 E1.0 F1000.0
G1 X107.356 Y100.919 E1.0
G1 X107.792 Y98.027 E1.0
G1 X108.657 Y95.221 E1.0
G1 X109.926 Y92.588 E1.0
G1 X111.604 Y90.13 E1.0
G1 X113.57 Y88.009 E1.0
G1 X115.883 Y86.164 E1.0
G1 X118.443 Y84.686 E1.0
G1 X121.158 Y83.62 E1.0
G1 X124.008 Y82.969 E1.0
G1 X126.956 Y82.749 E1.0
G1 X129.906 Y82.969 E1.0
G1 X132.751 Y83.618 E1.0
G1 X135.469 Y84.686 E1.0
G1 X138.045 Y86.173 E1.0
G1 X140.325 Y87.992 E1.0
G1 X142.31 Y90.133 E1.0
G1 X143.982 Y92.583 E1.0
G1 X145.255 Y95.225 E1.0
G1 X146.12 Y98.029 E1.0
G1 X146.556 Y100.922 E1.0
G1 X146.556 Y103.88 E1.0
G1 X146.12 Y106.773 E1.0
G1 X145.256 Y109.574 E1.0
G1 X143.985 Y112.215 E1.0
G1 X142.307 Y114.674 E1.0
G1 X140.325 Y116.809 E1.0
G1 X138.045 Y118.628 E1.0
G1 X135.469 Y120.115 E1.0
G1 X132.751 Y121.183 E1.0
G1 X129.906 Y121.832 E1.0
G1 X126.956 Y122.052 E1.0
G1 X124.008 Y121.832 E1.0
G1 X121.158 Y121.181 E1.0
G1 X118.443 Y120.115 E1.0
G1 X115.883 Y118.637 E1.0
G1 X113.57 Y116.792 E1.0
G1 X111.607 Y114.674 E1.0
G1 X109.926 Y112.212 E1.0
G1 X108.659 Y109.583 E1.0
G1 X107.791 Y106.769 E1.0
G1 X107.791 Y106.769 E1.0
;Curves end: 1-8 @ Z0.8 Distance: 120.43

G0 X109.355 Y106.409 ;Move To

;Curve: 1-9 @ Z0.8
G1 X108.956 Y103.763 E1.0 F1000.0
G1 X108.956 Y101.039 E1.0
G1 X109.356 Y98.384 E1.0
G1 X110.151 Y95.807 E1.0
G1 X111.316 Y93.389 E1.0
G1 X112.857 Y91.132 E1.0
G1 X114.66 Y89.187 E1.0
G1 X116.787 Y87.49 E1.0
G1 X119.142 Y86.13 E1.0
G1 X121.629 Y85.154 E1.0
G1 X124.245 Y84.556 E1.0
G1 X126.956 Y84.354 E1.0
G1 X129.669 Y84.556 E1.0
G1 X132.28 Y85.152 E1.0
G1 X134.769 Y86.13 E1.0
G1 X137.141 Y87.499 E1.0
G1 X139.235 Y89.17 E1.0
G1 X141.053 Y91.131 E1.0
G1 X142.594 Y93.389 E1.0
G1 X143.761 Y95.809 E1.0
G1 X144.556 Y98.389 E1.0
G1 X144.956 Y101.041 E1.0
G1 X144.956 Y103.761 E1.0
G1 X144.556 Y106.413 E1.0
G1 X143.762 Y108.987 E1.0
G1 X142.595 Y111.412 E1.0
G1 X141.053 Y113.672 E1.0
G1 X139.232 Y115.634 E1.0
G1 X137.141 Y117.302 E1.0
G1 X134.769 Y118.671 E1.0
G1 X132.28 Y119.649 E1.0
G1 X129.669 Y120.245 E1.0
G1 X126.956 Y120.447 E1.0
G1 X124.245 Y120.245 E1.0
G1 X121.629 Y119.647 E1.0
G1 X119.142 Y118.671 E1.0
G1 X116.787 Y117.311 E1.0
G1 X114.66 Y115.614 E1.0
G1 X112.86 Y113.672 E1.0
G1 X111.316 Y111.411 E1.0
G1 X110.153 Y108.999 E1.0
G1 X109.355 Y106.409 E1.0
G1 X109.355 Y106.409 E1.0
;Curves end: 1-9 @ Z0.8 Distance: 110.68

G0 X110.919 Y106.053 ;Move To

;Curve: 1-10 @ Z0.8
G1 X110.556 Y103.643 E1.0 F1000.0
G1 X110.556 Y101.158 E1.0
G1 X110.92 Y98.744 E1.0
G1 X111.646 Y96.388 E1.0
G1 X112.704 Y94.193 E1.0
G1 X114.11 Y92.134 E1.0
G1 X115.75 Y90.365 E1.0
G1 X117.691 Y88.816 E1.0
G1 X119.841 Y87.574 E1.0
G1 X122.099 Y86.688 E1.0
G1 X124.483 Y86.143 E1.0
G1 X126.956 Y85.959 E1.0
G1 X129.432 Y86.143 E1.0
G1 X131.809 Y86.686 E1.0
G1 X134.07 Y87.574 E1.0
G1 X136.237 Y88.825 E1.0
G1 X138.145 Y90.348 E1.0
G1 X139.796 Y92.129 E1.0
G1 X141.207 Y94.195 E1.0
G1 X142.267 Y96.395 E1.0
G1 X142.992 Y98.746 E1.0
G1 X143.356 Y101.161 E1.0
G1 X143.356 Y103.641 E1.0
G1 X142.992 Y106.054 E1.0
G1 X142.268 Y108.4 E1.0
G1 X141.205 Y110.609 E1.0
G1 X139.797 Y112.674 E1.0
G1 X138.143 Y114.456 E1.0
G1 X136.237 Y115.976 E1.0
G1 X134.07 Y117.227 E1.0
G1 X131.809 Y118.115 E1.0
G1 X129.432 Y118.658 E1.0
G1 X126.956 Y118.842 E1.0
G1 X124.483 Y118.658 E1.0
G1 X122.099 Y118.113 E1.0
G1 X119.841 Y117.227 E1.0
G1 X117.691 Y115.985 E1.0
G1 X115.75 Y114.436 E1.0
G1 X114.113 Y112.67 E1.0
G1 X112.706 Y110.61 E1.0
G1 X111.647 Y108.413 E1.0
G1 X110.919 Y106.053 E1.0
G1 X110.919 Y106.053 E1.0
;Curves end: 1-10 @ Z0.8 Distance: 100.84

G0 X112.483 Y105.693 ;Move To

;Curve: 1-11 @ Z0.8
G1 X112.156 Y103.525 E1.0 F1000.0
G1 X112.156 Y101.278 E1.0
G1 X112.484 Y99.101 E1.0
G1 X113.14 Y96.974 E1.0
G1 X114.094 Y94.994 E1.0
G1 X115.363 Y93.136 E1.0
G1 X116.84 Y91.543 E1.0
G1 X118.6 Y90.138 E1.0
G1 X120.537 Y89.019 E1.0
G1 X122.566 Y88.223 E1.0
G1 X124.721 Y87.73 E1.0
G1 X126.956 Y87.564 E1.0
G1 X129.195 Y87.73 E1.0
G1 X131.338 Y88.22 E1.0
G1 X133.371 Y89.018 E1.0
G1 X135.337 Y90.153 E1.0
G1 X137.052 Y91.522 E1.0
G1 X138.543 Y93.131 E1.0
G1 X139.819 Y94.999 E1.0
G1 X140.773 Y96.978 E1.0
G1 X141.428 Y99.104 E1.0
G1 X141.756 Y101.28 E1.0
G1 X141.756 Y103.521 E1.0
G1 X141.428 Y105.695 E1.0
G1 X140.774 Y107.813 E1.0
G1 X139.814 Y109.81 E1.0
G1 X138.543 Y111.673 E1.0
G1 X137.054 Y113.278 E1.0
G1 X135.333 Y114.65 E1.0
G1 X133.371 Y115.783 E1.0
G1 X131.338 Y116.581 E1.0
G1 X129.195 Y117.071 E1.0
G1 X126.956 Y117.237 E1.0
G1 X124.721 Y117.071 E1.0
G1 X122.566 Y116.578 E1.0
G1 X120.537 Y115.782 E1.0
G1 X118.6 Y114.663 E1.0
G1 X116.84 Y113.258 E1.0
G1 X115.366 Y111.668 E1.0
G1 X114.096 Y109.809 E1.0
G1 X113.141 Y107.829 E1.0
G1 X112.483 Y105.693 E1.0
G1 X112.483 Y105.693 E1.0
;Curves end: 1-11 @ Z0.8 Distance: 90.99

G0 X114.047 Y105.337 ;Move To

;Curve: 1-12 @ Z0.8
G1 X113.756 Y103.405 E1.0 F1000.0
G1 X113.756 Y101.397 E1.0
G1 X114.048 Y99.461 E1.0
G1 X114.635 Y97.555 E1.0
G1 X115.482 Y95.798 E1.0
G1 X116.616 Y94.138 E1.0
G1 X117.933 Y92.717 E1.0
G1 X119.505 Y91.463 E1.0
G1 X121.233 Y90.464 E1.0
G1 X123.033 Y89.758 E1.0
G1 X124.959 Y89.317 E1.0
G1 X126.957 Y89.169 E1.0
G1 X128.956 Y89.317 E1.0
G1 X130.868 Y89.754 E1.0
G1 X132.672 Y90.462 E1.0
G1 X134.437 Y91.481 E1.0
G1 X135.955 Y92.693 E1.0
G1 X137.293 Y94.137 E1.0
G1 X138.429 Y95.8 E1.0
G1 X139.279 Y97.564 E1.0
G1 X139.864 Y99.461 E1.0
G1 X140.156 Y101.399 E1.0
G1 X140.156 Y103.401 E1.0
G1 X139.864 Y105.336 E1.0
G1 X139.28 Y107.229 E1.0
G1 X138.426 Y109.005 E1.0
G1 X137.286 Y110.675 E1.0
G1 X135.962 Y112.103 E1.0
G1 X134.433 Y113.322 E1.0
G1 X132.672 Y114.339 E1.0
G1 X130.868 Y115.047 E1.0
G1 X128.956 Y115.484 E1.0
G1 X126.957 Y115.632 E1.0
G1 X124.959 Y115.484 E1.0
G1 X123.033 Y115.043 E1.0
G1 X121.233 Y114.337 E1.0
G1 X119.505 Y113.338 E1.0
G1 X117.933 Y112.084 E1.0
G1 X116.621 Y110.669 E1.0
G1 X115.484 Y109.004 E1.0
G1 X114.635 Y107.243 E1.0
G1 X114.047 Y105.337 E1.0
G1 X114.047 Y105.337 E1.0
;Curves end: 1-12 @ Z0.8 Distance: 81.11

G0 X115.611 Y104.977 ;Move To

;Curve: 1-13 @ Z0.8
G1 X115.356 Y103.287 E1.0 F1000.0
G1 X115.356 Y101.517 E1.0
G1 X115.612 Y99.817 E1.0
G1 X116.129 Y98.141 E1.0
G1 X116.87 Y96.603 E1.0
G1 X117.871 Y95.137 E1.0
G1 X119.023 Y93.895 E1.0
G1 X120.411 Y92.787 E1.0
G1 X121.927 Y91.911 E1.0
G1 X123.507 Y91.291 E1.0
G1 X125.198 Y90.904 E1.0
G1 X126.957 Y90.774 E1.0
G1 X128.719 Y90.904 E1.0
G1 X130.397 Y91.288 E1.0
G1 X131.973 Y91.906 E1.0
G1 X133.537 Y92.809 E1.0
G1 X134.861 Y93.866 E1.0
G1 X136.041 Y95.139 E1.0
G1 X137.039 Y96.601 E1.0
G1 X137.785 Y98.148 E1.0
G1 X138.3 Y99.82 E1.0
G1 X138.556 Y101.518 E1.0
G1 X138.556 Y103.281 E1.0
G1 X138.3 Y104.977 E1.0
G1 X137.785 Y106.645 E1.0
G1 X137.036 Y108.205 E1.0
G1 X136.033 Y109.673 E1.0
G1 X134.87 Y110.928 E1.0
G1 X133.533 Y111.994 E1.0
G1 X131.973 Y112.895 E1.0
G1 X130.397 Y113.513 E1.0
G1 X128.719 Y113.897 E1.0
G1 X126.957 Y114.027 E1.0
G1 X125.198 Y113.897 E1.0
G1 X123.507 Y113.51 E1.0
G1 X121.927 Y112.89 E1.0
G1 X120.411 Y112.014 E1.0
G1 X119.023 Y110.906 E1.0
G1 X117.874 Y109.667 E1.0
G1 X116.874 Y108.203 E1.0
G1 X116.129 Y106.659 E1.0
G1 X115.611 Y104.977 E1.0
G1 X115.611 Y104.977 E1.0
;Curves end: 1-13 @ Z0.8 Distance: 71.29

G0 X117.175 Y104.621 ;Move To

;Curve: 1-14 @ Z0.8
G1 X116.956 Y103.167 E1.0 F1000.0
G1 X116.956 Y101.635 E1.0
G1 X117.176 Y100.176 E1.0
G1 X117.624 Y98.722 E1.0
G1 X118.258 Y97.407 E1.0
G1 X119.124 Y96.139 E1.0
G1 X120.116 Y95.069 E1.0
G1 X121.313 Y94.114 E1.0
G1 X122.626 Y93.355 E1.0
G1 X123.975 Y92.826 E1.0
G1 X125.437 Y92.491 E1.0
G1 X126.957 Y92.379 E1.0
G1 X128.48 Y92.491 E1.0
G1 X129.924 Y92.821 E1.0
G1 X131.277 Y93.352 E1.0
G1 X132.637 Y94.137 E1.0
G1 X133.767 Y95.04 E1.0
G1 X134.788 Y96.141 E1.0
G1 X135.649 Y97.402 E1.0
G1 X136.291 Y98.734 E1.0
G1 X136.736 Y100.176 E1.0
G1 X136.956 Y101.638 E1.0
G1 X136.956 Y103.161 E1.0
G1 X136.736 Y104.618 E1.0
G1 X136.29 Y106.062 E1.0
G1 X135.647 Y107.401 E1.0
G1 X134.781 Y108.67 E1.0
G1 X133.774 Y109.756 E1.0
G1 X132.633 Y110.666 E1.0
G1 X131.277 Y111.449 E1.0
G1 X129.924 Y111.98 E1.0
G1 X128.48 Y112.31 E1.0
G1 X126.957 Y112.422 E1.0
G1 X125.437 Y112.31 E1.0
G1 X123.975 Y111.975 E1.0
G1 X122.626 Y111.446 E1.0
G1 X121.313 Y110.687 E1.0
G1 X120.116 Y109.732 E1.0
G1 X119.127 Y108.665 E1.0
G1 X118.264 Y107.401 E1.0
G1 X117.623 Y106.073 E1.0
G1 X117.175 Y104.621 E1.0
G1 X117.175 Y104.621 E1.0
;Curves end: 1-14 @ Z0.8 Distance: 61.49

G0 X118.739 Y104.261 ;Move To

;Curve: 1-15 @ Z0.8
G1 X118.556 Y103.049 E1.0 F1000.0
G1 X118.556 Y101.755 E1.0
G1 X118.74 Y100.532 E1.0
G1 X119.118 Y99.308 E1.0
G1 X119.648 Y98.208 E1.0
G1 X120.377 Y97.141 E1.0
G1 X121.206 Y96.247 E1.0
G1 X122.219 Y95.438 E1.0
G1 X123.32 Y94.802 E1.0
G1 X124.449 Y94.359 E1.0
G1 X125.676 Y94.078 E1.0
G1 X126.958 Y93.984 E1.0
G1 X128.243 Y94.078 E1.0
G1 X129.453 Y94.355 E1.0
G1 X130.578 Y94.796 E1.0
G1 X131.733 Y95.463 E1.0
G1 X132.676 Y96.217 E1.0
G1 X133.535 Y97.143 E1.0
G1 X134.259 Y98.203 E1.0
G1 X134.797 Y99.318 E1.0
G1 X135.172 Y100.536 E1.0
G1 X135.356 Y101.756 E1.0
G1 X135.356 Y103.041 E1.0
G1 X135.172 Y104.259 E1.0
G1 X134.795 Y105.478 E1.0
G1 X134.259 Y106.596 E1.0
G1 X133.524 Y107.672 E1.0
G1 X132.684 Y108.578 E1.0
G1 X131.729 Y109.34 E1.0
G1 X130.578 Y110.005 E1.0
G1 X129.453 Y110.446 E1.0
G1 X128.243 Y110.723 E1.0
G1 X126.958 Y110.817 E1.0
G1 X125.676 Y110.723 E1.0
G1 X124.449 Y110.442 E1.0
G1 X123.32 Y109.999 E1.0
G1 X122.219 Y109.363 E1.0
G1 X121.206 Y108.554 E1.0
G1 X120.38 Y107.663 E1.0
G1 X119.655 Y106.602 E1.0
G1 X119.116 Y105.485 E1.0
G1 X118.739 Y104.261 E1.0
G1 X118.739 Y104.261 E1.0
;Curves end: 1-15 @ Z0.8 Distance: 51.61

G0 X120.303 Y103.904 ;Move To

;Curve: 1-16 @ Z0.8
G1 X120.156 Y102.929 E1.0 F1000.0
G1 X120.156 Y101.873 E1.0
G1 X120.304 Y100.892 E1.0
G1 X120.613 Y99.89 E1.0
G1 X121.034 Y99.015 E1.0
G1 X121.632 Y98.14 E1.0
G1 X122.3 Y97.421 E1.0
G1 X123.124 Y96.763 E1.0
G1 X124.016 Y96.247 E1.0
G1 X124.917 Y95.894 E1.0
G1 X125.915 Y95.665 E1.0
G1 X126.958 Y95.589 E1.0
G1 X128.004 Y95.665 E1.0
G1 X128.98 Y95.888 E1.0
G1 X129.882 Y96.242 E1.0
G1 X130.829 Y96.789 E1.0
G1 X131.585 Y97.394 E1.0
G1 X132.283 Y98.145 E1.0
G1 X132.869 Y99.005 E1.0
G1 X133.303 Y99.904 E1.0
G1 X133.608 Y100.892 E1.0
G1 X133.756 Y101.876 E1.0
G1 X133.756 Y102.921 E1.0
G1 X133.608 Y103.898 E1.0
G1 X133.301 Y104.893 E1.0
G1 X132.866 Y105.799 E1.0
G1 X132.271 Y106.67 E1.0
G1 X131.594 Y107.4 E1.0
G1 X130.82 Y108.018 E1.0
G1 X129.887 Y108.557 E1.0
G1 X128.98 Y108.913 E1.0
G1 X128.004 Y109.136 E1.0
G1 X126.958 Y109.212 E1.0
G1 X125.915 Y109.136 E1.0
G1 X124.917 Y108.907 E1.0
G1 X124.016 Y108.554 E1.0
G1 X123.124 Y108.038 E1.0
G1 X122.3 Y107.38 E1.0
G1 X121.635 Y106.664 E1.0
G1 X121.043 Y105.797 E1.0
G1 X120.61 Y104.899 E1.0
G1 X120.303 Y103.904 E1.0
G1 X120.303 Y103.904 E1.0
;Curves end: 1-16 @ Z0.8 Distance: 41.84

G0 X121.867 Y103.545 ;Move To

;Curve: 1-17 @ Z0.8
G1 X121.756 Y102.809 E1.0 F1000.0
G1 X121.756 Y101.993 E1.0
G1 X121.868 Y101.251 E1.0
G1 X122.107 Y100.477 E1.0
G1 X122.424 Y99.817 E1.0
G1 X122.887 Y99.14 E1.0
G1 X123.393 Y98.595 E1.0
G1 X124.026 Y98.089 E1.0
G1 X124.71 Y97.694 E1.0
G1 X125.395 Y97.425 E1.0
G1 X126.149 Y97.252 E1.0
G1 X126.958 Y97.193 E1.0
G1 X127.767 Y97.252 E1.0
G1 X128.509 Y97.422 E1.0
G1 X129.188 Y97.688 E1.0
G1 X129.921 Y98.112 E1.0
G1 X130.494 Y98.57 E1.0
G1 X131.029 Y99.146 E1.0
G1 X131.478 Y99.805 E1.0
G1 X131.81 Y100.492 E1.0
G1 X132.044 Y101.252 E1.0
G1 X132.156 Y101.994 E1.0
G1 X132.156 Y102.8 E1.0
G1 X132.044 Y103.54 E1.0
G1 X131.806 Y104.31 E1.0
G1 X131.477 Y104.995 E1.0
G1 X131.016 Y105.671 E1.0
G1 X130.501 Y106.226 E1.0
G1 X129.915 Y106.693 E1.0
G1 X129.193 Y107.111 E1.0
G1 X128.509 Y107.379 E1.0
G1 X127.767 Y107.549 E1.0
G1 X126.958 Y107.608 E1.0
G1 X126.149 Y107.549 E1.0
G1 X125.395 Y107.376 E1.0
G1 X124.71 Y107.107 E1.0
G1 X124.026 Y106.712 E1.0
G1 X123.393 Y106.206 E1.0
G1 X122.887 Y105.662 E1.0
G1 X122.433 Y104.996 E1.0
G1 X122.104 Y104.315 E1.0
G1 X121.867 Y103.545 E1.0
G1 X121.867 Y103.545 E1.0
;Curves end: 1-17 @ Z0.8 Distance: 31.94

G0 X123.431 Y103.189 ;Move To

;Curve: 1-18 @ Z0.8
G1 X123.356 Y102.689 E1.0 F1000.0
G1 X123.356 Y102.113 E1.0
G1 X123.432 Y101.61 E1.0
G1 X123.602 Y101.061 E1.0
G1 X123.813 Y100.621 E1.0
G1 X124.139 Y100.144 E1.0
G1 X124.487 Y99.769 E1.0
G1 X124.93 Y99.415 E1.0
G1 X125.41 Y99.138 E1.0
G1 X125.87 Y98.957 E1.0
G1 X126.383 Y98.839 E1.0
G1 X126.958 Y98.797 E1.0
G1 X127.528 Y98.839 E1.0
G1 X128.036 Y98.955 E1.0
G1 X128.494 Y99.135 E1.0
G1 X129.015 Y99.436 E1.0
G1 X129.404 Y99.747 E1.0
G1 X129.775 Y100.146 E1.0
G1 X130.087 Y100.605 E1.0
G1 X130.317 Y101.081 E1.0
G1 X130.48 Y101.608 E1.0
G1 X130.556 Y102.114 E1.0
G1 X130.556 Y102.68 E1.0
G1 X130.48 Y103.18 E1.0
G1 X130.312 Y103.726 E1.0
G1 X130.087 Y104.194 E1.0
G1 X129.762 Y104.67 E1.0
G1 X129.409 Y105.051 E1.0
G1 X129.015 Y105.365 E1.0
G1 X128.496 Y105.665 E1.0
G1 X128.036 Y105.846 E1.0
G1 X127.528 Y105.962 E1.0
G1 X126.958 Y106.004 E1.0
G1 X126.383 Y105.962 E1.0
G1 X125.87 Y105.844 E1.0
G1 X125.41 Y105.663 E1.0
G1 X124.93 Y105.386 E1.0
G1 X124.486 Y105.031 E1.0
G1 X124.138 Y104.657 E1.0
G1 X123.824 Y104.196 E1.0
G1 X123.597 Y103.726 E1.0
G1 X123.431 Y103.189 E1.0
G1 X123.431 Y103.189 E1.0
;Curves end: 1-18 @ Z0.8 Distance: 22.14

G0 X124.994 Y102.827 ;Move To

;Curve: 1-19 @ Z0.8
G1 X124.956 Y102.572 E1.0 F1000.0
G1 X124.956 Y102.233 E1.0
G1 X124.996 Y101.965 E1.0
G1 X125.094 Y101.652 E1.0
G1 X125.204 Y101.422 E1.0
G1 X125.394 Y101.144 E1.0
G1 X125.578 Y100.946 E1.0
G1 X125.834 Y100.741 E1.0
G1 X126.108 Y100.583 E1.0
G1 X126.347 Y100.489 E1.0
G1 X126.619 Y100.426 E1.0
G1 X126.957 Y100.402 E1.0
G1 X127.291 Y100.426 E1.0
G1 X127.565 Y100.489 E1.0
G1 X127.8 Y100.581 E1.0
G1 X128.106 Y100.758 E1.0
G1 X128.311 Y100.922 E1.0
G1 X128.524 Y101.151 E1.0
G1 X128.695 Y101.403 E1.0
G1 X128.823 Y101.668 E1.0
G1 X128.917 Y101.97 E1.0
G1 X128.956 Y102.232 E1.0
G1 X128.956 Y102.558 E1.0
G1 X128.916 Y102.824 E1.0
G1 X128.818 Y103.141 E1.0
G1 X128.697 Y103.394 E1.0
G1 X128.509 Y103.668 E1.0
G1 X128.316 Y103.876 E1.0
G1 X128.113 Y104.039 E1.0
G1 X127.8 Y104.219 E1.0
G1 X127.562 Y104.313 E1.0
G1 X127.291 Y104.375 E1.0
G1 X126.957 Y104.399 E1.0
G1 X126.619 Y104.375 E1.0
G1 X126.347 Y104.312 E1.0
G1 X126.108 Y104.218 E1.0
G1 X125.834 Y104.06 E1.0
G1 X125.575 Y103.853 E1.0
G1 X125.392 Y103.656 E1.0
G1 X125.215 Y103.396 E1.0
G1 X125.091 Y103.14 E1.0
G1 X124.994 Y102.827 E1.0
G1 X124.994 Y102.827 E1.0
;Curves end: 1-19 @ Z0.8 Distance: 12.35

G0 X126.56 Y102.474 ;Move To

;Curve: 1-20 @ Z0.8
G1 X126.556 Y102.45 E1.0 F1000.0
G1 X126.556 Y102.348 E1.0
G1 X126.559 Y102.328 E1.0
G1 X126.589 Y102.233 E1.0
G1 X126.592 Y102.227 E1.0
G1 X126.649 Y102.144 E1.0
G1 X126.669 Y102.122 E1.0
G1 X126.74 Y102.065 E1.0
G1 X126.802 Y102.029 E1.0
G1 X126.822 Y102.022 E1.0
G1 X126.859 Y102.013 E1.0
G1 X126.955 Y102.006 E1.0
G1 X127.055 Y102.013 E1.0
G1 X127.09 Y102.021 E1.0
G1 X127.104 Y102.027 E1.0
G1 X127.2 Y102.082 E1.0
G1 X127.217 Y102.096 E1.0
G1 X127.272 Y102.155 E1.0
G1 X127.303 Y102.201 E1.0
G1 X127.33 Y102.256 E1.0
G1 X127.352 Y102.327 E1.0
G1 X127.356 Y102.351 E1.0
G1 X127.356 Y102.44 E1.0
G1 X127.353 Y102.462 E1.0
G1 X127.322 Y102.563 E1.0
G1 X127.308 Y102.591 E1.0
G1 X127.258 Y102.665 E1.0
G1 X127.226 Y102.699 E1.0
G1 X127.206 Y102.715 E1.0
G1 X127.102 Y102.774 E1.0
G1 X127.089 Y102.779 E1.0
G1 X127.053 Y102.788 E1.0
G1 X126.955 Y102.795 E1.0
G1 X126.859 Y102.788 E1.0
G1 X126.822 Y102.779 E1.0
G1 X126.802 Y102.772 E1.0
G1 X126.74 Y102.736 E1.0
G1 X126.663 Y102.674 E1.0
G1 X126.648 Y102.657 E1.0
G1 X126.603 Y102.591 E1.0
G1 X126.583 Y102.551 E1.0
G1 X126.56 Y102.474 E1.0
G1 X126.56 Y102.474 E1.0
;Layer end: 1

G0 X98.408 Y108.918 Z1.6 ;Layer Change Transition Move

;Layer: 2 @ Z1.6
;TYPE:WALL-OUTER
;Curve: 2-1 @ Z1.6
G1 X97.756 Y104.59 E1.0 F1000.0
G1 X97.756 Y100.211 E1.0
G1 X98.408 Y95.883 E1.0
G1 X99.696 Y91.706 E1.0
G1 X101.597 Y87.76 E1.0
G1 X104.065 Y84.14 E1.0
G1 X107.034 Y80.94 E1.0
G1 X110.463 Y78.206 E1.0
G1 X114.251 Y76.019 E1.0
G1 X118.325 Y74.419 E1.0
G1 X122.59 Y73.446 E1.0
G1 X126.956 Y73.118 E1.0
G1 X131.321 Y73.446 E1.0
G1 X135.586 Y74.419 E1.0
G1 X139.661 Y76.019 E1.0
G1 X143.453 Y78.208 E1.0
G1 X146.873 Y80.936 E1.0
G1 X149.846 Y84.14 E1.0
G1 X152.314 Y87.76 E1.0
G1 X154.215 Y91.706 E1.0
G1 X155.504 Y95.883 E1.0
G1 X156.156 Y100.211 E1.0
G1 X156.156 Y104.59 E1.0
G1 X155.504 Y108.918 E1.0
G1 X154.215 Y113.096 E1.0
G1 X152.314 Y117.042 E1.0
G1 X149.846 Y120.661 E1.0
G1 X146.873 Y123.865 E1.0
G1 X143.453 Y126.593 E1.0
G1 X139.661 Y128.782 E1.0
G1 X135.586 Y130.382 E1.0
G1 X131.321 Y131.355 E1.0
G1 X126.956 Y131.683 E1.0
G1 X122.59 Y131.355 E1.0
G1 X118.325 Y130.382 E1.0
G1 X114.251 Y128.782 E1.0
G1 X110.463 Y126.595 E1.0
G1 X107.034 Y123.861 E1.0
G1 X104.065 Y120.661 E1.0
G1 X101.597 Y117.042 E1.0
G1 X99.696 Y113.096 E1.0
G1 X98.408 Y108.918 E1.0
G1 X98.408 Y108.918 E1.0
;Curves end: 2-1 @ Z1.6 Distance: 179.42

G0 X99.971 Y108.558 ;Move To

;Curve: 2-2 @ Z1.6
;TYPE:FILL
G1 X99.356 Y104.472 E1.0 F1000.0
G1 X99.356 Y100.329 E1.0
G1 X99.972 Y96.237 E1.0
G1 X101.186 Y92.298 E1.0
G1 X102.987 Y88.564 E1.0
G1 X105.325 Y85.134 E1.0
G1 X108.12 Y82.122 E1.0
G1 X111.367 Y79.532 E1.0
G1 X114.945 Y77.466 E1.0
G1 X118.802 Y75.951 E1.0
G1 X122.826 Y75.034 E1.0
G1 X126.956 Y74.724 E1.0
G1 X131.085 Y75.034 E1.0
G1 X135.112 Y75.951 E1.0
G1 X138.965 Y77.465 E1.0
G1 X142.553 Y79.536 E1.0
G1 X145.783 Y82.114 E1.0
G1 X148.586 Y85.134 E1.0
G1 X150.924 Y88.564 E1.0
G1 X152.725 Y92.299 E1.0
G1 X153.94 Y96.237 E1.0
G1 X154.556 Y100.329 E1.0
G1 X154.556 Y104.472 E1.0
G1 X153.94 Y108.564 E1.0
G1 X152.725 Y112.503 E1.0
G1 X150.924 Y116.238 E1.0
G1 X148.586 Y119.667 E1.0
G1 X145.783 Y122.687 E1.0
G1 X142.553 Y125.265 E1.0
G1 X138.965 Y127.336 E1.0
G1 X135.112 Y128.85 E1.0
G1 X131.085 Y129.767 E1.0
G1 X126.956 Y130.077 E1.0
G1 X122.826 Y129.767 E1.0
G1 X118.802 Y128.85 E1.0
G1 X114.945 Y127.335 E1.0
G1 X111.367 Y125.269 E1.0
G1 X108.12 Y122.679 E1.0
G1 X105.325 Y119.667 E1.0
G1 X102.987 Y116.238 E1.0
G1 X101.189 Y112.509 E1.0
G1 X99.971 Y108.558 E1.0
G1 X99.971 Y108.558 E1.0
;Curves end: 2-2 @ Z1.6 Distance: 169.59

G0 X101.535 Y108.201 ;Move To

;Curve: 2-3 @ Z1.6
G1 X100.956 Y104.354 E1.0 F1000.0
G1 X100.956 Y100.447 E1.0
G1 X101.536 Y96.594 E1.0
G1 X102.68 Y92.884 E1.0
G1 X104.376 Y89.366 E1.0
G1 X106.579 Y86.135 E1.0
G1 X109.209 Y83.3 E1.0
G1 X112.271 Y80.858 E1.0
G1 X115.645 Y78.91 E1.0
G1 X119.274 Y77.484 E1.0
G1 X123.061 Y76.621 E1.0
G1 X126.956 Y76.329 E1.0
G1 X130.85 Y76.621 E1.0
G1 X134.64 Y77.484 E1.0
G1 X138.265 Y78.909 E1.0
G1 X141.649 Y80.862 E1.0
G1 X144.694 Y83.292 E1.0
G1 X147.332 Y86.135 E1.0
G1 X149.535 Y89.366 E1.0
G1 X151.231 Y92.883 E1.0
G1 X152.376 Y96.597 E1.0
G1 X152.956 Y100.447 E1.0
G1 X152.956 Y104.354 E1.0
G1 X152.376 Y108.205 E1.0
G1 X151.231 Y111.919 E1.0
G1 X149.535 Y115.436 E1.0
G1 X147.332 Y118.666 E1.0
G1 X144.694 Y121.509 E1.0
G1 X141.649 Y123.939 E1.0
G1 X138.265 Y125.892 E1.0
G1 X134.64 Y127.317 E1.0
G1 X130.85 Y128.18 E1.0
G1 X126.956 Y128.472 E1.0
G1 X123.061 Y128.18 E1.0
G1 X119.274 Y127.317 E1.0
G1 X115.645 Y125.891 E1.0
G1 X112.271 Y123.943 E1.0
G1 X109.209 Y121.501 E1.0
G1 X106.579 Y118.666 E1.0
G1 X104.376 Y115.436 E1.0
G1 X102.683 Y111.923 E1.0
G1 X101.535 Y108.201 E1.0
G1 X101.535 Y108.201 E1.0
;Curves end: 2-3 @ Z1.6 Distance: 159.74

G0 X103.099 Y107.842 ;Move To

;Curve: 2-4 @ Z1.6
G1 X102.556 Y104.236 E1.0 F1000.0
G1 X102.556 Y100.565 E1.0
G1 X103.1 Y96.951 E1.0
G1 X104.174 Y93.47 E1.0
G1 X105.765 Y90.168 E1.0
G1 X107.833 Y87.136 E1.0
G1 X110.298 Y84.478 E1.0
G1 X113.175 Y82.184 E1.0
G1 X116.345 Y80.354 E1.0
G1 X119.745 Y79.018 E1.0
G1 X123.297 Y78.208 E1.0
G1 X126.956 Y77.934 E1.0
G1 X130.615 Y78.208 E1.0
G1 X134.168 Y79.017 E1.0
G1 X137.565 Y80.353 E1.0
G1 X140.745 Y82.188 E1.0
G1 X143.604 Y84.47 E1.0
G1 X146.078 Y87.136 E1.0
G1 X148.146 Y90.169 E1.0
G1 X149.737 Y93.469 E1.0
G1 X150.812 Y96.954 E1.0
G1 X151.356 Y100.566 E1.0
G1 X151.356 Y104.236 E1.0
G1 X150.812 Y107.848 E1.0
G1 X149.737 Y111.333 E1.0
G1 X148.148 Y114.63 E1.0
G1 X146.075 Y117.668 E1.0
G1 X143.604 Y120.331 E1.0
G1 X140.745 Y122.613 E1.0
G1 X137.565 Y124.448 E1.0
G1 X134.168 Y125.784 E1.0
G1 X130.615 Y126.593 E1.0
G1 X126.956 Y126.867 E1.0
G1 X123.297 Y126.593 E1.0
G1 X119.745 Y125.783 E1.0
G1 X116.345 Y124.447 E1.0
G1 X113.175 Y122.617 E1.0
G1 X110.298 Y120.323 E1.0
G1 X107.836 Y117.668 E1.0
G1 X105.764 Y114.63 E1.0
G1 X104.177 Y111.339 E1.0
G1 X103.099 Y107.842 E1.0
G1 X103.099 Y107.842 E1.0
;Curves end: 2-4 @ Z1.6 Distance: 149.92

G0 X104.663 Y107.485 ;Move To

;Curve: 2-5 @ Z1.6
G1 X104.156 Y104.118 E1.0 F1000.0
G1 X104.156 Y100.683 E1.0
G1 X104.664 Y97.31 E1.0
G1 X105.668 Y94.054 E1.0
G1 X107.153 Y90.974 E1.0
G1 X109.09 Y88.134 E1.0
G1 X111.39 Y85.653 E1.0
G1 X114.075 Y83.512 E1.0
G1 X117.045 Y81.798 E1.0
G1 X120.216 Y80.552 E1.0
G1 X123.534 Y79.795 E1.0
G1 X126.956 Y79.539 E1.0
G1 X130.38 Y79.795 E1.0
G1 X133.693 Y80.55 E1.0
G1 X136.868 Y81.798 E1.0
G1 X139.845 Y83.516 E1.0
G1 X142.511 Y85.644 E1.0
G1 X144.824 Y88.137 E1.0
G1 X146.757 Y90.971 E1.0
G1 X148.243 Y94.053 E1.0
G1 X149.248 Y97.314 E1.0
G1 X149.756 Y100.684 E1.0
G1 X149.756 Y104.118 E1.0
G1 X149.248 Y107.488 E1.0
G1 X148.243 Y110.749 E1.0
G1 X146.761 Y113.824 E1.0
G1 X144.819 Y116.67 E1.0
G1 X142.511 Y119.157 E1.0
G1 X139.845 Y121.285 E1.0
G1 X136.868 Y123.003 E1.0
G1 X133.693 Y124.251 E1.0
G1 X130.38 Y125.006 E1.0
G1 X126.956 Y125.262 E1.0
G1 X123.534 Y125.006 E1.0
G1 X120.216 Y124.249 E1.0
G1 X117.045 Y123.003 E1.0
G1 X114.075 Y121.289 E1.0
G1 X111.39 Y119.148 E1.0
G1 X109.093 Y116.67 E1.0
G1 X107.151 Y113.824 E1.0
G1 X105.671 Y110.753 E1.0
G1 X104.663 Y107.485 E1.0
G1 X104.663 Y107.485 E1.0
;Curves end: 2-5 @ Z1.6 Distance: 140.15

G0 X106.227 Y107.126 ;Move To

;Curve: 2-6 @ Z1.6
G1 X105.756 Y104 E1.0 F1000.0
G1 X105.756 Y100.801 E1.0
G1 X106.228 Y97.667 E1.0
G1 X107.162 Y94.64 E1.0
G1 X108.54 Y91.78 E1.0
G1 X110.347 Y89.132 E1.0
G1 X112.48 Y86.831 E1.0
G1 X114.979 Y84.838 E1.0
G1 X117.744 Y83.242 E1.0
G1 X120.687 Y82.086 E1.0
G1 X123.771 Y81.382 E1.0
G1 X126.956 Y81.144 E1.0
G1 X130.143 Y81.382 E1.0
G1 X133.222 Y82.084 E1.0
G1 X136.168 Y83.242 E1.0
G1 X138.945 Y84.844 E1.0
G1 X141.418 Y86.818 E1.0
G1 X143.567 Y89.135 E1.0
G1 X145.37 Y91.777 E1.0
G1 X146.749 Y94.639 E1.0
G1 X147.684 Y97.671 E1.0
G1 X148.156 Y100.803 E1.0
G1 X148.156 Y103.999 E1.0
G1 X147.684 Y107.131 E1.0
G1 X146.749 Y110.163 E1.0
G1 X145.374 Y113.018 E1.0
G1 X143.563 Y115.672 E1.0
G1 X141.418 Y117.983 E1.0
G1 X138.945 Y119.957 E1.0
G1 X136.168 Y121.559 E1.0
G1 X133.222 Y122.717 E1.0
G1 X130.143 Y123.419 E1.0
G1 X126.956 Y123.657 E1.0
G1 X123.771 Y123.419 E1.0
G1 X120.687 Y122.715 E1.0
G1 X117.744 Y121.559 E1.0
G1 X114.979 Y119.963 E1.0
G1 X112.48 Y117.97 E1.0
G1 X110.35 Y115.672 E1.0
G1 X108.539 Y113.018 E1.0
G1 X107.165 Y110.169 E1.0
G1 X106.227 Y107.126 E1.0
G1 X106.227 Y107.126 E1.0
;Curves end: 2-6 @ Z1.6 Distance: 130.32

G0 X107.791 Y106.769 ;Move To

;Curve: 2-7 @ Z1.6
G1 X107.356 Y103.881 E1.0 F1000.0
G1 X107.356 Y100.919 E1.0
G1 X107.792 Y98.027 E1.0
G1 X108.657 Y95.221 E1.0
G1 X109.926 Y92.588 E1.0
G1 X111.604 Y90.13 E1.0
G1 X113.57 Y88.009 E1.0
G1 X115.883 Y86.164 E1.0
G1 X118.443 Y84.686 E1.0
G1 X121.158 Y83.62 E1.0
G1 X124.008 Y82.969 E1.0
G1 X126.956 Y82.749 E1.0
G1 X129.906 Y82.969 E1.0
G1 X132.751 Y83.618 E1.0
G1 X135.469 Y84.686 E1.0
G1 X138.045 Y86.173 E1.0
G1 X140.325 Y87.992 E1.0
G1 X142.31 Y90.133 E1.0
G1 X143.982 Y92.583 E1.0
G1 X145.255 Y95.225 E1.0
G1 X146.12 Y98.029 E1.0
G1 X146.556 Y100.922 E1.0
G1 X146.556 Y103.88 E1.0
G1 X146.12 Y106.773 E1.0
G1 X145.256 Y109.574 E1.0
G1 X143.985 Y112.215 E1.0
G1 X142.307 Y114.674 E1.0
G1 X140.325 Y116.809 E1.0
G1 X138.045 Y118.628 E1.0
G1 X135.469 Y120.115 E1.0
G1 X132.751 Y121.183 E1.0
G1 X129.906 Y121.832 E1.0
G1 X126.956 Y122.052 E1.0
G1 X124.008 Y121.832 E1.0
G1 X121.158 Y121.181 E1.0
G1 X118.443 Y120.115 E1.0
G1 X115.883 Y118.637 E1.0
G1 X113.57 Y116.792 E1.0
G1 X111.607 Y114.674 E1.0
G1 X109.926 Y112.212 E1.0
G1 X108.659 Y109.583 E1.0
G1 X107.791 Y106.769 E1.0
G1 X107.791 Y106.769 E1.0
;Curves end: 2-7 @ Z1.6 Distance: 120.43

G0 X109.355 Y106.409 ;Move To

;Curve: 2-8 @ Z1.6
G1 X108.956 Y103.763 E1.0 F1000.0
G1 X108.956 Y101.039 E1.0
G1 X109.356 Y98.384 E1.0
G1 X110.151 Y95.807 E1.0
G1 X111.316 Y93.389 E1.0
G1 X112.857 Y91.132 E1.0
G1 X114.66 Y89.187 E1.0
G1 X116.787 Y87.49 E1.0
G1 X119.142 Y86.13 E1.0
G1 X121.629 Y85.154 E1.0
G1 X124.245 Y84.556 E1.0
G1 X126.956 Y84.354 E1.0
G1 X129.669 Y84.556 E1.0
G1 X132.28 Y85.152 E1.0
G1 X134.769 Y86.13 E1.0
G1 X137.141 Y87.499 E1.0
G1 X139.235 Y89.17 E1.0
G1 X141.053 Y91.131 E1.0
G1 X142.594 Y93.389 E1.0
G1 X143.761 Y95.809 E1.0
G1 X144.556 Y98.389 E1.0
G1 X144.956 Y101.041 E1.0
G1 X144.956 Y103.761 E1.0
G1 X144.556 Y106.413 E1.0
G1 X143.762 Y108.987 E1.0
G1 X142.595 Y111.412 E1.0
G1 X141.053 Y113.672 E1.0
G1 X139.232 Y115.634 E1.0
G1 X137.141 Y117.302 E1.0
G1 X134.769 Y118.671 E1.0
G1 X132.28 Y119.649 E1.0
G1 X129.669 Y120.245 E1.0
G1 X126.956 Y120.447 E1.0
G1 X124.245 Y120.245 E1.0
G1 X121.629 Y119.647 E1.0
G1 X119.142 Y118.671 E1.0
G1 X116.787 Y117.311 E1.0
G1 X114.66 Y115.614 E1.0
G1 X112.86 Y113.672 E1.0
G1 X111.316 Y111.411 E1.0
G1 X110.153 Y108.999 E1.0
G1 X109.355 Y106.409 E1.0
G1 X109.355 Y106.409 E1.0
;Curves end: 2-8 @ Z1.6 Distance: 110.68

G0 X110.919 Y106.053 ;Move To

;Curve: 2-9 @ Z1.6
G1 X110.556 Y103.643 E1.0 F1000.0
G1 X110.556 Y101.158 E1.0
G1 X110.92 Y98.744 E1.0
G1 X111.646 Y96.388 E1.0
G1 X112.704 Y94.193 E1.0
G1 X114.11 Y92.134 E1.0
G1 X115.75 Y90.365 E1.0
G1 X117.691 Y88.816 E1.0
G1 X119.841 Y87.574 E1.0
G1 X122.099 Y86.688 E1.0
G1 X124.483 Y86.143 E1.0
G1 X126.956 Y85.959 E1.0
G1 X129.432 Y86.143 E1.0
G1 X131.809 Y86.686 E1.0
G1 X134.07 Y87.574 E1.0
G1 X136.237 Y88.825 E1.0
G1 X138.145 Y90.348 E1.0
G1 X139.796 Y92.129 E1.0
G1 X141.207 Y94.195 E1.0
G1 X142.267 Y96.395 E1.0
G1 X142.992 Y98.746 E1.0
G1 X143.356 Y101.161 E1.0
G1 X143.356 Y103.641 E1.0
G1 X142.992 Y106.054 E1.0
G1 X142.268 Y108.4 E1.0
G1 X141.205 Y110.609 E1.0
G1 X139.797 Y112.674 E1.0
G1 X138.143 Y114.456 E1.0
G1 X136.237 Y115.976 E1.0
G1 X134.07 Y117.227 E1.0
G1 X131.809 Y118.115 E1.0
G1 X129.432 Y118.658 E1.0
G1 X126.956 Y118.842 E1.0
G1 X124.483 Y118.658 E1.0
G1 X122.099 Y118.113 E1.0
G1 X119.841 Y117.227 E1.0
G1 X117.691 Y115.985 E1.0
G1 X115.75 Y114.436 E1.0
G1 X114.113 Y112.67 E1.0
G1 X112.706 Y110.61 E1.0
G1 X111.647 Y108.413 E1.0
G1 X110.919 Y106.053 E1.0
G1 X110.919 Y106.053 E1.0
;Curves end: 2-9 @ Z1.6 Distance: 100.84

G0 X112.483 Y105.693 ;Move To

;Curve: 2-10 @ Z1.6
G1 X112.156 Y103.525 E1.0 F1000.0
G1 X112.156 Y101.278 E1.0
G1 X112.484 Y99.101 E1.0
G1 X113.14 Y96.974 E1.0
G1 X114.094 Y94.994 E1.0
G1 X115.363 Y93.136 E1.0
G1 X116.84 Y91.543 E1.0
G1 X118.6 Y90.138 E1.0
G1 X120.537 Y89.019 E1.0
G1 X122.566 Y88.223 E1.0
G1 X124.721 Y87.73 E1.0
G1 X126.956 Y87.564 E1.0
G1 X129.195 Y87.73 E1.0
G1 X131.338 Y88.22 E1.0
G1 X133.371 Y89.018 E1.0
G1 X135.337 Y90.153 E1.0
G1 X137.052 Y91.522 E1.0
G1 X138.543 Y93.131 E1.0
G1 X139.819 Y94.999 E1.0
G1 X140.773 Y96.978 E1.0
G1 X141.428 Y99.104 E1.0
G1 X141.756 Y101.28 E1.0
G1 X141.756 Y103.521 E1.0
G1 X141.428 Y105.695 E1.0
G1 X140.774 Y107.813 E1.0
G1 X139.814 Y109.81 E1.0
G1 X138.543 Y111.673 E1.0
G1 X137.054 Y113.278 E1.0
G1 X135.333 Y114.65 E1.0
G1 X133.371 Y115.783 E1.0
G1 X131.338 Y116.581 E1.0
G1 X129.195 Y117.071 E1.0
G1 X126.956 Y117.237 E1.0
G1 X124.721 Y117.071 E1.0
G1 X122.566 Y116.578 E1.0
G1 X120.537 Y115.782 E1.0
G1 X118.6 Y114.663 E1.0
G1 X116.84 Y113.258 E1.0
G1 X115.366 Y111.668 E1.0
G1 X114.096 Y109.809 E1.0
G1 X113.141 Y107.829 E1.0
G1 X112.483 Y105.693 E1.0
G1 X112.483 Y105.693 E1.0
;Curves end: 2-10 @ Z1.6 Distance: 90.99

G0 X114.047 Y105.337 ;Move To

;Curve: 2-11 @ Z1.6
G1 X113.756 Y103.405 E1.0 F1000.0
G1 X113.756 Y101.397 E1.0
G1 X114.048 Y99.461 E1.0
G1 X114.635 Y97.555 E1.0
G1 X115.482 Y95.798 E1.0
G1 X116.616 Y94.138 E1.0
G1 X117.933 Y92.717 E1.0
G1 X119.505 Y91.463 E1.0
G1 X121.233 Y90.464 E1.0
G1 X123.033 Y89.758 E1.0
G1 X124.959 Y89.317 E1.0
G1 X126.957 Y89.169 E1.0
G1 X128.956 Y89.317 E1.0
G1 X130.868 Y89.754 E1.0
G1 X132.672 Y90.462 E1.0
G1 X134.437 Y91.481 E1.0
G1 X135.955 Y92.693 E1.0
G1 X137.293 Y94.137 E1.0
G1 X138.429 Y95.8 E1.0
G1 X139.279 Y97.564 E1.0
G1 X139.864 Y99.461 E1.0
G1 X140.156 Y101.399 E1.0
G1 X140.156 Y103.401 E1.0
G1 X139.864 Y105.336 E1.0
G1 X139.28 Y107.229 E1.0
G1 X138.426 Y109.005 E1.0
G1 X137.286 Y110.675 E1.0
G1 X135.962 Y112.103 E1.0
G1 X134.433 Y113.322 E1.0
G1 X132.672 Y114.339 E1.0
G1 X130.868 Y115.047 E1.0
G1 X128.956 Y115.484 E1.0
G1 X126.957 Y115.632 E1.0
G1 X124.959 Y115.484 E1.0
G1 X123.033 Y115.043 E1.0
G1 X121.233 Y114.337 E1.0
G1 X119.505 Y113.338 E1.0
G1 X117.933 Y112.084 E1.0
G1 X116.621 Y110.669 E1.0
G1 X115.484 Y109.004 E1.0
G1 X114.635 Y107.243 E1.0
G1 X114.047 Y105.337 E1.0
G1 X114.047 Y105.337 E1.0
;Curves end: 2-11 @ Z1.6 Distance: 81.11

G0 X115.611 Y104.977 ;Move To

;Curve: 2-12 @ Z1.6
G1 X115.356 Y103.287 E1.0 F1000.0
G1 X115.356 Y101.517 E1.0
G1 X115.612 Y99.817 E1.0
G1 X116.129 Y98.141 E1.0
G1 X116.87 Y96.603 E1.0
G1 X117.871 Y95.137 E1.0
G1 X119.023 Y93.895 E1.0
G1 X120.411 Y92.787 E1.0
G1 X121.927 Y91.911 E1.0
G1 X123.507 Y91.291 E1.0
G1 X125.198 Y90.904 E1.0
G1 X126.957 Y90.774 E1.0
G1 X128.719 Y90.904 E1.0
G1 X130.397 Y91.288 E1.0
G1 X131.973 Y91.906 E1.0
G1 X133.537 Y92.809 E1.0
G1 X134.861 Y93.866 E1.0
G1 X136.041 Y95.139 E1.0
G1 X137.039 Y96.601 E1.0
G1 X137.785 Y98.148 E1.0
G1 X138.3 Y99.82 E1.0
G1 X138.556 Y101.518 E1.0
G1 X138.556 Y103.281 E1.0
G1 X138.3 Y104.977 E1.0
G1 X137.785 Y106.645 E1.0
G1 X137.036 Y108.205 E1.0
G1 X136.033 Y109.673 E1.0
G1 X134.87 Y110.928 E1.0
G1 X133.533 Y111.994 E1.0
G1 X131.973 Y112.895 E1.0
G1 X130.397 Y113.513 E1.0
G1 X128.719 Y113.897 E1.0
G1 X126.957 Y114.027 E1.0
G1 X125.198 Y113.897 E1.0
G1 X123.507 Y113.51 E1.0
G1 X121.927 Y112.89 E1.0
G1 X120.411 Y112.014 E1.0
G1 X119.023 Y110.906 E1.0
G1 X117.874 Y109.667 E1.0
G1 X116.874 Y108.203 E1.0
G1 X116.129 Y106.659 E1.0
G1 X115.611 Y104.977 E1.0
G1 X115.611 Y104.977 E1.0
;Curves end: 2-12 @ Z1.6 Distance: 71.29

G0 X117.175 Y104.621 ;Move To

;Curve: 2-13 @ Z1.6
G1 X116.956 Y103.167 E1.0 F1000.0
G1 X116.956 Y101.635 E1.0
G1 X117.176 Y100.176 E1.0
G1 X117.624 Y98.722 E1.0
G1 X118.258 Y97.407 E1.0
G1 X119.124 Y96.139 E1.0
G1 X120.116 Y95.069 E1.0
G1 X121.313 Y94.114 E1.0
G1 X122.626 Y93.355 E1.0
G1 X123.975 Y92.826 E1.0
G1 X125.437 Y92.491 E1.0
G1 X126.957 Y92.379 E1.0
G1 X128.48 Y92.491 E1.0
G1 X129.924 Y92.821 E1.0
G1 X131.277 Y93.352 E1.0
G1 X132.637 Y94.137 E1.0
G1 X133.767 Y95.04 E1.0
G1 X134.788 Y96.141 E1.0
G1 X135.649 Y97.402 E1.0
G1 X136.291 Y98.734 E1.0
G1 X136.736 Y100.176 E1.0
G1 X136.956 Y101.638 E1.0
G1 X136.956 Y103.161 E1.0
G1 X136.736 Y104.618 E1.0
G1 X136.29 Y106.062 E1.0
G1 X135.647 Y107.401 E1.0
G1 X134.781 Y108.67 E1.0
G1 X133.774 Y109.756 E1.0
G1 X132.633 Y110.666 E1.0
G1 X131.277 Y111.449 E1.0
G1 X129.924 Y111.98 E1.0
G1 X128.48 Y112.31 E1.0
G1 X126.957 Y112.422 E1.0
G1 X125.437 Y112.31 E1.0
G1 X123.975 Y111.975 E1.0
G1 X122.626 Y111.446 E1.0
G1 X121.313 Y110.687 E1.0
G1 X120.116 Y109.732 E1.0
G1 X119.127 Y108.665 E1.0
G1 X118.264 Y107.401 E1.0
G1 X117.623 Y106.073 E1.0
G1 X117.175 Y104.621 E1.0
G1 X117.175 Y104.621 E1.0
;Curves end: 2-13 @ Z1.6 Distance: 61.49

G0 X118.739 Y104.261 ;Move To

;Curve: 2-14 @ Z1.6
G1 X118.556 Y103.049 E1.0 F1000.0
G1 X118.556 Y101.755 E1.0
G1 X118.74 Y100.532 E1.0
G1 X119.118 Y99.308 E1.0
G1 X119.648 Y98.208 E1.0
G1 X120.377 Y97.141 E1.0
G1 X121.206 Y96.247 E1.0
G1 X122.219 Y95.438 E1.0
G1 X123.32 Y94.802 E1.0
G1 X124.449 Y94.359 E1.0
G1 X125.676 Y94.078 E1.0
G1 X126.958 Y93.984 E1.0
G1 X128.243 Y94.078 E1.0
G1 X129.453 Y94.355 E1.0
G1 X130.578 Y94.796 E1.0
G1 X131.733 Y95.463 E1.0
G1 X132.676 Y96.217 E1.0
G1 X133.535 Y97.143 E1.0
G1 X134.259 Y98.203 E1.0
G1 X134.797 Y99.318 E1.0
G1 X135.172 Y100.536 E1.0
G1 X135.356 Y101.756 E1.0
G1 X135.356 Y103.041 E1.0
G1 X135.172 Y104.259 E1.0
G1 X134.795 Y105.478 E1.0
G1 X134.259 Y106.596 E1.0
G1 X133.524 Y107.672 E1.0
G1 X132.684 Y108.578 E1.0
G1 X131.729 Y109.34 E1.0
G1 X130.578 Y110.005 E1.0
G1 X129.453 Y110.446 E1.0
G1 X128.243 Y110.723 E1.0
G1 X126.958 Y110.817 E1.0
G1 X125.676 Y110.723 E1.0
G1 X124.449 Y110.442 E1.0
G1 X123.32 Y109.999 E1.0
G1 X122.219 Y109.363 E1.0
G1 X121.206 Y108.554 E1.0
G1 X120.38 Y107.663 E1.0
G1 X119.655 Y106.602 E1.0
G1 X119.116 Y105.485 E1.0
G1 X118.739 Y104.261 E1.0
G1 X118.739 Y104.261 E1.0
;Curves end: 2-14 @ Z1.6 Distance: 51.61

G0 X120.303 Y103.904 ;Move To

;Curve: 2-15 @ Z1.6
G1 X120.156 Y102.929 E1.0 F1000.0
G1 X120.156 Y101.873 E1.0
G1 X120.304 Y100.892 E1.0
G1 X120.613 Y99.89 E1.0
G1 X121.034 Y99.015 E1.0
G1 X121.632 Y98.14 E1.0
G1 X122.3 Y97.421 E1.0
G1 X123.124 Y96.763 E1.0
G1 X124.016 Y96.247 E1.0
G1 X124.917 Y95.894 E1.0
G1 X125.915 Y95.665 E1.0
G1 X126.958 Y95.589 E1.0
G1 X128.004 Y95.665 E1.0
G1 X128.98 Y95.888 E1.0
G1 X129.882 Y96.242 E1.0
G1 X130.829 Y96.789 E1.0
G1 X131.585 Y97.394 E1.0
G1 X132.283 Y98.145 E1.0
G1 X132.869 Y99.005 E1.0
G1 X133.303 Y99.904 E1.0
G1 X133.608 Y100.892 E1.0
G1 X133.756 Y101.876 E1.0
G1 X133.756 Y102.921 E1.0
G1 X133.608 Y103.898 E1.0
G1 X133.301 Y104.893 E1.0
G1 X132.866 Y105.799 E1.0
G1 X132.271 Y106.67 E1.0
G1 X131.594 Y107.4 E1.0
G1 X130.82 Y108.018 E1.0
G1 X129.887 Y108.557 E1.0
G1 X128.98 Y108.913 E1.0
G1 X128.004 Y109.136 E1.0
G1 X126.958 Y109.212 E1.0
G1 X125.915 Y109.136 E1.0
G1 X124.917 Y108.907 E1.0
G1 X124.016 Y108.554 E1.0
G1 X123.124 Y108.038 E1.0
G1 X122.3 Y107.38 E1.0
G1 X121.635 Y106.664 E1.0
G1 X121.043 Y105.797 E1.0
G1 X120.61 Y104.899 E1.0
G1 X120.303 Y103.904 E1.0
G1 X120.303 Y103.904 E1.0
;Curves end: 2-15 @ Z1.6 Distance: 41.84

G0 X121.867 Y103.545 ;Move To

;Curve: 2-16 @ Z1.6
G1 X121.756 Y102.809 E1.0 F1000.0
G1 X121.756 Y101.993 E1.0
G1 X121.868 Y101.251 E1.0
G1 X122.107 Y100.477 E1.0
G1 X122.424 Y99.817 E1.0
G1 X122.887 Y99.14 E1.0
G1 X123.393 Y98.595 E1.0
G1 X124.026 Y98.089 E1.0
G1 X124.71 Y97.694 E1.0
G1 X125.395 Y97.425 E1.0
G1 X126.149 Y97.252 E1.0
G1 X126.958 Y97.193 E1.0
G1 X127.767 Y97.252 E1.0
G1 X128.509 Y97.422 E1.0
G1 X129.188 Y97.688 E1.0
G1 X129.921 Y98.112 E1.0
G1 X130.494 Y98.57 E1.0
G1 X131.029 Y99.146 E1.0
G1 X131.478 Y99.805 E1.0
G1 X131.81 Y100.492 E1.0
G1 X132.044 Y101.252 E1.0
G1 X132.156 Y101.994 E1.0
G1 X132.156 Y102.8 E1.0
G1 X132.044 Y103.54 E1.0
G1 X131.806 Y104.31 E1.0
G1 X131.477 Y104.995 E1.0
G1 X131.016 Y105.671 E1.0
G1 X130.501 Y106.226 E1.0
G1 X129.915 Y106.693 E1.0
G1 X129.193 Y107.111 E1.0
G1 X128.509 Y107.379 E1.0
G1 X127.767 Y107.549 E1.0
G1 X126.958 Y107.608 E1.0
G1 X126.149 Y107.549 E1.0
G1 X125.395 Y107.376 E1.0
G1 X124.71 Y107.107 E1.0
G1 X124.026 Y106.712 E1.0
G1 X123.393 Y106.206 E1.0
G1 X122.887 Y105.662 E1.0
G1 X122.433 Y104.996 E1.0
G1 X122.104 Y104.315 E1.0
G1 X121.867 Y103.545 E1.0
G1 X121.867 Y103.545 E1.0
;Curves end: 2-16 @ Z1.6 Distance: 31.94

G0 X123.431 Y103.189 ;Move To

;Curve: 2-17 @ Z1.6
G1 X123.356 Y102.689 E1.0 F1000.0
G1 X123.356 Y102.113 E1.0
G1 X123.432 Y101.61 E1.0
G1 X123.602 Y101.061 E1.0
G1 X123.813 Y100.621 E1.0
G1 X124.139 Y100.144 E1.0
G1 X124.487 Y99.769 E1.0
G1 X124.93 Y99.415 E1.0
G1 X125.41 Y99.138 E1.0
G1 X125.87 Y98.957 E1.0
G1 X126.383 Y98.839 E1.0
G1 X126.958 Y98.797 E1.0
G1 X127.528 Y98.839 E1.0
G1 X128.036 Y98.955 E1.0
G1 X128.494 Y99.135 E1.0
G1 X129.015 Y99.436 E1.0
G1 X129.404 Y99.747 E1.0
G1 X129.775 Y100.146 E1.0
G1 X130.087 Y100.605 E1.0
G1 X130.317 Y101.081 E1.0
G1 X130.48 Y101.608 E1.0
G1 X130.556 Y102.114 E1.0
G1 X130.556 Y102.68 E1.0
G1 X130.48 Y103.18 E1.0
G1 X130.312 Y103.726 E1.0
G1 X130.087 Y104.194 E1.0
G1 X129.762 Y104.67 E1.0
G1 X129.409 Y105.051 E1.0
G1 X129.015 Y105.365 E1.0
G1 X128.496 Y105.665 E1.0
G1 X128.036 Y105.846 E1.0
G1 X127.528 Y105.962 E1.0
G1 X126.958 Y106.004 E1.0
G1 X126.383 Y105.962 E1.0
G1 X125.87 Y105.844 E1.0
G1 X125.41 Y105.663 E1.0
G1 X124.93 Y105.386 E1.0
G1 X124.486 Y105.031 E1.0
G1 X124.138 Y104.657 E1.0
G1 X123.824 Y104.196 E1.0
G1 X123.597 Y103.726 E1.0
G1 X123.431 Y103.189 E1.0
G1 X123.431 Y103.189 E1.0
;Curves end: 2-17 @ Z1.6 Distance: 22.14

G0 X124.994 Y102.827 ;Move To

;Curve: 2-18 @ Z1.6
G1 X124.956 Y102.572 E1.0 F1000.0
G1 X124.956 Y102.233 E1.0
G1 X124.996 Y101.965 E1.0
G1 X125.094 Y101.652 E1.0
G1 X125.204 Y101.422 E1.0
G1 X125.394 Y101.144 E1.0
G1 X125.578 Y100.946 E1.0
G1 X125.834 Y100.741 E1.0
G1 X126.108 Y100.583 E1.0
G1 X126.347 Y100.489 E1.0
G1 X126.619 Y100.426 E1.0
G1 X126.957 Y100.402 E1.0
G1 X127.291 Y100.426 E1.0
G1 X127.565 Y100.489 E1.0
G1 X127.8 Y100.581 E1.0
G1 X128.106 Y100.758 E1.0
G1 X128.311 Y100.922 E1.0
G1 X128.524 Y101.151 E1.0
G1 X128.695 Y101.403 E1.0
G1 X128.823 Y101.668 E1.0
G1 X128.917 Y101.97 E1.0
G1 X128.956 Y102.232 E1.0
G1 X128.956 Y102.558 E1.0
G1 X128.916 Y102.824 E1.0
G1 X128.818 Y103.141 E1.0
G1 X128.697 Y103.394 E1.0
G1 X128.509 Y103.668 E1.0
G1 X128.316 Y103.876 E1.0
G1 X128.113 Y104.039 E1.0
G1 X127.8 Y104.219 E1.0
G1 X127.562 Y104.313 E1.0
G1 X127.291 Y104.375 E1.0
G1 X126.957 Y104.399 E1.0
G1 X126.619 Y104.375 E1.0
G1 X126.347 Y104.312 E1.0
G1 X126.108 Y104.218 E1.0
G1 X125.834 Y104.06 E1.0
G1 X125.575 Y103.853 E1.0
G1 X125.392 Y103.656 E1.0
G1 X125.215 Y103.396 E1.0
G1 X125.091 Y103.14 E1.0
G1 X124.994 Y102.827 E1.0
G1 X124.994 Y102.827 E1.0
;Curves end: 2-18 @ Z1.6 Distance: 12.35

G0 X126.56 Y102.474 ;Move To

;Curve: 2-19 @ Z1.6
G1 X126.556 Y102.45 E1.0 F1000.0
G1 X126.556 Y102.348 E1.0
G1 X126.559 Y102.328 E1.0
G1 X126.589 Y102.233 E1.0
G1 X126.592 Y102.227 E1.0
G1 X126.649 Y102.144 E1.0
G1 X126.669 Y102.122 E1.0
G1 X126.74 Y102.065 E1.0
G1 X126.802 Y102.029 E1.0
G1 X126.822 Y102.022 E1.0
G1 X126.859 Y102.013 E1.0
G1 X126.955 Y102.006 E1.0
G1 X127.055 Y102.013 E1.0
G1 X127.09 Y102.021 E1.0
G1 X127.104 Y102.027 E1.0
G1 X127.2 Y102.082 E1.0
G1 X127.217 Y102.096 E1.0
G1 X127.272 Y102.155 E1.0
G1 X127.303 Y102.201 E1.0
G1 X127.33 Y102.256 E1.0
G1 X127.352 Y102.327 E1.0
G1 X127.356 Y102.351 E1.0
G1 X127.356 Y102.44 E1.0
G1 X127.353 Y102.462 E1.0
G1 X127.322 Y102.563 E1.0
G1 X127.308 Y102.591 E1.0
G1 X127.258 Y102.665 E1.0
G1 X127.226 Y102.699 E1.0
G1 X127.206 Y102.715 E1.0
G1 X127.102 Y102.774 E1.0
G1 X127.089 Y102.779 E1.0
G1 X127.053 Y102.788 E1.0
G1 X126.955 Y102.795 E1.0
G1 X126.859 Y102.788 E1.0
G1 X126.822 Y102.779 E1.0
G1 X126.802 Y102.772 E1.0
G1 X126.74 Y102.736 E1.0
G1 X126.663 Y102.674 E1.0
G1 X126.648 Y102.657 E1.0
G1 X126.603 Y102.591 E1.0
G1 X126.583 Y102.551 E1.0
G1 X126.56 Y102.474 E1.0
G1 X126.56 Y102.474 E1.0
;Layer end: 2

G0 X98.408 Y108.918 Z2.4 ;Layer Change Transition Move

;Layer: 3 @ Z2.4
;TYPE:WALL-OUTER
;Curve: 3-1 @ Z2.4
G1 X97.756 Y104.59 E1.0 F1000.0
G1 X97.756 Y100.211 E1.0
G1 X98.408 Y95.883 E1.0
G1 X99.696 Y91.706 E1.0
G1 X101.597 Y87.76 E1.0
G1 X104.065 Y84.14 E1.0
G1 X107.034 Y80.94 E1.0
G1 X110.463 Y78.206 E1.0
G1 X114.251 Y76.019 E1.0
G1 X118.325 Y74.419 E1.0
G1 X122.59 Y73.446 E1.0
G1 X126.956 Y73.118 E1.0
G1 X131.321 Y73.446 E1.0
G1 X135.586 Y74.419 E1.0
G1 X139.661 Y76.019 E1.0
G1 X143.453 Y78.208 E1.0
G1 X146.873 Y80.936 E1.0
G1 X149.846 Y84.14 E1.0
G1 X152.314 Y87.76 E1.0
G1 X154.215 Y91.706 E1.0
G1 X155.504 Y95.883 E1.0
G1 X156.156 Y100.211 E1.0
G1 X156.156 Y104.59 E1.0
G1 X155.504 Y108.918 E1.0
G1 X154.215 Y113.096 E1.0
G1 X152.314 Y117.042 E1.0
G1 X149.846 Y120.661 E1.0
G1 X146.873 Y123.865 E1.0
G1 X143.453 Y126.593 E1.0
G1 X139.661 Y128.782 E1.0
G1 X135.586 Y130.382 E1.0
G1 X131.321 Y131.355 E1.0
G1 X126.956 Y131.683 E1.0
G1 X122.59 Y131.355 E1.0
G1 X118.325 Y130.382 E1.0
G1 X114.251 Y128.782 E1.0
G1 X110.463 Y126.595 E1.0
G1 X107.034 Y123.861 E1.0
G1 X104.065 Y120.661 E1.0
G1 X101.597 Y117.042 E1.0
G1 X99.696 Y113.096 E1.0
G1 X98.408 Y108.918 E1.0
G1 X98.408 Y108.918 E1.0
;Curves end: 3-1 @ Z2.4 Distance: 179.42

G0 X99.971 Y108.558 ;Move To

;Curve: 3-2 @ Z2.4
;TYPE:FILL
G1 X99.356 Y104.472 E1.0 F1000.0
G1 X99.356 Y100.329 E1.0
G1 X99.972 Y96.237 E1.0
G1 X101.186 Y92.298 E1.0
G1 X102.987 Y88.564 E1.0
G1 X105.325 Y85.134 E1.0
G1 X108.12 Y82.122 E1.0
G1 X111.367 Y79.532 E1.0
G1 X114.945 Y77.466 E1.0
G1 X118.802 Y75.951 E1.0
G1 X122.826 Y75.034 E1.0
G1 X126.956 Y74.724 E1.0
G1 X131.085 Y75.034 E1.0
G1 X135.112 Y75.951 E1.0
G1 X138.965 Y77.465 E1.0
G1 X142.553 Y79.536 E1.0
G1 X145.783 Y82.114 E1.0
G1 X148.586 Y85.134 E1.0
G1 X150.924 Y88.564 E1.0
G1 X152.725 Y92.299 E1.0
G1 X153.94 Y96.237 E1.0
G1 X154.556 Y100.329 E1.0
G1 X154.556 Y104.472 E1.0
G1 X153.94 Y108.564 E1.0
G1 X152.725 Y112.503 E1.0
G1 X150.924 Y116.238 E1.0
G1 X148.586 Y119.667 E1.0
G1 X145.783 Y122.687 E1.0
G1 X142.553 Y125.265 E1.0
G1 X138.965 Y127.336 E1.0
G1 X135.112 Y128.85 E1.0
G1 X131.085 Y129.767 E1.0
G1 X126.956 Y130.077 E1.0
G1 X122.826 Y129.767 E1.0
G1 X118.802 Y128.85 E1.0
G1 X114.945 Y127.335 E1.0
G1 X111.367 Y125.269 E1.0
G1 X108.12 Y122.679 E1.0
G1 X105.325 Y119.667 E1.0
G1 X102.987 Y116.238 E1.0
G1 X101.189 Y112.509 E1.0
G1 X99.971 Y108.558 E1.0
G1 X99.971 Y108.558 E1.0
;Curves end: 3-2 @ Z2.4 Distance: 169.59

G0 X101.535 Y108.201 ;Move To

;Curve: 3-3 @ Z2.4
G1 X100.956 Y104.354 E1.0 F1000.0
G1 X100.956 Y100.447 E1.0
G1 X101.536 Y96.594 E1.0
G1 X102.68 Y92.884 E1.0
G1 X104.376 Y89.366 E1.0
G1 X106.579 Y86.135 E1.0
G1 X109.209 Y83.3 E1.0
G1 X112.271 Y80.858 E1.0
G1 X115.645 Y78.91 E1.0
G1 X119.274 Y77.484 E1.0
G1 X123.061 Y76.621 E1.0
G1 X126.956 Y76.329 E1.0
G1 X130.85 Y76.621 E1.0
G1 X134.64 Y77.484 E1.0
G1 X138.265 Y78.909 E1.0
G1 X141.649 Y80.862 E1.0
G1 X144.694 Y83.292 E1.0
G1 X147.332 Y86.135 E1.0
G1 X149.535 Y89.366 E1.0
G1 X151.231 Y92.883 E1.0
G1 X152.376 Y96.597 E1.0
G1 X152.956 Y100.447 E1.0
G1 X152.956 Y104.354 E1.0
G1 X152.376 Y108.205 E1.0
G1 X151.231 Y111.919 E1.0
G1 X149.535 Y115.436 E1.0
G1 X147.332 Y118.666 E1.0
G1 X144.694 Y121.509 E1.0
G1 X141.649 Y123.939 E1.0
G1 X138.265 Y125.892 E1.0
G1 X134.64 Y127.317 E1.0
G1 X130.85 Y128.18 E1.0
G1 X126.956 Y128.472 E1.0
G1 X123.061 Y128.18 E1.0
G1 X119.274 Y127.317 E1.0
G1 X115.645 Y125.891 E1.0
G1 X112.271 Y123.943 E1.0
G1 X109.209 Y121.501 E1.0
G1 X106.579 Y118.666 E1.0
G1 X104.376 Y115.436 E1.0
G1 X102.683 Y111.923 E1.0
G1 X101.535 Y108.201 E1.0
G1 X101.535 Y108.201 E1.0
;Curves end: 3-3 @ Z2.4 Distance: 159.74

G0 X103.099 Y107.842 ;Move To

;Curve: 3-4 @ Z2.4
G1 X102.556 Y104.236 E1.0 F1000.0
G1 X102.556 Y100.565 E1.0
G1 X103.1 Y96.951 E1.0
G1 X104.174 Y93.47 E1.0
G1 X105.765 Y90.168 E1.0
G1 X107.833 Y87.136 E1.0
G1 X110.298 Y84.478 E1.0
G1 X113.175 Y82.184 E1.0
G1 X116.345 Y80.354 E1.0
G1 X119.745 Y79.018 E1.0
G1 X123.297 Y78.208 E1.0
G1 X126.956 Y77.934 E1.0
G1 X130.615 Y78.208 E1.0
G1 X134.168 Y79.017 E1.0
G1 X137.565 Y80.353 E1.0
G1 X140.745 Y82.188 E1.0
G1 X143.604 Y84.47 E1.0
G1 X146.078 Y87.136 E1.0
G1 X148.146 Y90.169 E1.0
G1 X149.737 Y93.469 E1.0
G1 X150.812 Y96.954 E1.0
G1 X151.356 Y100.566 E1.0
G1 X151.356 Y104.236 E1.0
G1 X150.812 Y107.848 E1.0
G1 X149.737 Y111.333 E1.0
G1 X148.148 Y114.63 E1.0
G1 X146.075 Y117.668 E1.0
G1 X143.604 Y120.331 E1.0
G1 X140.745 Y122.613 E1.0
G1 X137.565 Y124.448 E1.0
G1 X134.168 Y125.784 E1.0
G1 X130.615 Y126.593 E1.0
G1 X126.956 Y126.867 E1.0
G1 X123.297 Y126.593 E1.0
G1 X119.745 Y125.783 E1.0
G1 X116.345 Y124.447 E1.0
G1 X113.175 Y122.617 E1.0
G1 X110.298 Y120.323 E1.0
G1 X107.836 Y117.668 E1.0
G1 X105.764 Y114.63 E1.0
G1 X104.177 Y111.339 E1.0
G1 X103.099 Y107.842 E1.0
G1 X103.099 Y107.842 E1.0
;Curves end: 3-4 @ Z2.4 Distance: 149.92

G0 X104.663 Y107.485 ;Move To

;Curve: 3-5 @ Z2.4
G1 X104.156 Y104.118 E1.0 F1000.0
G1 X104.156 Y100.683 E1.0
G1 X104.664 Y97.31 E1.0
G1 X105.668 Y94.054 E1.0
G1 X107.153 Y90.974 E1.0
G1 X109.09 Y88.134 E1.0
G1 X111.39 Y85.653 E1.0
G1 X114.075 Y83.512 E1.0
G1 X117.045 Y81.798 E1.0
G1 X120.216 Y80.552 E1.0
G1 X123.534 Y79.795 E1.0
G1 X126.956 Y79.539 E1.0
G1 X130.38 Y79.795 E1.0
G1 X133.693 Y80.55 E1.0
G1 X136.868 Y81.798 E1.0
G1 X139.845 Y83.516 E1.0
G1 X142.511 Y85.644 E1.0
G1 X144.824 Y88.137 E1.0
G1 X146.757 Y90.971 E1.0
G1 X148.243 Y94.053 E1.0
G1 X149.248 Y97.314 E1.0
G1 X149.756 Y100.684 E1.0
G1 X149.756 Y104.118 E1.0
G1 X149.248 Y107.488 E1.0
G1 X148.243 Y110.749 E1.0
G1 X146.761 Y113.824 E1.0
G1 X144.819 Y116.67 E1.0
G1 X142.511 Y119.157 E1.0
G1 X139.845 Y121.285 E1.0
G1 X136.868 Y123.003 E1.0
G1 X133.693 Y124.251 E1.0
G1 X130.38 Y125.006 E1.0
G1 X126.956 Y125.262 E1.0
G1 X123.534 Y125.006 E1.0
G1 X120.216 Y124.249 E1.0
G1 X117.045 Y123.003 E1.0
G1 X114.075 Y121.289 E1.0
G1 X111.39 Y119.148 E1.0
G1 X109.093 Y116.67 E1.0
G1 X107.151 Y113.824 E1.0
G1 X105.671 Y110.753 E1.0
G1 X104.663 Y107.485 E1.0
G1 X104.663 Y107.485 E1.0
;Curves end: 3-5 @ Z2.4 Distance: 140.15

G0 X106.227 Y107.126 ;Move To

;Curve: 3-6 @ Z2.4
G1 X105.756 Y104 E1.0 F1000.0
G1 X105.756 Y100.801 E1.0
G1 X106.228 Y97.667 E1.0
G1 X107.162 Y94.64 E1.0
G1 X108.54 Y91.78 E1.0
G1 X110.347 Y89.132 E1.0
G1 X112.48 Y86.831 E1.0
G1 X114.979 Y84.838 E1.0
G1 X117.744 Y83.242 E1.0
G1 X120.687 Y82.086 E1.0
G1 X123.771 Y81.382 E1.0
G1 X126.956 Y81.144 E1.0
G1 X130.143 Y81.382 E1.0
G1 X133.222 Y82.084 E1.0
G1 X136.168 Y83.242 E1.0
G1 X138.945 Y84.844 E1.0
G1 X141.418 Y86.818 E1.0
G1 X143.567 Y89.135 E1.0
G1 X145.37 Y91.777 E1.0
G1 X146.749 Y94.639 E1.0
G1 X147.684 Y97.671 E1.0
G1 X148.156 Y100.803 E1.0
G1 X148.156 Y103.999 E1.0
G1 X147.684 Y107.131 E1.0
G1 X146.749 Y110.163 E1.0
G1 X145.374 Y113.018 E1.0
G1 X143.563 Y115.672 E1.0
G1 X141.418 Y117.983 E1.0
G1 X138.945 Y119.957 E1.0
G1 X136.168 Y121.559 E1.0
G1 X133.222 Y122.717 E1.0
G1 X130.143 Y123.419 E1.0
G1 X126.956 Y123.657 E1.0
G1 X123.771 Y123.419 E1.0
G1 X120.687 Y122.715 E1.0
G1 X117.744 Y121.559 E1.0
G1 X114.979 Y119.963 E1.0
G1 X112.48 Y117.97 E1.0
G1 X110.35 Y115.672 E1.0
G1 X108.539 Y113.018 E1.0
G1 X107.165 Y110.169 E1.0
G1 X106.227 Y107.126 E1.0
G1 X106.227 Y107.126 E1.0
;Curves end: 3-6 @ Z2.4 Distance: 130.32

G0 X107.791 Y106.769 ;Move To

;Curve: 3-7 @ Z2.4
G1 X107.356 Y103.881 E1.0 F1000.0
G1 X107.356 Y100.919 E1.0
G1 X107.792 Y98.027 E1.0
G1 X108.657 Y95.221 E1.0
G1 X109.926 Y92.588 E1.0
G1 X111.604 Y90.13 E1.0
G1 X113.57 Y88.009 E1.0
G1 X115.883 Y86.164 E1.0
G1 X118.443 Y84.686 E1.0
G1 X121.158 Y83.62 E1.0
G1 X124.008 Y82.969 E1.0
G1 X126.956 Y82.749 E1.0
G1 X129.906 Y82.969 E1.0
G1 X132.751 Y83.618 E1.0
G1 X135.469 Y84.686 E1.0
G1 X138.045 Y86.173 E1.0
G1 X140.325 Y87.992 E1.0
G1 X142.31 Y90.133 E1.0
G1 X143.982 Y92.583 E1.0
G1 X145.255 Y95.225 E1.0
G1 X146.12 Y98.029 E1.0
G1 X146.556 Y100.922 E1.0
G1 X146.556 Y103.88 E1.0
G1 X146.12 Y106.773 E1.0
G1 X145.256 Y109.574 E1.0
G1 X143.985 Y112.215 E1.0
G1 X142.307 Y114.674 E1.0
G1 X140.325 Y116.809 E1.0
G1 X138.045 Y118.628 E1.0
G1 X135.469 Y120.115 E1.0
G1 X132.751 Y121.183 E1.0
G1 X129.906 Y121.832 E1.0
G1 X126.956 Y122.052 E1.0
G1 X124.008 Y121.832 E1.0
G1 X121.158 Y121.181 E1.0
G1 X118.443 Y120.115 E1.0
G1 X115.883 Y118.637 E1.0
G1 X113.57 Y116.792 E1.0
G1 X111.607 Y114.674 E1.0
G1 X109.926 Y112.212 E1.0
G1 X108.659 Y109.583 E1.0
G1 X107.791 Y106.769 E1.0
G1 X107.791 Y106.769 E1.0
;Curves end: 3-7 @ Z2.4 Distance: 120.43

G0 X109.355 Y106.409 ;Move To

;Curve: 3-8 @ Z2.4
G1 X108.956 Y103.763 E1.0 F1000.0
G1 X108.956 Y101.039 E1.0
G1 X109.356 Y98.384 E1.0
G1 X110.151 Y95.807 E1.0
G1 X111.316 Y93.389 E1.0
G1 X112.857 Y91.132 E1.0
G1 X114.66 Y89.187 E1.0
G1 X116.787 Y87.49 E1.0
G1 X119.142 Y86.13 E1.0
G1 X121.629 Y85.154 E1.0
G1 X124.245 Y84.556 E1.0
G1 X126.956 Y84.354 E1.0
G1 X129.669 Y84.556 E1.0
G1 X132.28 Y85.152 E1.0
G1 X134.769 Y86.13 E1.0
G1 X137.141 Y87.499 E1.0
G1 X139.235 Y89.17 E1.0
G1 X141.053 Y91.131 E1.0
G1 X142.594 Y93.389 E1.0
G1 X143.761 Y95.809 E1.0
G1 X144.556 Y98.389 E1.0
G1 X144.956 Y101.041 E1.0
G1 X144.956 Y103.761 E1.0
G1 X144.556 Y106.413 E1.0
G1 X143.762 Y108.987 E1.0
G1 X142.595 Y111.412 E1.0
G1 X141.053 Y113.672 E1.0
G1 X139.232 Y115.634 E1.0
G1 X137.141 Y117.302 E1.0
G1 X134.769 Y118.671 E1.0
G1 X132.28 Y119.649 E1.0
G1 X129.669 Y120.245 E1.0
G1 X126.956 Y120.447 E1.0
G1 X124.245 Y120.245 E1.0
G1 X121.629 Y119.647 E1.0
G1 X119.142 Y118.671 E1.0
G1 X116.787 Y117.311 E1.0
G1 X114.66 Y115.614 E1.0
G1 X112.86 Y113.672 E1.0
G1 X111.316 Y111.411 E1.0
G1 X110.153 Y108.999 E1.0
G1 X109.355 Y106.409 E1.0
G1 X109.355 Y106.409 E1.0
;Curves end: 3-8 @ Z2.4 Distance: 110.68

G0 X110.919 Y106.053 ;Move To

;Curve: 3-9 @ Z2.4
G1 X110.556 Y103.643 E1.0 F1000.0
G1 X110.556 Y101.158 E1.0
G1 X110.92 Y98.744 E1.0
G1 X111.646 Y96.388 E1.0
G1 X112.704 Y94.193 E1.0
G1 X114.11 Y92.134 E1.0
G1 X115.75 Y90.365 E1.0
G1 X117.691 Y88.816 E1.0
G1 X119.841 Y87.574 E1.0
G1 X122.099 Y86.688 E1.0
G1 X124.483 Y86.143 E1.0
G1 X126.956 Y85.959 E1.0
G1 X129.432 Y86.143 E1.0
G1 X131.809 Y86.686 E1.0
G1 X134.07 Y87.574 E1.0
G1 X136.237 Y88.825 E1.0
G1 X138.145 Y90.348 E1.0
G1 X139.796 Y92.129 E1.0
G1 X141.207 Y94.195 E1.0
G1 X142.267 Y96.395 E1.0
G1 X142.992 Y98.746 E1.0
G1 X143.356 Y101.161 E1.0
G1 X143.356 Y103.641 E1.0
G1 X142.992 Y106.054 E1.0
G1 X142.268 Y108.4 E1.0
G1 X141.205 Y110.609 E1.0
G1 X139.797 Y112.674 E1.0
G1 X138.143 Y114.456 E1.0
G1 X136.237 Y115.976 E1.0
G1 X134.07 Y117.227 E1.0
G1 X131.809 Y118.115 E1.0
G1 X129.432 Y118.658 E1.0
G1 X126.956 Y118.842 E1.0
G1 X124.483 Y118.658 E1.0
G1 X122.099 Y118.113 E1.0
G1 X119.841 Y117.227 E1.0
G1 X117.691 Y115.985 E1.0
G1 X115.75 Y114.436 E1.0
G1 X114.113 Y112.67 E1.0
G1 X112.706 Y110.61 E1.0
G1 X111.647 Y108.413 E1.0
G1 X110.919 Y106.053 E1.0
G1 X110.919 Y106.053 E1.0
;Curves end: 3-9 @ Z2.4 Distance: 100.84

G0 X112.483 Y105.693 ;Move To

;Curve: 3-10 @ Z2.4
G1 X112.156 Y103.525 E1.0 F1000.0
G1 X112.156 Y101.278 E1.0
G1 X112.484 Y99.101 E1.0
G1 X113.14 Y96.974 E1.0
G1 X114.094 Y94.994 E1.0
G1 X115.363 Y93.136 E1.0
G1 X116.84 Y91.543 E1.0
G1 X118.6 Y90.138 E1.0
G1 X120.537 Y89.019 E1.0
G1 X122.566 Y88.223 E1.0
G1 X124.721 Y87.73 E1.0
G1 X126.956 Y87.564 E1.0
G1 X129.195 Y87.73 E1.0
G1 X131.338 Y88.22 E1.0
G1 X133.371 Y89.018 E1.0
G1 X135.337 Y90.153 E1.0
G1 X137.052 Y91.522 E1.0
G1 X138.543 Y93.131 E1.0
G1 X139.819 Y94.999 E1.0
G1 X140.773 Y96.978 E1.0
G1 X141.428 Y99.104 E1.0
G1 X141.756 Y101.28 E1.0
G1 X141.756 Y103.521 E1.0
G1 X141.428 Y105.695 E1.0
G1 X140.774 Y107.813 E1.0
G1 X139.814 Y109.81 E1.0
G1 X138.543 Y111.673 E1.0
G1 X137.054 Y113.278 E1.0
G1 X135.333 Y114.65 E1.0
G1 X133.371 Y115.783 E1.0
G1 X131.338 Y116.581 E1.0
G1 X129.195 Y117.071 E1.0
G1 X126.956 Y117.237 E1.0
G1 X124.721 Y117.071 E1.0
G1 X122.566 Y116.578 E1.0
G1 X120.537 Y115.782 E1.0
G1 X118.6 Y114.663 E1.0
G1 X116.84 Y113.258 E1.0
G1 X115.366 Y111.668 E1.0
G1 X114.096 Y109.809 E1.0
G1 X113.141 Y107.829 E1.0
G1 X112.483 Y105.693 E1.0
G1 X112.483 Y105.693 E1.0
;Curves end: 3-10 @ Z2.4 Distance: 90.99

G0 X114.047 Y105.337 ;Move To

;Curve: 3-11 @ Z2.4
G1 X113.756 Y103.405 E1.0 F1000.0
G1 X113.756 Y101.397 E1.0
G1 X114.048 Y99.461 E1.0
G1 X114.635 Y97.555 E1.0
G1 X115.482 Y95.798 E1.0
G1 X116.616 Y94.138 E1.0
G1 X117.933 Y92.717 E1.0
G1 X119.505 Y91.463 E1.0
G1 X121.233 Y90.464 E1.0
G1 X123.033 Y89.758 E1.0
G1 X124.959 Y89.317 E1.0
G1 X126.957 Y89.169 E1.0
G1 X128.956 Y89.317 E1.0
G1 X130.868 Y89.754 E1.0
G1 X132.672 Y90.462 E1.0
G1 X134.437 Y91.481 E1.0
G1 X135.955 Y92.693 E1.0
G1 X137.293 Y94.137 E1.0
G1 X138.429 Y95.8 E1.0
G1 X139.279 Y97.564 E1.0
G1 X139.864 Y99.461 E1.0
G1 X140.156 Y101.399 E1.0
G1 X140.156 Y103.401 E1.0
G1 X139.864 Y105.336 E1.0
G1 X139.28 Y107.229 E1.0
G1 X138.426 Y109.005 E1.0
G1 X137.286 Y110.675 E1.0
G1 X135.962 Y112.103 E1.0
G1 X134.433 Y113.322 E1.0
G1 X132.672 Y114.339 E1.0
G1 X130.868 Y115.047 E1.0
G1 X128.956 Y115.484 E1.0
G1 X126.957 Y115.632 E1.0
G1 X124.959 Y115.484 E1.0
G1 X123.033 Y115.043 E1.0
G1 X121.233 Y114.337 E1.0
G1 X119.505 Y113.338 E1.0
G1 X117.933 Y112.084 E1.0
G1 X116.621 Y110.669 E1.0
G1 X115.484 Y109.004 E1.0
G1 X114.635 Y107.243 E1.0
G1 X114.047 Y105.337 E1.0
G1 X114.047 Y105.337 E1.0
;Curves end: 3-11 @ Z2.4 Distance: 81.11

G0 X115.611 Y104.977 ;Move To

;Curve: 3-12 @ Z2.4
G1 X115.356 Y103.287 E1.0 F1000.0
G1 X115.356 Y101.517 E1.0
G1 X115.612 Y99.817 E1.0
G1 X116.129 Y98.141 E1.0
G1 X116.87 Y96.603 E1.0
G1 X117.871 Y95.137 E1.0
G1 X119.023 Y93.895 E1.0
G1 X120.411 Y92.787 E1.0
G1 X121.927 Y91.911 E1.0
G1 X123.507 Y91.291 E1.0
G1 X125.198 Y90.904 E1.0
G1 X126.957 Y90.774 E1.0
G1 X128.719 Y90.904 E1.0
G1 X130.397 Y91.288 E1.0
G1 X131.973 Y91.906 E1.0
G1 X133.537 Y92.809 E1.0
G1 X134.861 Y93.866 E1.0
G1 X136.041 Y95.139 E1.0
G1 X137.039 Y96.601 E1.0
G1 X137.785 Y98.148 E1.0
G1 X138.3 Y99.82 E1.0
G1 X138.556 Y101.518 E1.0
G1 X138.556 Y103.281 E1.0
G1 X138.3 Y104.977 E1.0
G1 X137.785 Y106.645 E1.0
G1 X137.036 Y108.205 E1.0
G1 X136.033 Y109.673 E1.0
G1 X134.87 Y110.928 E1.0
G1 X133.533 Y111.994 E1.0
G1 X131.973 Y112.895 E1.0
G1 X130.397 Y113.513 E1.0
G1 X128.719 Y113.897 E1.0
G1 X126.957 Y114.027 E1.0
G1 X125.198 Y113.897 E1.0
G1 X123.507 Y113.51 E1.0
G1 X121.927 Y112.89 E1.0
G1 X120.411 Y112.014 E1.0
G1 X119.023 Y110.906 E1.0
G1 X117.874 Y109.667 E1.0
G1 X116.874 Y108.203 E1.0
G1 X116.129 Y106.659 E1.0
G1 X115.611 Y104.977 E1.0
G1 X115.611 Y104.977 E1.0
;Curves end: 3-12 @ Z2.4 Distance: 71.29

G0 X117.175 Y104.621 ;Move To

;Curve: 3-13 @ Z2.4
G1 X116.956 Y103.167 E1.0 F1000.0
G1 X116.956 Y101.635 E1.0
G1 X117.176 Y100.176 E1.0
G1 X117.624 Y98.722 E1.0
G1 X118.258 Y97.407 E1.0
G1 X119.124 Y96.139 E1.0
G1 X120.116 Y95.069 E1.0
G1 X121.313 Y94.114 E1.0
G1 X122.626 Y93.355 E1.0
G1 X123.975 Y92.826 E1.0
G1 X125.437 Y92.491 E1.0
G1 X126.957 Y92.379 E1.0
G1 X128.48 Y92.491 E1.0
G1 X129.924 Y92.821 E1.0
G1 X131.277 Y93.352 E1.0
G1 X132.637 Y94.137 E1.0
G1 X133.767 Y95.04 E1.0
G1 X134.788 Y96.141 E1.0
G1 X135.649 Y97.402 E1.0
G1 X136.291 Y98.734 E1.0
G1 X136.736 Y100.176 E1.0
G1 X136.956 Y101.638 E1.0
G1 X136.956 Y103.161 E1.0
G1 X136.736 Y104.618 E1.0
G1 X136.29 Y106.062 E1.0
G1 X135.647 Y107.401 E1.0
G1 X134.781 Y108.67 E1.0
G1 X133.774 Y109.756 E1.0
G1 X132.633 Y110.666 E1.0
G1 X131.277 Y111.449 E1.0
G1 X129.924 Y111.98 E1.0
G1 X128.48 Y112.31 E1.0
G1 X126.957 Y112.422 E1.0
G1 X125.437 Y112.31 E1.0
G1 X123.975 Y111.975 E1.0
G1 X122.626 Y111.446 E1.0
G1 X121.313 Y110.687 E1.0
G1 X120.116 Y109.732 E1.0
G1 X119.127 Y108.665 E1.0
G1 X118.264 Y107.401 E1.0
G1 X117.623 Y106.073 E1.0
G1 X117.175 Y104.621 E1.0
G1 X117.175 Y104.621 E1.0
;Curves end: 3-13 @ Z2.4 Distance: 61.49

G0 X118.739 Y104.261 ;Move To

;Curve: 3-14 @ Z2.4
G1 X118.556 Y103.049 E1.0 F1000.0
G1 X118.556 Y101.755 E1.0
G1 X118.74 Y100.532 E1.0
G1 X119.118 Y99.308 E1.0
G1 X119.648 Y98.208 E1.0
G1 X120.377 Y97.141 E1.0
G1 X121.206 Y96.247 E1.0
G1 X122.219 Y95.438 E1.0
G1 X123.32 Y94.802 E1.0
G1 X124.449 Y94.359 E1.0
G1 X125.676 Y94.078 E1.0
G1 X126.958 Y93.984 E1.0
G1 X128.243 Y94.078 E1.0
G1 X129.453 Y94.355 E1.0
G1 X130.578 Y94.796 E1.0
G1 X131.733 Y95.463 E1.0
G1 X132.676 Y96.217 E1.0
G1 X133.535 Y97.143 E1.0
G1 X134.259 Y98.203 E1.0
G1 X134.797 Y99.318 E1.0
G1 X135.172 Y100.536 E1.0
G1 X135.356 Y101.756 E1.0
G1 X135.356 Y103.041 E1.0
G1 X135.172 Y104.259 E1.0
G1 X134.795 Y105.478 E1.0
G1 X134.259 Y106.596 E1.0
G1 X133.524 Y107.672 E1.0
G1 X132.684 Y108.578 E1.0
G1 X131.729 Y109.34 E1.0
G1 X130.578 Y110.005 E1.0
G1 X129.453 Y110.446 E1.0
G1 X128.243 Y110.723 E1.0
G1 X126.958 Y110.817 E1.0
G1 X125.676 Y110.723 E1.0
G1 X124.449 Y110.442 E1.0
G1 X123.32 Y109.999 E1.0
G1 X122.219 Y109.363 E1.0
G1 X121.206 Y108.554 E1.0
G1 X120.38 Y107.663 E1.0
G1 X119.655 Y106.602 E1.0
G1 X119.116 Y105.485 E1.0
G1 X118.739 Y104.261 E1.0
G1 X118.739 Y104.261 E1.0
;Curves end: 3-14 @ Z2.4 Distance: 51.61

G0 X120.303 Y103.904 ;Move To

;Curve: 3-15 @ Z2.4
G1 X120.156 Y102.929 E1.0 F1000.0
G1 X120.156 Y101.873 E1.0
G1 X120.304 Y100.892 E1.0
G1 X120.613 Y99.89 E1.0
G1 X121.034 Y99.015 E1.0
G1 X121.632 Y98.14 E1.0
G1 X122.3 Y97.421 E1.0
G1 X123.124 Y96.763 E1.0
G1 X124.016 Y96.247 E1.0
G1 X124.917 Y95.894 E1.0
G1 X125.915 Y95.665 E1.0
G1 X126.958 Y95.589 E1.0
G1 X128.004 Y95.665 E1.0
G1 X128.98 Y95.888 E1.0
G1 X129.882 Y96.242 E1.0
G1 X130.829 Y96.789 E1.0
G1 X131.585 Y97.394 E1.0
G1 X132.283 Y98.145 E1.0
G1 X132.869 Y99.005 E1.0
G1 X133.303 Y99.904 E1.0
G1 X133.608 Y100.892 E1.0
G1 X133.756 Y101.876 E1.0
G1 X133.756 Y102.921 E1.0
G1 X133.608 Y103.898 E1.0
G1 X133.301 Y104.893 E1.0
G1 X132.866 Y105.799 E1.0
G1 X132.271 Y106.67 E1.0
G1 X131.594 Y107.4 E1.0
G1 X130.82 Y108.018 E1.0
G1 X129.887 Y108.557 E1.0
G1 X128.98 Y108.913 E1.0
G1 X128.004 Y109.136 E1.0
G1 X126.958 Y109.212 E1.0
G1 X125.915 Y109.136 E1.0
G1 X124.917 Y108.907 E1.0
G1 X124.016 Y108.554 E1.0
G1 X123.124 Y108.038 E1.0
G1 X122.3 Y107.38 E1.0
G1 X121.635 Y106.664 E1.0
G1 X121.043 Y105.797 E1.0
G1 X120.61 Y104.899 E1.0
G1 X120.303 Y103.904 E1.0
G1 X120.303 Y103.904 E1.0
;Curves end: 3-15 @ Z2.4 Distance: 41.84

G0 X121.867 Y103.545 ;Move To

;Curve: 3-16 @ Z2.4
G1 X121.756 Y102.809 E1.0 F1000.0
G1 X121.756 Y101.993 E1.0
G1 X121.868 Y101.251 E1.0
G1 X122.107 Y100.477 E1.0
G1 X122.424 Y99.817 E1.0
G1 X122.887 Y99.14 E1.0
G1 X123.393 Y98.595 E1.0
G1 X124.026 Y98.089 E1.0
G1 X124.71 Y97.694 E1.0
G1 X125.395 Y97.425 E1.0
G1 X126.149 Y97.252 E1.0
G1 X126.958 Y97.193 E1.0
G1 X127.767 Y97.252 E1.0
G1 X128.509 Y97.422 E1.0
G1 X129.188 Y97.688 E1.0
G1 X129.921 Y98.112 E1.0
G1 X130.494 Y98.57 E1.0
G1 X131.029 Y99.146 E1.0
G1 X131.478 Y99.805 E1.0
G1 X131.81 Y100.492 E1.0
G1 X132.044 Y101.252 E1.0
G1 X132.156 Y101.994 E1.0
G1 X132.156 Y102.8 E1.0
G1 X132.044 Y103.54 E1.0
G1 X131.806 Y104.31 E1.0
G1 X131.477 Y104.995 E1.0
G1 X131.016 Y105.671 E1.0
G1 X130.501 Y106.226 E1.0
G1 X129.915 Y106.693 E1.0
G1 X129.193 Y107.111 E1.0
G1 X128.509 Y107.379 E1.0
G1 X127.767 Y107.549 E1.0
G1 X126.958 Y107.608 E1.0
G1 X126.149 Y107.549 E1.0
G1 X125.395 Y107.376 E1.0
G1 X124.71 Y107.107 E1.0
G1 X124.026 Y106.712 E1.0
G1 X123.393 Y106.206 E1.0
G1 X122.887 Y105.662 E1.0
G1 X122.433 Y104.996 E1.0
G1 X122.104 Y104.315 E1.0
G1 X121.867 Y103.545 E1.0
G1 X121.867 Y103.545 E1.0
;Curves end: 3-16 @ Z2.4 Distance: 31.94

G0 X123.431 Y103.189 ;Move To

;Curve: 3-17 @ Z2.4
G1 X123.356 Y102.689 E1.0 F1000.0
G1 X123.356 Y102.113 E1.0
G1 X123.432 Y101.61 E1.0
G1 X123.602 Y101.061 E1.0
G1 X123.813 Y100.621 E1.0
G1 X124.139 Y100.144 E1.0
G1 X124.487 Y99.769 E1.0
G1 X124.93 Y99.415 E1.0
G1 X125.41 Y99.138 E1.0
G1 X125.87 Y98.957 E1.0
G1 X126.383 Y98.839 E1.0
G1 X126.958 Y98.797 E1.0
G1 X127.528 Y98.839 E1.0
G1 X128.036 Y98.955 E1.0
G1 X128.494 Y99.135 E1.0
G1 X129.015 Y99.436 E1.0
G1 X129.404 Y99.747 E1.0
G1 X129.775 Y100.146 E1.0
G1 X130.087 Y100.605 E1.0
G1 X130.317 Y101.081 E1.0
G1 X130.48 Y101.608 E1.0
G1 X130.556 Y102.114 E1.0
G1 X130.556 Y102.68 E1.0
G1 X130.48 Y103.18 E1.0
G1 X130.312 Y103.726 E1.0
G1 X130.087 Y104.194 E1.0
G1 X129.762 Y104.67 E1.0
G1 X129.409 Y105.051 E1.0
G1 X129.015 Y105.365 E1.0
G1 X128.496 Y105.665 E1.0
G1 X128.036 Y105.846 E1.0
G1 X127.528 Y105.962 E1.0
G1 X126.958 Y106.004 E1.0
G1 X126.383 Y105.962 E1.0
G1 X125.87 Y105.844 E1.0
G1 X125.41 Y105.663 E1.0
G1 X124.93 Y105.386 E1.0
G1 X124.486 Y105.031 E1.0
G1 X124.138 Y104.657 E1.0
G1 X123.824 Y104.196 E1.0
G1 X123.597 Y103.726 E1.0
G1 X123.431 Y103.189 E1.0
G1 X123.431 Y103.189 E1.0
;Curves end: 3-17 @ Z2.4 Distance: 22.14

G0 X124.994 Y102.827 ;Move To

;Curve: 3-18 @ Z2.4
G1 X124.956 Y102.572 E1.0 F1000.0
G1 X124.956 Y102.233 E1.0
G1 X124.996 Y101.965 E1.0
G1 X125.094 Y101.652 E1.0
G1 X125.204 Y101.422 E1.0
G1 X125.394 Y101.144 E1.0
G1 X125.578 Y100.946 E1.0
G1 X125.834 Y100.741 E1.0
G1 X126.108 Y100.583 E1.0
G1 X126.347 Y100.489 E1.0
G1 X126.619 Y100.426 E1.0
G1 X126.957 Y100.402 E1.0
G1 X127.291 Y100.426 E1.0
G1 X127.565 Y100.489 E1.0
G1 X127.8 Y100.581 E1.0
G1 X128.106 Y100.758 E1.0
G1 X128.311 Y100.922 E1.0
G1 X128.524 Y101.151 E1.0
G1 X128.695 Y101.403 E1.0
G1 X128.823 Y101.668 E1.0
G1 X128.917 Y101.97 E1.0
G1 X128.956 Y102.232 E1.0
G1 X128.956 Y102.558 E1.0
G1 X128.916 Y102.824 E1.0
G1 X128.818 Y103.141 E1.0
G1 X128.697 Y103.394 E1.0
G1 X128.509 Y103.668 E1.0
G1 X128.316 Y103.876 E1.0
G1 X128.113 Y104.039 E1.0
G1 X127.8 Y104.219 E1.0
G1 X127.562 Y104.313 E1.0
G1 X127.291 Y104.375 E1.0
G1 X126.957 Y104.399 E1.0
G1 X126.619 Y104.375 E1.0
G1 X126.347 Y104.312 E1.0
G1 X126.108 Y104.218 E1.0
G1 X125.834 Y104.06 E1.0
G1 X125.575 Y103.853 E1.0
G1 X125.392 Y103.656 E1.0
G1 X125.215 Y103.396 E1.0
G1 X125.091 Y103.14 E1.0
G1 X124.994 Y102.827 E1.0
G1 X124.994 Y102.827 E1.0
;Curves end: 3-18 @ Z2.4 Distance: 12.35

G0 X126.56 Y102.474 ;Move To

;Curve: 3-19 @ Z2.4
G1 X126.556 Y102.45 E1.0 F1000.0
G1 X126.556 Y102.348 E1.0
G1 X126.559 Y102.328 E1.0
G1 X126.589 Y102.233 E1.0
G1 X126.592 Y102.227 E1.0
G1 X126.649 Y102.144 E1.0
G1 X126.669 Y102.122 E1.0
G1 X126.74 Y102.065 E1.0
G1 X126.802 Y102.029 E1.0
G1 X126.822 Y102.022 E1.0
G1 X126.859 Y102.013 E1.0
G1 X126.955 Y102.006 E1.0
G1 X127.055 Y102.013 E1.0
G1 X127.09 Y102.021 E1.0
G1 X127.104 Y102.027 E1.0
G1 X127.2 Y102.082 E1.0
G1 X127.217 Y102.096 E1.0
G1 X127.272 Y102.155 E1.0
G1 X127.303 Y102.201 E1.0
G1 X127.33 Y102.256 E1.0
G1 X127.352 Y102.327 E1.0
G1 X127.356 Y102.351 E1.0
G1 X127.356 Y102.44 E1.0
G1 X127.353 Y102.462 E1.0
G1 X127.322 Y102.563 E1.0
G1 X127.308 Y102.591 E1.0
G1 X127.258 Y102.665 E1.0
G1 X127.226 Y102.699 E1.0
G1 X127.206 Y102.715 E1.0
G1 X127.102 Y102.774 E1.0
G1 X127.089 Y102.779 E1.0
G1 X127.053 Y102.788 E1.0
G1 X126.955 Y102.795 E1.0
G1 X126.859 Y102.788 E1.0
G1 X126.822 Y102.779 E1.0
G1 X126.802 Y102.772 E1.0
G1 X126.74 Y102.736 E1.0
G1 X126.663 Y102.674 E1.0
G1 X126.648 Y102.657 E1.0
G1 X126.603 Y102.591 E1.0
G1 X126.583 Y102.551 E1.0
G1 X126.56 Y102.474 E1.0
G1 X126.56 Y102.474 E1.0
;Layer end: 3

G0 X98.408 Y108.918 Z3.2 ;Layer Change Transition Move

;Layer: 4 @ Z3.2
;TYPE:WALL-OUTER
;Curve: 4-1 @ Z3.2
G1 X97.756 Y104.59 E1.0 F1000.0
G1 X97.756 Y100.211 E1.0
G1 X98.408 Y95.883 E1.0
G1 X99.696 Y91.706 E1.0
G1 X101.597 Y87.76 E1.0
G1 X104.065 Y84.14 E1.0
G1 X107.034 Y80.94 E1.0
G1 X110.463 Y78.206 E1.0
G1 X114.251 Y76.019 E1.0
G1 X118.325 Y74.419 E1.0
G1 X122.59 Y73.446 E1.0
G1 X126.956 Y73.118 E1.0
G1 X131.321 Y73.446 E1.0
G1 X135.586 Y74.419 E1.0
G1 X139.661 Y76.019 E1.0
G1 X143.453 Y78.208 E1.0
G1 X146.873 Y80.936 E1.0
G1 X149.846 Y84.14 E1.0
G1 X152.314 Y87.76 E1.0
G1 X154.215 Y91.706 E1.0
G1 X155.504 Y95.883 E1.0
G1 X156.156 Y100.211 E1.0
G1 X156.156 Y104.59 E1.0
G1 X155.504 Y108.918 E1.0
G1 X154.215 Y113.096 E1.0
G1 X152.314 Y117.042 E1.0
G1 X149.846 Y120.661 E1.0
G1 X146.873 Y123.865 E1.0
G1 X143.453 Y126.593 E1.0
G1 X139.661 Y128.782 E1.0
G1 X135.586 Y130.382 E1.0
G1 X131.321 Y131.355 E1.0
G1 X126.956 Y131.683 E1.0
G1 X122.59 Y131.355 E1.0
G1 X118.325 Y130.382 E1.0
G1 X114.251 Y128.782 E1.0
G1 X110.463 Y126.595 E1.0
G1 X107.034 Y123.861 E1.0
G1 X104.065 Y120.661 E1.0
G1 X101.597 Y117.042 E1.0
G1 X99.696 Y113.096 E1.0
G1 X98.408 Y108.918 E1.0
G1 X98.408 Y108.918 E1.0
;Curves end: 4-1 @ Z3.2 Distance: 179.42

G0 X99.971 Y108.558 ;Move To

;Curve: 4-2 @ Z3.2
;TYPE:FILL
G1 X99.356 Y104.472 E1.0 F1000.0
G1 X99.356 Y100.329 E1.0
G1 X99.972 Y96.237 E1.0
G1 X101.186 Y92.298 E1.0
G1 X102.987 Y88.564 E1.0
G1 X105.325 Y85.134 E1.0
G1 X108.12 Y82.122 E1.0
G1 X111.367 Y79.532 E1.0
G1 X114.945 Y77.466 E1.0
G1 X118.802 Y75.951 E1.0
G1 X122.826 Y75.034 E1.0
G1 X126.956 Y74.724 E1.0
G1 X131.085 Y75.034 E1.0
G1 X135.112 Y75.951 E1.0
G1 X138.965 Y77.465 E1.0
G1 X142.553 Y79.536 E1.0
G1 X145.783 Y82.114 E1.0
G1 X148.586 Y85.134 E1.0
G1 X150.924 Y88.564 E1.0
G1 X152.725 Y92.299 E1.0
G1 X153.94 Y96.237 E1.0
G1 X154.556 Y100.329 E1.0
G1 X154.556 Y104.472 E1.0
G1 X153.94 Y108.564 E1.0
G1 X152.725 Y112.503 E1.0
G1 X150.924 Y116.238 E1.0
G1 X148.586 Y119.667 E1.0
G1 X145.783 Y122.687 E1.0
G1 X142.553 Y125.265 E1.0
G1 X138.965 Y127.336 E1.0
G1 X135.112 Y128.85 E1.0
G1 X131.085 Y129.767 E1.0
G1 X126.956 Y130.077 E1.0
G1 X122.826 Y129.767 E1.0
G1 X118.802 Y128.85 E1.0
G1 X114.945 Y127.335 E1.0
G1 X111.367 Y125.269 E1.0
G1 X108.12 Y122.679 E1.0
G1 X105.325 Y119.667 E1.0
G1 X102.987 Y116.238 E1.0
G1 X101.189 Y112.509 E1.0
G1 X99.971 Y108.558 E1.0
G1 X99.971 Y108.558 E1.0
;Curves end: 4-2 @ Z3.2 Distance: 169.59

G0 X101.535 Y108.201 ;Move To

;Curve: 4-3 @ Z3.2
G1 X100.956 Y104.354 E1.0 F1000.0
G1 X100.956 Y100.447 E1.0
G1 X101.536 Y96.594 E1.0
G1 X102.68 Y92.884 E1.0
G1 X104.376 Y89.366 E1.0
G1 X106.579 Y86.135 E1.0
G1 X109.209 Y83.3 E1.0
G1 X112.271 Y80.858 E1.0
G1 X115.645 Y78.91 E1.0
G1 X119.274 Y77.484 E1.0
G1 X123.061 Y76.621 E1.0
G1 X126.956 Y76.329 E1.0
G1 X130.85 Y76.621 E1.0
G1 X134.64 Y77.484 E1.0
G1 X138.265 Y78.909 E1.0
G1 X141.649 Y80.862 E1.0
G1 X144.694 Y83.292 E1.0
G1 X147.332 Y86.135 E1.0
G1 X149.535 Y89.366 E1.0
G1 X151.231 Y92.883 E1.0
G1 X152.376 Y96.597 E1.0
G1 X152.956 Y100.447 E1.0
G1 X152.956 Y104.354 E1.0
G1 X152.376 Y108.205 E1.0
G1 X151.231 Y111.919 E1.0
G1 X149.535 Y115.436 E1.0
G1 X147.332 Y118.666 E1.0
G1 X144.694 Y121.509 E1.0
G1 X141.649 Y123.939 E1.0
G1 X138.265 Y125.892 E1.0
G1 X134.64 Y127.317 E1.0
G1 X130.85 Y128.18 E1.0
G1 X126.956 Y128.472 E1.0
G1 X123.061 Y128.18 E1.0
G1 X119.274 Y127.317 E1.0
G1 X115.645 Y125.891 E1.0
G1 X112.271 Y123.943 E1.0
G1 X109.209 Y121.501 E1.0
G1 X106.579 Y118.666 E1.0
G1 X104.376 Y115.436 E1.0
G1 X102.683 Y111.923 E1.0
G1 X101.535 Y108.201 E1.0
G1 X101.535 Y108.201 E1.0
;Curves end: 4-3 @ Z3.2 Distance: 159.74

G0 X103.099 Y107.842 ;Move To

;Curve: 4-4 @ Z3.2
G1 X102.556 Y104.236 E1.0 F1000.0
G1 X102.556 Y100.565 E1.0
G1 X103.1 Y96.951 E1.0
G1 X104.174 Y93.47 E1.0
G1 X105.765 Y90.168 E1.0
G1 X107.833 Y87.136 E1.0
G1 X110.298 Y84.478 E1.0
G1 X113.175 Y82.184 E1.0
G1 X116.345 Y80.354 E1.0
G1 X119.745 Y79.018 E1.0
G1 X123.297 Y78.208 E1.0
G1 X126.956 Y77.934 E1.0
G1 X130.615 Y78.208 E1.0
G1 X134.168 Y79.017 E1.0
G1 X137.565 Y80.353 E1.0
G1 X140.745 Y82.188 E1.0
G1 X143.604 Y84.47 E1.0
G1 X146.078 Y87.136 E1.0
G1 X148.146 Y90.169 E1.0
G1 X149.737 Y93.469 E1.0
G1 X150.812 Y96.954 E1.0
G1 X151.356 Y100.566 E1.0
G1 X151.356 Y104.236 E1.0
G1 X150.812 Y107.848 E1.0
G1 X149.737 Y111.333 E1.0
G1 X148.148 Y114.63 E1.0
G1 X146.075 Y117.668 E1.0
G1 X143.604 Y120.331 E1.0
G1 X140.745 Y122.613 E1.0
G1 X137.565 Y124.448 E1.0
G1 X134.168 Y125.784 E1.0
G1 X130.615 Y126.593 E1.0
G1 X126.956 Y126.867 E1.0
G1 X123.297 Y126.593 E1.0
G1 X119.745 Y125.783 E1.0
G1 X116.345 Y124.447 E1.0
G1 X113.175 Y122.617 E1.0
G1 X110.298 Y120.323 E1.0
G1 X107.836 Y117.668 E1.0
G1 X105.764 Y114.63 E1.0
G1 X104.177 Y111.339 E1.0
G1 X103.099 Y107.842 E1.0
G1 X103.099 Y107.842 E1.0
;Curves end: 4-4 @ Z3.2 Distance: 149.92

G0 X104.663 Y107.485 ;Move To

;Curve: 4-5 @ Z3.2
G1 X104.156 Y104.118 E1.0 F1000.0
G1 X104.156 Y100.683 E1.0
G1 X104.664 Y97.31 E1.0
G1 X105.668 Y94.054 E1.0
G1 X107.153 Y90.974 E1.0
G1 X109.09 Y88.134 E1.0
G1 X111.39 Y85.653 E1.0
G1 X114.075 Y83.512 E1.0
G1 X117.045 Y81.798 E1.0
G1 X120.216 Y80.552 E1.0
G1 X123.534 Y79.795 E1.0
G1 X126.956 Y79.539 E1.0
G1 X130.38 Y79.795 E1.0
G1 X133.693 Y80.55 E1.0
G1 X136.868 Y81.798 E1.0
G1 X139.845 Y83.516 E1.0
G1 X142.511 Y85.644 E1.0
G1 X144.824 Y88.137 E1.0
G1 X146.757 Y90.971 E1.0
G1 X148.243 Y94.053 E1.0
G1 X149.248 Y97.314 E1.0
G1 X149.756 Y100.684 E1.0
G1 X149.756 Y104.118 E1.0
G1 X149.248 Y107.488 E1.0
G1 X148.243 Y110.749 E1.0
G1 X146.761 Y113.824 E1.0
G1 X144.819 Y116.67 E1.0
G1 X142.511 Y119.157 E1.0
G1 X139.845 Y121.285 E1.0
G1 X136.868 Y123.003 E1.0
G1 X133.693 Y124.251 E1.0
G1 X130.38 Y125.006 E1.0
G1 X126.956 Y125.262 E1.0
G1 X123.534 Y125.006 E1.0
G1 X120.216 Y124.249 E1.0
G1 X117.045 Y123.003 E1.0
G1 X114.075 Y121.289 E1.0
G1 X111.39 Y119.148 E1.0
G1 X109.093 Y116.67 E1.0
G1 X107.151 Y113.824 E1.0
G1 X105.671 Y110.753 E1.0
G1 X104.663 Y107.485 E1.0
G1 X104.663 Y107.485 E1.0
;Curves end: 4-5 @ Z3.2 Distance: 140.15

G0 X106.227 Y107.126 ;Move To

;Curve: 4-6 @ Z3.2
G1 X105.756 Y104 E1.0 F1000.0
G1 X105.756 Y100.801 E1.0
G1 X106.228 Y97.667 E1.0
G1 X107.162 Y94.64 E1.0
G1 X108.54 Y91.78 E1.0
G1 X110.347 Y89.132 E1.0
G1 X112.48 Y86.831 E1.0
G1 X114.979 Y84.838 E1.0
G1 X117.744 Y83.242 E1.0
G1 X120.687 Y82.086 E1.0
G1 X123.771 Y81.382 E1.0
G1 X126.956 Y81.144 E1.0
G1 X130.143 Y81.382 E1.0
G1 X133.222 Y82.084 E1.0
G1 X136.168 Y83.242 E1.0
G1 X138.945 Y84.844 E1.0
G1 X141.418 Y86.818 E1.0
G1 X143.567 Y89.135 E1.0
G1 X145.37 Y91.777 E1.0
G1 X146.749 Y94.639 E1.0
G1 X147.684 Y97.671 E1.0
G1 X148.156 Y100.803 E1.0
G1 X148.156 Y103.999 E1.0
G1 X147.684 Y107.131 E1.0
G1 X146.749 Y110.163 E1.0
G1 X145.374 Y113.018 E1.0
G1 X143.563 Y115.672 E1.0
G1 X141.418 Y117.983 E1.0
G1 X138.945 Y119.957 E1.0
G1 X136.168 Y121.559 E1.0
G1 X133.222 Y122.717 E1.0
G1 X130.143 Y123.419 E1.0
G1 X126.956 Y123.657 E1.0
G1 X123.771 Y123.419 E1.0
G1 X120.687 Y122.715 E1.0
G1 X117.744 Y121.559 E1.0
G1 X114.979 Y119.963 E1.0
G1 X112.48 Y117.97 E1.0
G1 X110.35 Y115.672 E1.0
G1 X108.539 Y113.018 E1.0
G1 X107.165 Y110.169 E1.0
G1 X106.227 Y107.126 E1.0
G1 X106.227 Y107.126 E1.0
;Curves end: 4-6 @ Z3.2 Distance: 130.32

G0 X107.791 Y106.769 ;Move To

;Curve: 4-7 @ Z3.2
G1 X107.356 Y103.881 E1.0 F1000.0
G1 X107.356 Y100.919 E1.0
G1 X107.792 Y98.027 E1.0
G1 X108.657 Y95.221 E1.0
G1 X109.926 Y92.588 E1.0
G1 X111.604 Y90.13 E1.0
G1 X113.57 Y88.009 E1.0
G1 X115.883 Y86.164 E1.0
G1 X118.443 Y84.686 E1.0
G1 X121.158 Y83.62 E1.0
G1 X124.008 Y82.969 E1.0
G1 X126.956 Y82.749 E1.0
G1 X129.906 Y82.969 E1.0
G1 X132.751 Y83.618 E1.0
G1 X135.469 Y84.686 E1.0
G1 X138.045 Y86.173 E1.0
G1 X140.325 Y87.992 E1.0
G1 X142.31 Y90.133 E1.0
G1 X143.982 Y92.583 E1.0
G1 X145.255 Y95.225 E1.0
G1 X146.12 Y98.029 E1.0
G1 X146.556 Y100.922 E1.0
G1 X146.556 Y103.88 E1.0
G1 X146.12 Y106.773 E1.0
G1 X145.256 Y109.574 E1.0
G1 X143.985 Y112.215 E1.0
G1 X142.307 Y114.674 E1.0
G1 X140.325 Y116.809 E1.0
G1 X138.045 Y118.628 E1.0
G1 X135.469 Y120.115 E1.0
G1 X132.751 Y121.183 E1.0
G1 X129.906 Y121.832 E1.0
G1 X126.956 Y122.052 E1.0
G1 X124.008 Y121.832 E1.0
G1 X121.158 Y121.181 E1.0
G1 X118.443 Y120.115 E1.0
G1 X115.883 Y118.637 E1.0
G1 X113.57 Y116.792 E1.0
G1 X111.607 Y114.674 E1.0
G1 X109.926 Y112.212 E1.0
G1 X108.659 Y109.583 E1.0
G1 X107.791 Y106.769 E1.0
G1 X107.791 Y106.769 E1.0
;Curves end: 4-7 @ Z3.2 Distance: 120.43

G0 X109.355 Y106.409 ;Move To

;Curve: 4-8 @ Z3.2
G1 X108.956 Y103.763 E1.0 F1000.0
G1 X108.956 Y101.039 E1.0
G1 X109.356 Y98.384 E1.0
G1 X110.151 Y95.807 E1.0
G1 X111.316 Y93.389 E1.0
G1 X112.857 Y91.132 E1.0
G1 X114.66 Y89.187 E1.0
G1 X116.787 Y87.49 E1.0
G1 X119.142 Y86.13 E1.0
G1 X121.629 Y85.154 E1.0
G1 X124.245 Y84.556 E1.0
G1 X126.956 Y84.354 E1.0
G1 X129.669 Y84.556 E1.0
G1 X132.28 Y85.152 E1.0
G1 X134.769 Y86.13 E1.0
G1 X137.141 Y87.499 E1.0
G1 X139.235 Y89.17 E1.0
G1 X141.053 Y91.131 E1.0
G1 X142.594 Y93.389 E1.0
G1 X143.761 Y95.809 E1.0
G1 X144.556 Y98.389 E1.0
G1 X144.956 Y101.041 E1.0
G1 X144.956 Y103.761 E1.0
G1 X144.556 Y106.413 E1.0
G1 X143.762 Y108.987 E1.0
G1 X142.595 Y111.412 E1.0
G1 X141.053 Y113.672 E1.0
G1 X139.232 Y115.634 E1.0
G1 X137.141 Y117.302 E1.0
G1 X134.769 Y118.671 E1.0
G1 X132.28 Y119.649 E1.0
G1 X129.669 Y120.245 E1.0
G1 X126.956 Y120.447 E1.0
G1 X124.245 Y120.245 E1.0
G1 X121.629 Y119.647 E1.0
G1 X119.142 Y118.671 E1.0
G1 X116.787 Y117.311 E1.0
G1 X114.66 Y115.614 E1.0
G1 X112.86 Y113.672 E1.0
G1 X111.316 Y111.411 E1.0
G1 X110.153 Y108.999 E1.0
G1 X109.355 Y106.409 E1.0
G1 X109.355 Y106.409 E1.0
;Curves end: 4-8 @ Z3.2 Distance: 110.68

G0 X110.919 Y106.053 ;Move To

;Curve: 4-9 @ Z3.2
G1 X110.556 Y103.643 E1.0 F1000.0
G1 X110.556 Y101.158 E1.0
G1 X110.92 Y98.744 E1.0
G1 X111.646 Y96.388 E1.0
G1 X112.704 Y94.193 E1.0
G1 X114.11 Y92.134 E1.0
G1 X115.75 Y90.365 E1.0
G1 X117.691 Y88.816 E1.0
G1 X119.841 Y87.574 E1.0
G1 X122.099 Y86.688 E1.0
G1 X124.483 Y86.143 E1.0
G1 X126.956 Y85.959 E1.0
G1 X129.432 Y86.143 E1.0
G1 X131.809 Y86.686 E1.0
G1 X134.07 Y87.574 E1.0
G1 X136.237 Y88.825 E1.0
G1 X138.145 Y90.348 E1.0
G1 X139.796 Y92.129 E1.0
G1 X141.207 Y94.195 E1.0
G1 X142.267 Y96.395 E1.0
G1 X142.992 Y98.746 E1.0
G1 X143.356 Y101.161 E1.0
G1 X143.356 Y103.641 E1.0
G1 X142.992 Y106.054 E1.0
G1 X142.268 Y108.4 E1.0
G1 X141.205 Y110.609 E1.0
G1 X139.797 Y112.674 E1.0
G1 X138.143 Y114.456 E1.0
G1 X136.237 Y115.976 E1.0
G1 X134.07 Y117.227 E1.0
G1 X131.809 Y118.115 E1.0
G1 X129.432 Y118.658 E1.0
G1 X126.956 Y118.842 E1.0
G1 X124.483 Y118.658 E1.0
G1 X122.099 Y118.113 E1.0
G1 X119.841 Y117.227 E1.0
G1 X117.691 Y115.985 E1.0
G1 X115.75 Y114.436 E1.0
G1 X114.113 Y112.67 E1.0
G1 X112.706 Y110.61 E1.0
G1 X111.647 Y108.413 E1.0
G1 X110.919 Y106.053 E1.0
G1 X110.919 Y106.053 E1.0
;Curves end: 4-9 @ Z3.2 Distance: 100.84

G0 X112.483 Y105.693 ;Move To

;Curve: 4-10 @ Z3.2
G1 X112.156 Y103.525 E1.0 F1000.0
G1 X112.156 Y101.278 E1.0
G1 X112.484 Y99.101 E1.0
G1 X113.14 Y96.974 E1.0
G1 X114.094 Y94.994 E1.0
G1 X115.363 Y93.136 E1.0
G1 X116.84 Y91.543 E1.0
G1 X118.6 Y90.138 E1.0
G1 X120.537 Y89.019 E1.0
G1 X122.566 Y88.223 E1.0
G1 X124.721 Y87.73 E1.0
G1 X126.956 Y87.564 E1.0
G1 X129.195 Y87.73 E1.0
G1 X131.338 Y88.22 E1.0
G1 X133.371 Y89.018 E1.0
G1 X135.337 Y90.153 E1.0
G1 X137.052 Y91.522 E1.0
G1 X138.543 Y93.131 E1.0
G1 X139.819 Y94.999 E1.0
G1 X140.773 Y96.978 E1.0
G1 X141.428 Y99.104 E1.0
G1 X141.756 Y101.28 E1.0
G1 X141.756 Y103.521 E1.0
G1 X141.428 Y105.695 E1.0
G1 X140.774 Y107.813 E1.0
G1 X139.814 Y109.81 E1.0
G1 X138.543 Y111.673 E1.0
G1 X137.054 Y113.278 E1.0
G1 X135.333 Y114.65 E1.0
G1 X133.371 Y115.783 E1.0
G1 X131.338 Y116.581 E1.0
G1 X129.195 Y117.071 E1.0
G1 X126.956 Y117.237 E1.0
G1 X124.721 Y117.071 E1.0
G1 X122.566 Y116.578 E1.0
G1 X120.537 Y115.782 E1.0
G1 X118.6 Y114.663 E1.0
G1 X116.84 Y113.258 E1.0
G1 X115.366 Y111.668 E1.0
G1 X114.096 Y109.809 E1.0
G1 X113.141 Y107.829 E1.0
G1 X112.483 Y105.693 E1.0
G1 X112.483 Y105.693 E1.0
;Curves end: 4-10 @ Z3.2 Distance: 90.99

G0 X114.047 Y105.337 ;Move To

;Curve: 4-11 @ Z3.2
G1 X113.756 Y103.405 E1.0 F1000.0
G1 X113.756 Y101.397 E1.0
G1 X114.048 Y99.461 E1.0
G1 X114.635 Y97.555 E1.0
G1 X115.482 Y95.798 E1.0
G1 X116.616 Y94.138 E1.0
G1 X117.933 Y92.717 E1.0
G1 X119.505 Y91.463 E1.0
G1 X121.233 Y90.464 E1.0
G1 X123.033 Y89.758 E1.0
G1 X124.959 Y89.317 E1.0
G1 X126.957 Y89.169 E1.0
G1 X128.956 Y89.317 E1.0
G1 X130.868 Y89.754 E1.0
G1 X132.672 Y90.462 E1.0
G1 X134.437 Y91.481 E1.0
G1 X135.955 Y92.693 E1.0
G1 X137.293 Y94.137 E1.0
G1 X138.429 Y95.8 E1.0
G1 X139.279 Y97.564 E1.0
G1 X139.864 Y99.461 E1.0
G1 X140.156 Y101.399 E1.0
G1 X140.156 Y103.401 E1.0
G1 X139.864 Y105.336 E1.0
G1 X139.28 Y107.229 E1.0
G1 X138.426 Y109.005 E1.0
G1 X137.286 Y110.675 E1.0
G1 X135.962 Y112.103 E1.0
G1 X134.433 Y113.322 E1.0
G1 X132.672 Y114.339 E1.0
G1 X130.868 Y115.047 E1.0
G1 X128.956 Y115.484 E1.0
G1 X126.957 Y115.632 E1.0
G1 X124.959 Y115.484 E1.0
G1 X123.033 Y115.043 E1.0
G1 X121.233 Y114.337 E1.0
G1 X119.505 Y113.338 E1.0
G1 X117.933 Y112.084 E1.0
G1 X116.621 Y110.669 E1.0
G1 X115.484 Y109.004 E1.0
G1 X114.635 Y107.243 E1.0
G1 X114.047 Y105.337 E1.0
G1 X114.047 Y105.337 E1.0
;Curves end: 4-11 @ Z3.2 Distance: 81.11

G0 X115.611 Y104.977 ;Move To

;Curve: 4-12 @ Z3.2
G1 X115.356 Y103.287 E1.0 F1000.0
G1 X115.356 Y101.517 E1.0
G1 X115.612 Y99.817 E1.0
G1 X116.129 Y98.141 E1.0
G1 X116.87 Y96.603 E1.0
G1 X117.871 Y95.137 E1.0
G1 X119.023 Y93.895 E1.0
G1 X120.411 Y92.787 E1.0
G1 X121.927 Y91.911 E1.0
G1 X123.507 Y91.291 E1.0
G1 X125.198 Y90.904 E1.0
G1 X126.957 Y90.774 E1.0
G1 X128.719 Y90.904 E1.0
G1 X130.397 Y91.288 E1.0
G1 X131.973 Y91.906 E1.0
G1 X133.537 Y92.809 E1.0
G1 X134.861 Y93.866 E1.0
G1 X136.041 Y95.139 E1.0
G1 X137.039 Y96.601 E1.0
G1 X137.785 Y98.148 E1.0
G1 X138.3 Y99.82 E1.0
G1 X138.556 Y101.518 E1.0
G1 X138.556 Y103.281 E1.0
G1 X138.3 Y104.977 E1.0
G1 X137.785 Y106.645 E1.0
G1 X137.036 Y108.205 E1.0
G1 X136.033 Y109.673 E1.0
G1 X134.87 Y110.928 E1.0
G1 X133.533 Y111.994 E1.0
G1 X131.973 Y112.895 E1.0
G1 X130.397 Y113.513 E1.0
G1 X128.719 Y113.897 E1.0
G1 X126.957 Y114.027 E1.0
G1 X125.198 Y113.897 E1.0
G1 X123.507 Y113.51 E1.0
G1 X121.927 Y112.89 E1.0
G1 X120.411 Y112.014 E1.0
G1 X119.023 Y110.906 E1.0
G1 X117.874 Y109.667 E1.0
G1 X116.874 Y108.203 E1.0
G1 X116.129 Y106.659 E1.0
G1 X115.611 Y104.977 E1.0
G1 X115.611 Y104.977 E1.0
;Curves end: 4-12 @ Z3.2 Distance: 71.29

G0 X117.175 Y104.621 ;Move To

;Curve: 4-13 @ Z3.2
G1 X116.956 Y103.167 E1.0 F1000.0
G1 X116.956 Y101.635 E1.0
G1 X117.176 Y100.176 E1.0
G1 X117.624 Y98.722 E1.0
G1 X118.258 Y97.407 E1.0
G1 X119.124 Y96.139 E1.0
G1 X120.116 Y95.069 E1.0
G1 X121.313 Y94.114 E1.0
G1 X122.626 Y93.355 E1.0
G1 X123.975 Y92.826 E1.0
G1 X125.437 Y92.491 E1.0
G1 X126.957 Y92.379 E1.0
G1 X128.48 Y92.491 E1.0
G1 X129.924 Y92.821 E1.0
G1 X131.277 Y93.352 E1.0
G1 X132.637 Y94.137 E1.0
G1 X133.767 Y95.04 E1.0
G1 X134.788 Y96.141 E1.0
G1 X135.649 Y97.402 E1.0
G1 X136.291 Y98.734 E1.0
G1 X136.736 Y100.176 E1.0
G1 X136.956 Y101.638 E1.0
G1 X136.956 Y103.161 E1.0
G1 X136.736 Y104.618 E1.0
G1 X136.29 Y106.062 E1.0
G1 X135.647 Y107.401 E1.0
G1 X134.781 Y108.67 E1.0
G1 X133.774 Y109.756 E1.0
G1 X132.633 Y110.666 E1.0
G1 X131.277 Y111.449 E1.0
G1 X129.924 Y111.98 E1.0
G1 X128.48 Y112.31 E1.0
G1 X126.957 Y112.422 E1.0
G1 X125.437 Y112.31 E1.0
G1 X123.975 Y111.975 E1.0
G1 X122.626 Y111.446 E1.0
G1 X121.313 Y110.687 E1.0
G1 X120.116 Y109.732 E1.0
G1 X119.127 Y108.665 E1.0
G1 X118.264 Y107.401 E1.0
G1 X117.623 Y106.073 E1.0
G1 X117.175 Y104.621 E1.0
G1 X117.175 Y104.621 E1.0
;Curves end: 4-13 @ Z3.2 Distance: 61.49

G0 X118.739 Y104.261 ;Move To

;Curve: 4-14 @ Z3.2
G1 X118.556 Y103.049 E1.0 F1000.0
G1 X118.556 Y101.755 E1.0
G1 X118.74 Y100.532 E1.0
G1 X119.118 Y99.308 E1.0
G1 X119.648 Y98.208 E1.0
G1 X120.377 Y97.141 E1.0
G1 X121.206 Y96.247 E1.0
G1 X122.219 Y95.438 E1.0
G1 X123.32 Y94.802 E1.0
G1 X124.449 Y94.359 E1.0
G1 X125.676 Y94.078 E1.0
G1 X126.958 Y93.984 E1.0
G1 X128.243 Y94.078 E1.0
G1 X129.453 Y94.355 E1.0
G1 X130.578 Y94.796 E1.0
G1 X131.733 Y95.463 E1.0
G1 X132.676 Y96.217 E1.0
G1 X133.535 Y97.143 E1.0
G1 X134.259 Y98.203 E1.0
G1 X134.797 Y99.318 E1.0
G1 X135.172 Y100.536 E1.0
G1 X135.356 Y101.756 E1.0
G1 X135.356 Y103.041 E1.0
G1 X135.172 Y104.259 E1.0
G1 X134.795 Y105.478 E1.0
G1 X134.259 Y106.596 E1.0
G1 X133.524 Y107.672 E1.0
G1 X132.684 Y108.578 E1.0
G1 X131.729 Y109.34 E1.0
G1 X130.578 Y110.005 E1.0
G1 X129.453 Y110.446 E1.0
G1 X128.243 Y110.723 E1.0
G1 X126.958 Y110.817 E1.0
G1 X125.676 Y110.723 E1.0
G1 X124.449 Y110.442 E1.0
G1 X123.32 Y109.999 E1.0
G1 X122.219 Y109.363 E1.0
G1 X121.206 Y108.554 E1.0
G1 X120.38 Y107.663 E1.0
G1 X119.655 Y106.602 E1.0
G1 X119.116 Y105.485 E1.0
G1 X118.739 Y104.261 E1.0
G1 X118.739 Y104.261 E1.0
;Curves end: 4-14 @ Z3.2 Distance: 51.61

G0 X120.303 Y103.904 ;Move To

;Curve: 4-15 @ Z3.2
G1 X120.156 Y102.929 E1.0 F1000.0
G1 X120.156 Y101.873 E1.0
G1 X120.304 Y100.892 E1.0
G1 X120.613 Y99.89 E1.0
G1 X121.034 Y99.015 E1.0
G1 X121.632 Y98.14 E1.0
G1 X122.3 Y97.421 E1.0
G1 X123.124 Y96.763 E1.0
G1 X124.016 Y96.247 E1.0
G1 X124.917 Y95.894 E1.0
G1 X125.915 Y95.665 E1.0
G1 X126.958 Y95.589 E1.0
G1 X128.004 Y95.665 E1.0
G1 X128.98 Y95.888 E1.0
G1 X129.882 Y96.242 E1.0
G1 X130.829 Y96.789 E1.0
G1 X131.585 Y97.394 E1.0
G1 X132.283 Y98.145 E1.0
G1 X132.869 Y99.005 E1.0
G1 X133.303 Y99.904 E1.0
G1 X133.608 Y100.892 E1.0
G1 X133.756 Y101.876 E1.0
G1 X133.756 Y102.921 E1.0
G1 X133.608 Y103.898 E1.0
G1 X133.301 Y104.893 E1.0
G1 X132.866 Y105.799 E1.0
G1 X132.271 Y106.67 E1.0
G1 X131.594 Y107.4 E1.0
G1 X130.82 Y108.018 E1.0
G1 X129.887 Y108.557 E1.0
G1 X128.98 Y108.913 E1.0
G1 X128.004 Y109.136 E1.0
G1 X126.958 Y109.212 E1.0
G1 X125.915 Y109.136 E1.0
G1 X124.917 Y108.907 E1.0
G1 X124.016 Y108.554 E1.0
G1 X123.124 Y108.038 E1.0
G1 X122.3 Y107.38 E1.0
G1 X121.635 Y106.664 E1.0
G1 X121.043 Y105.797 E1.0
G1 X120.61 Y104.899 E1.0
G1 X120.303 Y103.904 E1.0
G1 X120.303 Y103.904 E1.0
;Curves end: 4-15 @ Z3.2 Distance: 41.84

G0 X121.867 Y103.545 ;Move To

;Curve: 4-16 @ Z3.2
G1 X121.756 Y102.809 E1.0 F1000.0
G1 X121.756 Y101.993 E1.0
G1 X121.868 Y101.251 E1.0
G1 X122.107 Y100.477 E1.0
G1 X122.424 Y99.817 E1.0
G1 X122.887 Y99.14 E1.0
G1 X123.393 Y98.595 E1.0
G1 X124.026 Y98.089 E1.0
G1 X124.71 Y97.694 E1.0
G1 X125.395 Y97.425 E1.0
G1 X126.149 Y97.252 E1.0
G1 X126.958 Y97.193 E1.0
G1 X127.767 Y97.252 E1.0
G1 X128.509 Y97.422 E1.0
G1 X129.188 Y97.688 E1.0
G1 X129.921 Y98.112 E1.0
G1 X130.494 Y98.57 E1.0
G1 X131.029 Y99.146 E1.0
G1 X131.478 Y99.805 E1.0
G1 X131.81 Y100.492 E1.0
G1 X132.044 Y101.252 E1.0
G1 X132.156 Y101.994 E1.0
G1 X132.156 Y102.8 E1.0
G1 X132.044 Y103.54 E1.0
G1 X131.806 Y104.31 E1.0
G1 X131.477 Y104.995 E1.0
G1 X131.016 Y105.671 E1.0
G1 X130.501 Y106.226 E1.0
G1 X129.915 Y106.693 E1.0
G1 X129.193 Y107.111 E1.0
G1 X128.509 Y107.379 E1.0
G1 X127.767 Y107.549 E1.0
G1 X126.958 Y107.608 E1.0
G1 X126.149 Y107.549 E1.0
G1 X125.395 Y107.376 E1.0
G1 X124.71 Y107.107 E1.0
G1 X124.026 Y106.712 E1.0
G1 X123.393 Y106.206 E1.0
G1 X122.887 Y105.662 E1.0
G1 X122.433 Y104.996 E1.0
G1 X122.104 Y104.315 E1.0
G1 X121.867 Y103.545 E1.0
G1 X121.867 Y103.545 E1.0
;Curves end: 4-16 @ Z3.2 Distance: 31.94

G0 X123.431 Y103.189 ;Move To

;Curve: 4-17 @ Z3.2
G1 X123.356 Y102.689 E1.0 F1000.0
G1 X123.356 Y102.113 E1.0
G1 X123.432 Y101.61 E1.0
G1 X123.602 Y101.061 E1.0
G1 X123.813 Y100.621 E1.0
G1 X124.139 Y100.144 E1.0
G1 X124.487 Y99.769 E1.0
G1 X124.93 Y99.415 E1.0
G1 X125.41 Y99.138 E1.0
G1 X125.87 Y98.957 E1.0
G1 X126.383 Y98.839 E1.0
G1 X126.958 Y98.797 E1.0
G1 X127.528 Y98.839 E1.0
G1 X128.036 Y98.955 E1.0
G1 X128.494 Y99.135 E1.0
G1 X129.015 Y99.436 E1.0
G1 X129.404 Y99.747 E1.0
G1 X129.775 Y100.146 E1.0
G1 X130.087 Y100.605 E1.0
G1 X130.317 Y101.081 E1.0
G1 X130.48 Y101.608 E1.0
G1 X130.556 Y102.114 E1.0
G1 X130.556 Y102.68 E1.0
G1 X130.48 Y103.18 E1.0
G1 X130.312 Y103.726 E1.0
G1 X130.087 Y104.194 E1.0
G1 X129.762 Y104.67 E1.0
G1 X129.409 Y105.051 E1.0
G1 X129.015 Y105.365 E1.0
G1 X128.496 Y105.665 E1.0
G1 X128.036 Y105.846 E1.0
G1 X127.528 Y105.962 E1.0
G1 X126.958 Y106.004 E1.0
G1 X126.383 Y105.962 E1.0
G1 X125.87 Y105.844 E1.0
G1 X125.41 Y105.663 E1.0
G1 X124.93 Y105.386 E1.0
G1 X124.486 Y105.031 E1.0
G1 X124.138 Y104.657 E1.0
G1 X123.824 Y104.196 E1.0
G1 X123.597 Y103.726 E1.0
G1 X123.431 Y103.189 E1.0
G1 X123.431 Y103.189 E1.0
;Curves end: 4-17 @ Z3.2 Distance: 22.14

G0 X124.994 Y102.827 ;Move To

;Curve: 4-18 @ Z3.2
G1 X124.956 Y102.572 E1.0 F1000.0
G1 X124.956 Y102.233 E1.0
G1 X124.996 Y101.965 E1.0
G1 X125.094 Y101.652 E1.0
G1 X125.204 Y101.422 E1.0
G1 X125.394 Y101.144 E1.0
G1 X125.578 Y100.946 E1.0
G1 X125.834 Y100.741 E1.0
G1 X126.108 Y100.583 E1.0
G1 X126.347 Y100.489 E1.0
G1 X126.619 Y100.426 E1.0
G1 X126.957 Y100.402 E1.0
G1 X127.291 Y100.426 E1.0
G1 X127.565 Y100.489 E1.0
G1 X127.8 Y100.581 E1.0
G1 X128.106 Y100.758 E1.0
G1 X128.311 Y100.922 E1.0
G1 X128.524 Y101.151 E1.0
G1 X128.695 Y101.403 E1.0
G1 X128.823 Y101.668 E1.0
G1 X128.917 Y101.97 E1.0
G1 X128.956 Y102.232 E1.0
G1 X128.956 Y102.558 E1.0
G1 X128.916 Y102.824 E1.0
G1 X128.818 Y103.141 E1.0
G1 X128.697 Y103.394 E1.0
G1 X128.509 Y103.668 E1.0
G1 X128.316 Y103.876 E1.0
G1 X128.113 Y104.039 E1.0
G1 X127.8 Y104.219 E1.0
G1 X127.562 Y104.313 E1.0
G1 X127.291 Y104.375 E1.0
G1 X126.957 Y104.399 E1.0
G1 X126.619 Y104.375 E1.0
G1 X126.347 Y104.312 E1.0
G1 X126.108 Y104.218 E1.0
G1 X125.834 Y104.06 E1.0
G1 X125.575 Y103.853 E1.0
G1 X125.392 Y103.656 E1.0
G1 X125.215 Y103.396 E1.0
G1 X125.091 Y103.14 E1.0
G1 X124.994 Y102.827 E1.0
G1 X124.994 Y102.827 E1.0
;Curves end: 4-18 @ Z3.2 Distance: 12.35

G0 X126.56 Y102.474 ;Move To

;Curve: 4-19 @ Z3.2
G1 X126.556 Y102.45 E1.0 F1000.0
G1 X126.556 Y102.348 E1.0
G1 X126.559 Y102.328 E1.0
G1 X126.589 Y102.233 E1.0
G1 X126.592 Y102.227 E1.0
G1 X126.649 Y102.144 E1.0
G1 X126.669 Y102.122 E1.0
G1 X126.74 Y102.065 E1.0
G1 X126.802 Y102.029 E1.0
G1 X126.822 Y102.022 E1.0
G1 X126.859 Y102.013 E1.0
G1 X126.955 Y102.006 E1.0
G1 X127.055 Y102.013 E1.0
G1 X127.09 Y102.021 E1.0
G1 X127.104 Y102.027 E1.0
G1 X127.2 Y102.082 E1.0
G1 X127.217 Y102.096 E1.0
G1 X127.272 Y102.155 E1.0
G1 X127.303 Y102.201 E1.0
G1 X127.33 Y102.256 E1.0
G1 X127.352 Y102.327 E1.0
G1 X127.356 Y102.351 E1.0
G1 X127.356 Y102.44 E1.0
G1 X127.353 Y102.462 E1.0
G1 X127.322 Y102.563 E1.0
G1 X127.308 Y102.591 E1.0
G1 X127.258 Y102.665 E1.0
G1 X127.226 Y102.699 E1.0
G1 X127.206 Y102.715 E1.0
G1 X127.102 Y102.774 E1.0
G1 X127.089 Y102.779 E1.0
G1 X127.053 Y102.788 E1.0
G1 X126.955 Y102.795 E1.0
G1 X126.859 Y102.788 E1.0
G1 X126.822 Y102.779 E1.0
G1 X126.802 Y102.772 E1.0
G1 X126.74 Y102.736 E1.0
G1 X126.663 Y102.674 E1.0
G1 X126.648 Y102.657 E1.0
G1 X126.603 Y102.591 E1.0
G1 X126.583 Y102.551 E1.0
G1 X126.56 Y102.474 E1.0
G1 X126.56 Y102.474 E1.0
;Layer end: 4

G0 X98.408 Y108.918 Z4.0 ;Layer Change Transition Move

;Layer: 5 @ Z4.0
;TYPE:WALL-OUTER
;Curve: 5-1 @ Z4.0
G1 X97.756 Y104.59 E1.0 F1000.0
G1 X97.756 Y100.211 E1.0
G1 X98.408 Y95.883 E1.0
G1 X99.696 Y91.706 E1.0
G1 X101.597 Y87.76 E1.0
G1 X104.065 Y84.14 E1.0
G1 X107.034 Y80.94 E1.0
G1 X110.463 Y78.206 E1.0
G1 X114.251 Y76.019 E1.0
G1 X118.325 Y74.419 E1.0
G1 X122.59 Y73.446 E1.0
G1 X126.956 Y73.118 E1.0
G1 X131.321 Y73.446 E1.0
G1 X135.586 Y74.419 E1.0
G1 X139.661 Y76.019 E1.0
G1 X143.453 Y78.208 E1.0
G1 X146.873 Y80.936 E1.0
G1 X149.846 Y84.14 E1.0
G1 X152.314 Y87.76 E1.0
G1 X154.215 Y91.706 E1.0
G1 X155.504 Y95.883 E1.0
G1 X156.156 Y100.211 E1.0
G1 X156.156 Y104.59 E1.0
G1 X155.504 Y108.918 E1.0
G1 X154.215 Y113.096 E1.0
G1 X152.314 Y117.042 E1.0
G1 X149.846 Y120.661 E1.0
G1 X146.873 Y123.865 E1.0
G1 X143.453 Y126.593 E1.0
G1 X139.661 Y128.782 E1.0
G1 X135.586 Y130.382 E1.0
G1 X131.321 Y131.355 E1.0
G1 X126.956 Y131.683 E1.0
G1 X122.59 Y131.355 E1.0
G1 X118.325 Y130.382 E1.0
G1 X114.251 Y128.782 E1.0
G1 X110.463 Y126.595 E1.0
G1 X107.034 Y123.861 E1.0
G1 X104.065 Y120.661 E1.0
G1 X101.597 Y117.042 E1.0
G1 X99.696 Y113.096 E1.0
G1 X98.408 Y108.918 E1.0
G1 X98.408 Y108.918 E1.0
;Curves end: 5-1 @ Z4.0 Distance: 179.42

G0 X99.971 Y108.558 ;Move To

;Curve: 5-2 @ Z4.0
;TYPE:FILL
G1 X99.356 Y104.472 E1.0 F1000.0
G1 X99.356 Y100.329 E1.0
G1 X99.972 Y96.237 E1.0
G1 X101.186 Y92.298 E1.0
G1 X102.987 Y88.564 E1.0
G1 X105.325 Y85.134 E1.0
G1 X108.12 Y82.122 E1.0
G1 X111.367 Y79.532 E1.0
G1 X114.945 Y77.466 E1.0
G1 X118.802 Y75.951 E1.0
G1 X122.826 Y75.034 E1.0
G1 X126.956 Y74.724 E1.0
G1 X131.085 Y75.034 E1.0
G1 X135.112 Y75.951 E1.0
G1 X138.965 Y77.465 E1.0
G1 X142.553 Y79.536 E1.0
G1 X145.783 Y82.114 E1.0
G1 X148.586 Y85.134 E1.0
G1 X150.924 Y88.564 E1.0
G1 X152.725 Y92.299 E1.0
G1 X153.94 Y96.237 E1.0
G1 X154.556 Y100.329 E1.0
G1 X154.556 Y104.472 E1.0
G1 X153.94 Y108.564 E1.0
G1 X152.725 Y112.503 E1.0
G1 X150.924 Y116.238 E1.0
G1 X148.586 Y119.667 E1.0
G1 X145.783 Y122.687 E1.0
G1 X142.553 Y125.265 E1.0
G1 X138.965 Y127.336 E1.0
G1 X135.112 Y128.85 E1.0
G1 X131.085 Y129.767 E1.0
G1 X126.956 Y130.077 E1.0
G1 X122.826 Y129.767 E1.0
G1 X118.802 Y128.85 E1.0
G1 X114.945 Y127.335 E1.0
G1 X111.367 Y125.269 E1.0
G1 X108.12 Y122.679 E1.0
G1 X105.325 Y119.667 E1.0
G1 X102.987 Y116.238 E1.0
G1 X101.189 Y112.509 E1.0
G1 X99.971 Y108.558 E1.0
G1 X99.971 Y108.558 E1.0
;Curves end: 5-2 @ Z4.0 Distance: 169.59

G0 X101.535 Y108.201 ;Move To

;Curve: 5-3 @ Z4.0
G1 X100.956 Y104.354 E1.0 F1000.0
G1 X100.956 Y100.447 E1.0
G1 X101.536 Y96.594 E1.0
G1 X102.68 Y92.884 E1.0
G1 X104.376 Y89.366 E1.0
G1 X106.579 Y86.135 E1.0
G1 X109.209 Y83.3 E1.0
G1 X112.271 Y80.858 E1.0
G1 X115.645 Y78.91 E1.0
G1 X119.274 Y77.484 E1.0
G1 X123.061 Y76.621 E1.0
G1 X126.956 Y76.329 E1.0
G1 X130.85 Y76.621 E1.0
G1 X134.64 Y77.484 E1.0
G1 X138.265 Y78.909 E1.0
G1 X141.649 Y80.862 E1.0
G1 X144.694 Y83.292 E1.0
G1 X147.332 Y86.135 E1.0
G1 X149.535 Y89.366 E1.0
G1 X151.231 Y92.883 E1.0
G1 X152.376 Y96.597 E1.0
G1 X152.956 Y100.447 E1.0
G1 X152.956 Y104.354 E1.0
G1 X152.376 Y108.205 E1.0
G1 X151.231 Y111.919 E1.0
G1 X149.535 Y115.436 E1.0
G1 X147.332 Y118.666 E1.0
G1 X144.694 Y121.509 E1.0
G1 X141.649 Y123.939 E1.0
G1 X138.265 Y125.892 E1.0
G1 X134.64 Y127.317 E1.0
G1 X130.85 Y128.18 E1.0
G1 X126.956 Y128.472 E1.0
G1 X123.061 Y128.18 E1.0
G1 X119.274 Y127.317 E1.0
G1 X115.645 Y125.891 E1.0
G1 X112.271 Y123.943 E1.0
G1 X109.209 Y121.501 E1.0
G1 X106.579 Y118.666 E1.0
G1 X104.376 Y115.436 E1.0
G1 X102.683 Y111.923 E1.0
G1 X101.535 Y108.201 E1.0
G1 X101.535 Y108.201 E1.0
;Curves end: 5-3 @ Z4.0 Distance: 159.74

G0 X103.099 Y107.842 ;Move To

;Curve: 5-4 @ Z4.0
G1 X102.556 Y104.236 E1.0 F1000.0
G1 X102.556 Y100.565 E1.0
G1 X103.1 Y96.951 E1.0
G1 X104.174 Y93.47 E1.0
G1 X105.765 Y90.168 E1.0
G1 X107.833 Y87.136 E1.0
G1 X110.298 Y84.478 E1.0
G1 X113.175 Y82.184 E1.0
G1 X116.345 Y80.354 E1.0
G1 X119.745 Y79.018 E1.0
G1 X123.297 Y78.208 E1.0
G1 X126.956 Y77.934 E1.0
G1 X130.615 Y78.208 E1.0
G1 X134.168 Y79.017 E1.0
G1 X137.565 Y80.353 E1.0
G1 X140.745 Y82.188 E1.0
G1 X143.604 Y84.47 E1.0
G1 X146.078 Y87.136 E1.0
G1 X148.146 Y90.169 E1.0
G1 X149.737 Y93.469 E1.0
G1 X150.812 Y96.954 E1.0
G1 X151.356 Y100.566 E1.0
G1 X151.356 Y104.236 E1.0
G1 X150.812 Y107.848 E1.0
G1 X149.737 Y111.333 E1.0
G1 X148.148 Y114.63 E1.0
G1 X146.075 Y117.668 E1.0
G1 X143.604 Y120.331 E1.0
G1 X140.745 Y122.613 E1.0
G1 X137.565 Y124.448 E1.0
G1 X134.168 Y125.784 E1.0
G1 X130.615 Y126.593 E1.0
G1 X126.956 Y126.867 E1.0
G1 X123.297 Y126.593 E1.0
G1 X119.745 Y125.783 E1.0
G1 X116.345 Y124.447 E1.0
G1 X113.175 Y122.617 E1.0
G1 X110.298 Y120.323 E1.0
G1 X107.836 Y117.668 E1.0
G1 X105.764 Y114.63 E1.0
G1 X104.177 Y111.339 E1.0
G1 X103.099 Y107.842 E1.0
