;Generated: 2018-03-14 12:40
;Modifyied by Hyrel Code Converter Scripts
;C3DM Start Code
G21	;To Millimeters
G90	;Absolute coordinates
M203 X2000 Y2000 Z200	;G0 Speed
M104 S0 T12	;Extruder Temp
M140 S0	;Bed Temp
M106 S0 T12	;Fan Speed
M721 S1000 E0 P0 T12	;Un-Prime, Speed, Pulse, Pause, Tool
M722 S1000 E0 P0 T12	;Prime, Speed, Pulse, Pause, Tool

M756 S0.8	;Height for FLOW calculations
M221 P0.16 S1.0 W1.2 Z0.8 T12	;P(10) per nL, S multiplier, W width, Z height, T head


;Park From
G0 Z5	
G0 X240 Y10	
G0 X10 Y10	

;2018-03-14 12:40
;G1 Strip Version 1.0
;Layer count: 38
;Layer: 1 @ Z0.8
G0 X85.941 Y71.97 Z0.8; Initial Move Into Print
;TYPE:SKIRT
;Curve: 1-1 @ Z0.8
G1 X88.44 Y68.797 E1.0 F1000.0
G1 X88.98 Y68.164 E1.0
G1 X90.685 Y66.318 E1.0
G1 X91.415 Y65.601 E1.0
G1 X94.442 Y62.9 E1.0
G1 X95.082 Y62.372 E1.0
G1 X97.054 Y60.872 E1.0
G1 X97.893 Y60.295 E1.0
G1 X101.338 Y58.163 E1.0
G1 X102.219 Y57.674 E1.0
G1 X105.185 Y56.208 E1.0
G1 X105.866 Y55.901 E1.0
G1 X108.135 Y54.972 E1.0
G1 X109.103 Y54.63 E1.0
G1 X113.02 Y53.454 E1.0
G1 X113.984 Y53.213 E1.0
G1 X117.146 Y52.579 E1.0
G1 X117.889 Y52.457 E1.0
G1 X120.351 Y52.143 E1.0
G1 X121.366 Y52.063 E1.0
G1 X125.434 Y51.938 E1.0
G1 X126.268 Y51.945 E1.0
G1 X128.75 Y52.064 E1.0
G1 X129.765 Y52.162 E1.0
G1 X133.781 Y52.745 E1.0
G1 X134.596 Y52.896 E1.0
G1 X137.002 Y53.44 E1.0
G1 X137.988 Y53.714 E1.0
G1 X141.882 Y55 E1.0
G1 X142.654 Y55.288 E1.0
G1 X144.905 Y56.231 E1.0
G1 X145.824 Y56.67 E1.0
G1 X149.399 Y58.59 E1.0
G1 X150.111 Y59.008 E1.0
G1 X152.198 Y60.348 E1.0
G1 X153.03 Y60.941 E1.0
G1 X156.203 Y63.44 E1.0
G1 X156.836 Y63.98 E1.0
G1 X158.682 Y65.685 E1.0
G1 X159.399 Y66.415 E1.0
G1 X162.1 Y69.442 E1.0
G1 X162.628 Y70.082 E1.0
G1 X164.128 Y72.054 E1.0
G1 X164.705 Y72.893 E1.0
G1 X166.837 Y76.338 E1.0
G1 X167.326 Y77.219 E1.0
G1 X168.792 Y80.185 E1.0
G1 X169.099 Y80.866 E1.0
G1 X170.028 Y83.135 E1.0
G1 X170.37 Y84.103 E1.0
G1 X171.546 Y88.02 E1.0
G1 X171.787 Y88.984 E1.0
G1 X172.421 Y92.146 E1.0
G1 X172.543 Y92.888 E1.0
G1 X172.857 Y95.348 E1.0
G1 X172.937 Y96.365 E1.0
G1 X173.062 Y100.435 E1.0
G1 X173.055 Y101.268 E1.0
G1 X172.936 Y103.75 E1.0
G1 X172.838 Y104.765 E1.0
G1 X172.255 Y108.781 E1.0
G1 X172.104 Y109.596 E1.0
G1 X171.56 Y112.002 E1.0
G1 X171.286 Y112.988 E1.0
G1 X170 Y116.882 E1.0
G1 X169.712 Y117.654 E1.0
G1 X168.769 Y119.905 E1.0
G1 X168.33 Y120.824 E1.0
G1 X166.41 Y124.399 E1.0
G1 X165.992 Y125.111 E1.0
G1 X164.652 Y127.198 E1.0
G1 X164.149 Y127.914 E1.0
G1 X162.155 Y130.519 E1.0
G1 X161.556 Y131.234 E1.0
G1 X159.346 Y133.648 E1.0
G1 X158.585 Y134.399 E1.0
G1 X155.558 Y137.1 E1.0
G1 X154.918 Y137.628 E1.0
G1 X152.946 Y139.128 E1.0
G1 X152.107 Y139.705 E1.0
G1 X148.662 Y141.837 E1.0
G1 X147.781 Y142.326 E1.0
G1 X144.815 Y143.792 E1.0
G1 X144.134 Y144.099 E1.0
G1 X141.865 Y145.028 E1.0
G1 X140.897 Y145.37 E1.0
G1 X136.98 Y146.546 E1.0
G1 X136.016 Y146.787 E1.0
G1 X132.854 Y147.421 E1.0
G1 X132.111 Y147.543 E1.0
G1 X129.649 Y147.857 E1.0
G1 X128.634 Y147.937 E1.0
G1 X124.566 Y148.062 E1.0
G1 X123.732 Y148.055 E1.0
G1 X121.25 Y147.936 E1.0
G1 X120.235 Y147.838 E1.0
G1 X116.219 Y147.255 E1.0
G1 X115.404 Y147.104 E1.0
G1 X112.998 Y146.56 E1.0
G1 X112.012 Y146.286 E1.0
G1 X108.118 Y145 E1.0
G1 X107.346 Y144.712 E1.0
G1 X105.093 Y143.768 E1.0
G1 X104.174 Y143.329 E1.0
G1 X100.601 Y141.41 E1.0
G1 X99.889 Y140.992 E1.0
G1 X97.802 Y139.652 E1.0
G1 X96.97 Y139.059 E1.0
G1 X93.797 Y136.56 E1.0
G1 X93.164 Y136.02 E1.0
G1 X91.318 Y134.315 E1.0
G1 X90.601 Y133.585 E1.0
G1 X87.9 Y130.558 E1.0
G1 X87.373 Y129.919 E1.0
G1 X85.872 Y127.946 E1.0
G1 X85.294 Y127.105 E1.0
G1 X83.163 Y123.661 E1.0
G1 X82.674 Y122.781 E1.0
G1 X81.208 Y119.815 E1.0
G1 X80.902 Y119.135 E1.0
G1 X79.972 Y116.864 E1.0
G1 X79.628 Y115.894 E1.0
G1 X78.453 Y111.979 E1.0
G1 X78.213 Y111.016 E1.0
G1 X77.579 Y107.854 E1.0
G1 X77.457 Y107.111 E1.0
G1 X77.143 Y104.649 E1.0
G1 X77.063 Y103.634 E1.0
G1 X76.938 Y99.566 E1.0
G1 X76.945 Y98.732 E1.0
G1 X77.064 Y96.25 E1.0
G1 X77.162 Y95.235 E1.0
G1 X77.745 Y91.219 E1.0
G1 X77.896 Y90.404 E1.0
G1 X78.44 Y87.998 E1.0
G1 X78.714 Y87.012 E1.0
G1 X80 Y83.118 E1.0
G1 X80.288 Y82.346 E1.0
G1 X81.231 Y80.095 E1.0
G1 X81.67 Y79.176 E1.0
G1 X83.59 Y75.601 E1.0
G1 X84.008 Y74.889 E1.0
G1 X85.348 Y72.802 E1.0
G1 X85.941 Y71.97 E1.0
;Curve end: 1-1 @ Z0.8

G0 X94.773 Y78.836 ;Move To

;TYPE:WALL-OUTER
;Curve: 1-2 @ Z0.8
G1 X96.735 Y76.278 E1.0 F1000.0
G1 X98.907 Y73.907 E1.0
G1 X101.278 Y71.735 E1.0
G1 X103.836 Y69.773 E1.0
G1 X106.55 Y68.044 E1.0
G1 X109.409 Y66.555 E1.0
G1 X112.377 Y65.327 E1.0
G1 X115.443 Y64.36 E1.0
G1 X118.594 Y63.661 E1.0
G1 X121.79 Y63.241 E1.0
G1 X125 Y63.1 E1.0
G1 X128.21 Y63.241 E1.0
G1 X131.406 Y63.661 E1.0
G1 X134.557 Y64.36 E1.0
G1 X137.623 Y65.327 E1.0
G1 X140.591 Y66.555 E1.0
G1 X143.45 Y68.044 E1.0
G1 X146.164 Y69.773 E1.0
G1 X148.722 Y71.735 E1.0
G1 X151.093 Y73.907 E1.0
G1 X153.265 Y76.278 E1.0
G1 X155.227 Y78.836 E1.0
G1 X156.956 Y81.55 E1.0
G1 X158.445 Y84.409 E1.0
G1 X159.673 Y87.377 E1.0
G1 X160.64 Y90.443 E1.0
G1 X161.339 Y93.594 E1.0
G1 X161.759 Y96.79 E1.0
G1 X161.9 Y100 E1.0
G1 X161.759 Y103.21 E1.0
G1 X161.339 Y106.406 E1.0
G1 X160.64 Y109.557 E1.0
G1 X159.673 Y112.623 E1.0
G1 X158.445 Y115.591 E1.0
G1 X156.956 Y118.45 E1.0
G1 X155.227 Y121.164 E1.0
G1 X153.265 Y123.722 E1.0
G1 X151.093 Y126.093 E1.0
G1 X148.722 Y128.265 E1.0
G1 X146.164 Y130.227 E1.0
G1 X143.45 Y131.956 E1.0
G1 X140.591 Y133.445 E1.0
G1 X137.623 Y134.673 E1.0
G1 X134.557 Y135.64 E1.0
G1 X131.406 Y136.339 E1.0
G1 X128.21 Y136.759 E1.0
G1 X125 Y136.9 E1.0
G1 X121.79 Y136.759 E1.0
G1 X118.594 Y136.339 E1.0
G1 X115.443 Y135.64 E1.0
G1 X112.377 Y134.673 E1.0
G1 X109.409 Y133.445 E1.0
G1 X106.55 Y131.956 E1.0
G1 X103.836 Y130.227 E1.0
G1 X101.278 Y128.265 E1.0
G1 X98.907 Y126.093 E1.0
G1 X96.735 Y123.722 E1.0
G1 X94.773 Y121.164 E1.0
G1 X93.044 Y118.45 E1.0
G1 X91.555 Y115.591 E1.0
G1 X90.327 Y112.623 E1.0
G1 X89.36 Y109.557 E1.0
G1 X88.661 Y106.406 E1.0
G1 X88.241 Y103.21 E1.0
G1 X88.1 Y100 E1.0
G1 X88.241 Y96.79 E1.0
G1 X88.661 Y93.594 E1.0
G1 X89.36 Y90.443 E1.0
G1 X90.327 Y87.377 E1.0
G1 X91.555 Y84.409 E1.0
G1 X93.044 Y81.55 E1.0
G1 X94.773 Y78.836 E1.0
;Curves end: 1-2 @ Z0.8

G0 X95.76 Y79.521 ;Move To

;Curve: 1-3 @ Z0.8
;TYPE:WALL-INNER
G1 X97.65 Y77.056 E1.0 F1000.0
G1 X99.757 Y74.757 E1.0
G1 X102.056 Y72.65 E1.0
G1 X104.521 Y70.76 E1.0
G1 X107.155 Y69.081 E1.0
G1 X109.91 Y67.647 E1.0
G1 X112.794 Y66.453 E1.0
G1 X115.744 Y65.523 E1.0
G1 X118.806 Y64.844 E1.0
G1 X121.895 Y64.438 E1.0
G1 X125 Y64.301 E1.0
G1 X128.105 Y64.438 E1.0
G1 X131.194 Y64.844 E1.0
G1 X134.256 Y65.523 E1.0
G1 X137.206 Y66.453 E1.0
G1 X140.09 Y67.647 E1.0
G1 X142.845 Y69.081 E1.0
G1 X145.479 Y70.76 E1.0
G1 X147.944 Y72.65 E1.0
G1 X150.243 Y74.757 E1.0
G1 X152.35 Y77.056 E1.0
G1 X154.24 Y79.521 E1.0
G1 X155.919 Y82.155 E1.0
G1 X157.353 Y84.91 E1.0
G1 X158.547 Y87.794 E1.0
G1 X159.477 Y90.744 E1.0
G1 X160.156 Y93.806 E1.0
G1 X160.562 Y96.895 E1.0
G1 X160.699 Y100 E1.0
G1 X160.562 Y103.105 E1.0
G1 X160.156 Y106.194 E1.0
G1 X159.477 Y109.256 E1.0
G1 X158.547 Y112.206 E1.0
G1 X157.353 Y115.09 E1.0
G1 X155.919 Y117.845 E1.0
G1 X154.24 Y120.479 E1.0
G1 X152.35 Y122.944 E1.0
G1 X150.243 Y125.243 E1.0
G1 X147.944 Y127.35 E1.0
G1 X145.479 Y129.24 E1.0
G1 X142.845 Y130.919 E1.0
G1 X140.09 Y132.353 E1.0
G1 X137.206 Y133.547 E1.0
G1 X134.256 Y134.477 E1.0
G1 X131.194 Y135.156 E1.0
G1 X128.105 Y135.562 E1.0
G1 X125 Y135.699 E1.0
G1 X121.895 Y135.562 E1.0
G1 X118.806 Y135.156 E1.0
G1 X115.744 Y134.477 E1.0
G1 X112.794 Y133.547 E1.0
G1 X109.91 Y132.353 E1.0
G1 X107.155 Y130.919 E1.0
G1 X104.521 Y129.24 E1.0
G1 X102.056 Y127.35 E1.0
G1 X99.757 Y125.243 E1.0
G1 X97.65 Y122.944 E1.0
G1 X95.76 Y120.479 E1.0
G1 X94.081 Y117.845 E1.0
G1 X92.647 Y115.09 E1.0
G1 X91.453 Y112.206 E1.0
G1 X90.523 Y109.256 E1.0
G1 X89.844 Y106.194 E1.0
G1 X89.438 Y103.105 E1.0
G1 X89.301 Y100 E1.0
G1 X89.438 Y96.895 E1.0
G1 X89.844 Y93.806 E1.0
G1 X90.523 Y90.744 E1.0
G1 X91.453 Y87.794 E1.0
G1 X92.647 Y84.91 E1.0
G1 X94.081 Y82.155 E1.0
G1 X95.76 Y79.521 E1.0
;Curves end: 1-3 @ Z0.8

G0 X96.747 Y80.206 ;Move To

;Curve: 1-4 @ Z0.8
G1 X98.565 Y77.834 E1.0 F1000.0
G1 X100.607 Y75.607 E1.0
G1 X102.834 Y73.565 E1.0
G1 X105.206 Y71.747 E1.0
G1 X107.76 Y70.118 E1.0
G1 X110.411 Y68.739 E1.0
G1 X113.211 Y67.579 E1.0
G1 X116.045 Y66.686 E1.0
G1 X119.018 Y66.027 E1.0
G1 X122 Y65.635 E1.0
G1 X125 Y65.502 E1.0
G1 X128 Y65.635 E1.0
G1 X130.982 Y66.027 E1.0
G1 X133.955 Y66.686 E1.0
G1 X136.789 Y67.579 E1.0
G1 X139.589 Y68.739 E1.0
G1 X142.24 Y70.118 E1.0
G1 X144.794 Y71.747 E1.0
G1 X147.166 Y73.565 E1.0
G1 X149.393 Y75.607 E1.0
G1 X151.435 Y77.834 E1.0
G1 X153.253 Y80.206 E1.0
G1 X154.882 Y82.76 E1.0
G1 X156.261 Y85.411 E1.0
G1 X157.421 Y88.211 E1.0
G1 X158.314 Y91.045 E1.0
G1 X158.973 Y94.018 E1.0
G1 X159.365 Y97 E1.0
G1 X159.498 Y100 E1.0
G1 X159.365 Y103 E1.0
G1 X158.973 Y105.982 E1.0
G1 X158.314 Y108.955 E1.0
G1 X157.421 Y111.789 E1.0
G1 X156.261 Y114.589 E1.0
G1 X154.882 Y117.24 E1.0
G1 X153.253 Y119.794 E1.0
G1 X151.435 Y122.166 E1.0
G1 X149.393 Y124.393 E1.0
G1 X147.166 Y126.435 E1.0
G1 X144.794 Y128.253 E1.0
G1 X142.24 Y129.882 E1.0
G1 X139.589 Y131.261 E1.0
G1 X136.789 Y132.421 E1.0
G1 X133.955 Y133.314 E1.0
G1 X130.982 Y133.973 E1.0
G1 X128 Y134.365 E1.0
G1 X125 Y134.498 E1.0
G1 X122 Y134.365 E1.0
G1 X119.018 Y133.973 E1.0
G1 X116.045 Y133.314 E1.0
G1 X113.211 Y132.421 E1.0
G1 X110.411 Y131.261 E1.0
G1 X107.76 Y129.882 E1.0
G1 X105.206 Y128.253 E1.0
G1 X102.834 Y126.435 E1.0
G1 X100.607 Y124.393 E1.0
G1 X98.565 Y122.166 E1.0
G1 X96.747 Y119.794 E1.0
G1 X95.118 Y117.24 E1.0
G1 X93.739 Y114.589 E1.0
G1 X92.579 Y111.789 E1.0
G1 X91.686 Y108.955 E1.0
G1 X91.027 Y105.982 E1.0
G1 X90.635 Y103 E1.0
G1 X90.502 Y100 E1.0
G1 X90.635 Y97 E1.0
G1 X91.027 Y94.018 E1.0
G1 X91.686 Y91.045 E1.0
G1 X92.579 Y88.211 E1.0
G1 X93.739 Y85.411 E1.0
G1 X95.118 Y82.76 E1.0
G1 X96.747 Y80.206 E1.0
;Curves end: 1-4 @ Z0.8

G0 X97.733 Y80.891 ;Move To

;Curve: 1-5 @ Z0.8
G1 X99.485 Y78.606 E1.0 F1000.0
G1 X101.456 Y76.456 E1.0
G1 X103.606 Y74.485 E1.0
G1 X105.891 Y72.733 E1.0
G1 X108.357 Y71.161 E1.0
G1 X110.921 Y69.827 E1.0
G1 X113.618 Y68.709 E1.0
G1 X116.357 Y67.847 E1.0
G1 X119.23 Y67.21 E1.0
G1 X122.105 Y66.832 E1.0
G1 X125 Y66.703 E1.0
G1 X127.895 Y66.832 E1.0
G1 X130.77 Y67.21 E1.0
G1 X133.643 Y67.847 E1.0
G1 X136.382 Y68.709 E1.0
G1 X139.079 Y69.827 E1.0
G1 X141.643 Y71.161 E1.0
G1 X144.109 Y72.733 E1.0
G1 X146.394 Y74.485 E1.0
G1 X148.544 Y76.456 E1.0
G1 X150.515 Y78.606 E1.0
G1 X152.267 Y80.891 E1.0
G1 X153.839 Y83.357 E1.0
G1 X155.173 Y85.921 E1.0
G1 X156.291 Y88.618 E1.0
G1 X157.153 Y91.357 E1.0
G1 X157.79 Y94.23 E1.0
G1 X158.168 Y97.105 E1.0
G1 X158.297 Y100 E1.0
G1 X158.168 Y102.895 E1.0
G1 X157.79 Y105.77 E1.0
G1 X157.153 Y108.643 E1.0
G1 X156.291 Y111.382 E1.0
G1 X155.173 Y114.079 E1.0
G1 X153.839 Y116.643 E1.0
G1 X152.267 Y119.109 E1.0
G1 X150.515 Y121.394 E1.0
G1 X148.544 Y123.544 E1.0
G1 X146.394 Y125.515 E1.0
G1 X144.109 Y127.267 E1.0
G1 X141.643 Y128.839 E1.0
G1 X139.079 Y130.173 E1.0
G1 X136.382 Y131.291 E1.0
G1 X133.643 Y132.153 E1.0
G1 X130.77 Y132.79 E1.0
G1 X127.895 Y133.168 E1.0
G1 X125 Y133.297 E1.0
G1 X122.105 Y133.168 E1.0
G1 X119.23 Y132.79 E1.0
G1 X116.357 Y132.153 E1.0
G1 X113.618 Y131.291 E1.0
G1 X110.921 Y130.173 E1.0
G1 X108.357 Y128.839 E1.0
G1 X105.891 Y127.267 E1.0
G1 X103.606 Y125.515 E1.0
G1 X101.456 Y123.544 E1.0
G1 X99.485 Y121.394 E1.0
G1 X97.733 Y119.109 E1.0
G1 X96.161 Y116.643 E1.0
G1 X94.827 Y114.079 E1.0
G1 X93.709 Y111.382 E1.0
G1 X92.847 Y108.643 E1.0
G1 X92.21 Y105.77 E1.0
G1 X91.832 Y102.895 E1.0
G1 X91.703 Y100 E1.0
G1 X91.832 Y97.105 E1.0
G1 X92.21 Y94.23 E1.0
G1 X92.847 Y91.357 E1.0
G1 X93.709 Y88.618 E1.0
G1 X94.827 Y85.921 E1.0
G1 X96.161 Y83.357 E1.0
G1 X97.733 Y80.891 E1.0
;Layer end: 1

G0 X96.735 Y76.278 Z1.6 ;Layer Change Transition Move

;Layer: 2 @ Z1.6
;TYPE:WALL-OUTER
;Curve: 2-1 @ Z1.6
G1 X98.907 Y73.907 E1.0 F1000.0
G1 X101.278 Y71.735 E1.0
G1 X103.836 Y69.773 E1.0
G1 X106.55 Y68.044 E1.0
G1 X109.409 Y66.555 E1.0
G1 X112.377 Y65.327 E1.0
G1 X115.443 Y64.36 E1.0
G1 X118.594 Y63.661 E1.0
G1 X121.79 Y63.241 E1.0
G1 X125 Y63.1 E1.0
G1 X128.21 Y63.241 E1.0
G1 X131.406 Y63.661 E1.0
G1 X134.557 Y64.36 E1.0
G1 X137.623 Y65.327 E1.0
G1 X140.591 Y66.555 E1.0
G1 X143.45 Y68.044 E1.0
G1 X146.164 Y69.773 E1.0
G1 X148.722 Y71.735 E1.0
G1 X151.093 Y73.907 E1.0
G1 X153.265 Y76.278 E1.0
G1 X155.227 Y78.836 E1.0
G1 X156.956 Y81.55 E1.0
G1 X158.445 Y84.409 E1.0
G1 X159.673 Y87.377 E1.0
G1 X160.64 Y90.443 E1.0
G1 X161.339 Y93.594 E1.0
G1 X161.759 Y96.79 E1.0
G1 X161.9 Y100 E1.0
G1 X161.759 Y103.21 E1.0
G1 X161.339 Y106.406 E1.0
G1 X160.64 Y109.557 E1.0
G1 X159.673 Y112.623 E1.0
G1 X158.445 Y115.591 E1.0
G1 X156.956 Y118.45 E1.0
G1 X155.227 Y121.164 E1.0
G1 X153.265 Y123.722 E1.0
G1 X151.093 Y126.093 E1.0
G1 X148.722 Y128.265 E1.0
G1 X146.164 Y130.227 E1.0
G1 X143.45 Y131.956 E1.0
G1 X140.591 Y133.445 E1.0
G1 X137.623 Y134.673 E1.0
G1 X134.557 Y135.64 E1.0
G1 X131.406 Y136.339 E1.0
G1 X128.21 Y136.759 E1.0
G1 X125 Y136.9 E1.0
G1 X121.79 Y136.759 E1.0
G1 X118.594 Y136.339 E1.0
G1 X115.443 Y135.64 E1.0
G1 X112.377 Y134.673 E1.0
G1 X109.409 Y133.445 E1.0
G1 X106.55 Y131.956 E1.0
G1 X103.836 Y130.227 E1.0
G1 X101.278 Y128.265 E1.0
G1 X98.907 Y126.093 E1.0
G1 X96.735 Y123.722 E1.0
G1 X94.773 Y121.164 E1.0
G1 X93.044 Y118.45 E1.0
G1 X91.555 Y115.591 E1.0
G1 X90.327 Y112.623 E1.0
G1 X89.36 Y109.557 E1.0
G1 X88.661 Y106.406 E1.0
G1 X88.241 Y103.21 E1.0
G1 X88.1 Y100 E1.0
G1 X88.241 Y96.79 E1.0
G1 X88.661 Y93.594 E1.0
G1 X89.36 Y90.443 E1.0
G1 X90.327 Y87.377 E1.0
G1 X91.555 Y84.409 E1.0
G1 X93.044 Y81.55 E1.0
G1 X94.773 Y78.836 E1.0
G1 X96.735 Y76.278 E1.0
;Curves end: 2-1 @ Z1.6

G0 X97.65 Y77.056 ;Move To

;Curve: 2-2 @ Z1.6
;TYPE:WALL-INNER
G1 X99.757 Y74.757 E1.0 F1000.0
G1 X102.056 Y72.65 E1.0
G1 X104.521 Y70.76 E1.0
G1 X107.155 Y69.081 E1.0
G1 X109.91 Y67.647 E1.0
G1 X112.794 Y66.453 E1.0
G1 X115.744 Y65.523 E1.0
G1 X118.806 Y64.844 E1.0
G1 X121.895 Y64.438 E1.0
G1 X125 Y64.301 E1.0
G1 X128.105 Y64.438 E1.0
G1 X131.194 Y64.844 E1.0
G1 X134.256 Y65.523 E1.0
G1 X137.206 Y66.453 E1.0
G1 X140.09 Y67.647 E1.0
G1 X142.845 Y69.081 E1.0
G1 X145.479 Y70.76 E1.0
G1 X147.944 Y72.65 E1.0
G1 X150.243 Y74.757 E1.0
G1 X152.35 Y77.056 E1.0
G1 X154.24 Y79.521 E1.0
G1 X155.919 Y82.155 E1.0
G1 X157.353 Y84.91 E1.0
G1 X158.547 Y87.794 E1.0
G1 X159.477 Y90.744 E1.0
G1 X160.156 Y93.806 E1.0
G1 X160.562 Y96.895 E1.0
G1 X160.699 Y100 E1.0
G1 X160.562 Y103.105 E1.0
G1 X160.156 Y106.194 E1.0
G1 X159.477 Y109.256 E1.0
G1 X158.547 Y112.206 E1.0
G1 X157.353 Y115.09 E1.0
G1 X155.919 Y117.845 E1.0
G1 X154.24 Y120.479 E1.0
G1 X152.35 Y122.944 E1.0
G1 X150.243 Y125.243 E1.0
G1 X147.944 Y127.35 E1.0
G1 X145.479 Y129.24 E1.0
G1 X142.845 Y130.919 E1.0
G1 X140.09 Y132.353 E1.0
G1 X137.206 Y133.547 E1.0
G1 X134.256 Y134.477 E1.0
G1 X131.194 Y135.156 E1.0
G1 X128.105 Y135.562 E1.0
G1 X125 Y135.699 E1.0
G1 X121.895 Y135.562 E1.0
G1 X118.806 Y135.156 E1.0
G1 X115.744 Y134.477 E1.0
G1 X112.794 Y133.547 E1.0
G1 X109.91 Y132.353 E1.0
G1 X107.155 Y130.919 E1.0
G1 X104.521 Y129.24 E1.0
G1 X102.056 Y127.35 E1.0
G1 X99.757 Y125.243 E1.0
G1 X97.65 Y122.944 E1.0
G1 X95.76 Y120.479 E1.0
G1 X94.081 Y117.845 E1.0
G1 X92.647 Y115.09 E1.0
G1 X91.453 Y112.206 E1.0
G1 X90.523 Y109.256 E1.0
G1 X89.844 Y106.194 E1.0
G1 X89.438 Y103.105 E1.0
G1 X89.301 Y100 E1.0
G1 X89.438 Y96.895 E1.0
G1 X89.844 Y93.806 E1.0
G1 X90.523 Y90.744 E1.0
G1 X91.453 Y87.794 E1.0
G1 X92.647 Y84.91 E1.0
G1 X94.081 Y82.155 E1.0
G1 X95.76 Y79.521 E1.0
G1 X97.65 Y77.056 E1.0
;Curves end: 2-2 @ Z1.6

G0 X98.565 Y77.834 ;Move To

;Curve: 2-3 @ Z1.6
G1 X100.607 Y75.607 E1.0 F1000.0
G1 X102.834 Y73.565 E1.0
G1 X105.206 Y71.747 E1.0
G1 X107.76 Y70.118 E1.0
G1 X110.411 Y68.739 E1.0
G1 X113.211 Y67.579 E1.0
G1 X116.045 Y66.686 E1.0
G1 X119.018 Y66.027 E1.0
G1 X122 Y65.635 E1.0
G1 X125 Y65.502 E1.0
G1 X128 Y65.635 E1.0
G1 X130.982 Y66.027 E1.0
G1 X133.955 Y66.686 E1.0
G1 X136.789 Y67.579 E1.0
G1 X139.589 Y68.739 E1.0
G1 X142.24 Y70.118 E1.0
G1 X144.794 Y71.747 E1.0
G1 X147.166 Y73.565 E1.0
G1 X149.393 Y75.607 E1.0
G1 X151.435 Y77.834 E1.0
G1 X153.253 Y80.206 E1.0
G1 X154.882 Y82.76 E1.0
G1 X156.261 Y85.411 E1.0
G1 X157.421 Y88.211 E1.0
G1 X158.314 Y91.045 E1.0
G1 X158.973 Y94.018 E1.0
G1 X159.365 Y97 E1.0
G1 X159.498 Y100 E1.0
G1 X159.365 Y103 E1.0
G1 X158.973 Y105.982 E1.0
G1 X158.314 Y108.955 E1.0
G1 X157.421 Y111.789 E1.0
G1 X156.261 Y114.589 E1.0
G1 X154.882 Y117.24 E1.0
G1 X153.253 Y119.794 E1.0
G1 X151.435 Y122.166 E1.0
G1 X149.393 Y124.393 E1.0
G1 X147.166 Y126.435 E1.0
G1 X144.794 Y128.253 E1.0
G1 X142.24 Y129.882 E1.0
G1 X139.589 Y131.261 E1.0
G1 X136.789 Y132.421 E1.0
G1 X133.955 Y133.314 E1.0
G1 X130.982 Y133.973 E1.0
G1 X128 Y134.365 E1.0
G1 X125 Y134.498 E1.0
G1 X122 Y134.365 E1.0
G1 X119.018 Y133.973 E1.0
G1 X116.045 Y133.314 E1.0
G1 X113.211 Y132.421 E1.0
G1 X110.411 Y131.261 E1.0
G1 X107.76 Y129.882 E1.0
G1 X105.206 Y128.253 E1.0
G1 X102.834 Y126.435 E1.0
G1 X100.607 Y124.393 E1.0
G1 X98.565 Y122.166 E1.0
G1 X96.747 Y119.794 E1.0
G1 X95.118 Y117.24 E1.0
G1 X93.739 Y114.589 E1.0
G1 X92.579 Y111.789 E1.0
G1 X91.686 Y108.955 E1.0
G1 X91.027 Y105.982 E1.0
G1 X90.635 Y103 E1.0
G1 X90.502 Y100 E1.0
G1 X90.635 Y97 E1.0
G1 X91.027 Y94.018 E1.0
G1 X91.686 Y91.045 E1.0
G1 X92.579 Y88.211 E1.0
G1 X93.739 Y85.411 E1.0
G1 X95.118 Y82.76 E1.0
G1 X96.747 Y80.206 E1.0
G1 X98.565 Y77.834 E1.0
;Curves end: 2-3 @ Z1.6

G0 X99.485 Y78.606 ;Move To

;Curve: 2-4 @ Z1.6
G1 X101.456 Y76.456 E1.0 F1000.0
G1 X103.606 Y74.485 E1.0
G1 X105.891 Y72.733 E1.0
G1 X108.357 Y71.161 E1.0
G1 X110.921 Y69.827 E1.0
G1 X113.618 Y68.709 E1.0
G1 X116.357 Y67.847 E1.0
G1 X119.23 Y67.21 E1.0
G1 X122.105 Y66.832 E1.0
G1 X125 Y66.703 E1.0
G1 X127.895 Y66.832 E1.0
G1 X130.77 Y67.21 E1.0
G1 X133.643 Y67.847 E1.0
G1 X136.382 Y68.709 E1.0
G1 X139.079 Y69.827 E1.0
G1 X141.643 Y71.161 E1.0
G1 X144.109 Y72.733 E1.0
G1 X146.394 Y74.485 E1.0
G1 X148.544 Y76.456 E1.0
G1 X150.515 Y78.606 E1.0
G1 X152.267 Y80.891 E1.0
G1 X153.839 Y83.357 E1.0
G1 X155.173 Y85.921 E1.0
G1 X156.291 Y88.618 E1.0
G1 X157.153 Y91.357 E1.0
G1 X157.79 Y94.23 E1.0
G1 X158.168 Y97.105 E1.0
G1 X158.297 Y100 E1.0
G1 X158.168 Y102.895 E1.0
G1 X157.79 Y105.77 E1.0
G1 X157.153 Y108.643 E1.0
G1 X156.291 Y111.382 E1.0
G1 X155.173 Y114.079 E1.0
G1 X153.839 Y116.643 E1.0
G1 X152.267 Y119.109 E1.0
G1 X150.515 Y121.394 E1.0
G1 X148.544 Y123.544 E1.0
G1 X146.394 Y125.515 E1.0
G1 X144.109 Y127.267 E1.0
G1 X141.643 Y128.839 E1.0
G1 X139.079 Y130.173 E1.0
G1 X136.382 Y131.291 E1.0
G1 X133.643 Y132.153 E1.0
G1 X130.77 Y132.79 E1.0
G1 X127.895 Y133.168 E1.0
G1 X125 Y133.297 E1.0
G1 X122.105 Y133.168 E1.0
G1 X119.23 Y132.79 E1.0
G1 X116.357 Y132.153 E1.0
G1 X113.618 Y131.291 E1.0
G1 X110.921 Y130.173 E1.0
G1 X108.357 Y128.839 E1.0
G1 X105.891 Y127.267 E1.0
G1 X103.606 Y125.515 E1.0
G1 X101.456 Y123.544 E1.0
G1 X99.485 Y121.394 E1.0
G1 X97.733 Y119.109 E1.0
G1 X96.161 Y116.643 E1.0
G1 X94.827 Y114.079 E1.0
G1 X93.709 Y111.382 E1.0
G1 X92.847 Y108.643 E1.0
G1 X92.21 Y105.77 E1.0
G1 X91.832 Y102.895 E1.0
G1 X91.703 Y100 E1.0
G1 X91.832 Y97.105 E1.0
G1 X92.21 Y94.23 E1.0
G1 X92.847 Y91.357 E1.0
G1 X93.709 Y88.618 E1.0
G1 X94.827 Y85.921 E1.0
G1 X96.161 Y83.357 E1.0
G1 X97.733 Y80.891 E1.0
G1 X99.485 Y78.606 E1.0
;Layer end: 2

G0 X96.735 Y76.278 Z2.4 ;Layer Change Transition Move

;Layer: 3 @ Z2.4
;TYPE:WALL-OUTER
;Curve: 3-1 @ Z2.4
G1 X98.907 Y73.907 E1.0 F1000.0
G1 X101.278 Y71.735 E1.0
G1 X103.836 Y69.773 E1.0
G1 X106.55 Y68.044 E1.0
G1 X109.409 Y66.555 E1.0
G1 X112.377 Y65.327 E1.0
G1 X115.443 Y64.36 E1.0
G1 X118.594 Y63.661 E1.0
G1 X121.79 Y63.241 E1.0
G1 X125 Y63.1 E1.0
G1 X128.21 Y63.241 E1.0
G1 X131.406 Y63.661 E1.0
G1 X134.557 Y64.36 E1.0
G1 X137.623 Y65.327 E1.0
G1 X140.591 Y66.555 E1.0
G1 X143.45 Y68.044 E1.0
G1 X146.164 Y69.773 E1.0
G1 X148.722 Y71.735 E1.0
G1 X151.093 Y73.907 E1.0
G1 X153.265 Y76.278 E1.0
G1 X155.227 Y78.836 E1.0
G1 X156.956 Y81.55 E1.0
G1 X158.445 Y84.409 E1.0
G1 X159.673 Y87.377 E1.0
G1 X160.64 Y90.443 E1.0
G1 X161.339 Y93.594 E1.0
G1 X161.759 Y96.79 E1.0
G1 X161.9 Y100 E1.0
G1 X161.759 Y103.21 E1.0
G1 X161.339 Y106.406 E1.0
G1 X160.64 Y109.557 E1.0
G1 X159.673 Y112.623 E1.0
G1 X158.445 Y115.591 E1.0
G1 X156.956 Y118.45 E1.0
G1 X155.227 Y121.164 E1.0
G1 X153.265 Y123.722 E1.0
G1 X151.093 Y126.093 E1.0
G1 X148.722 Y128.265 E1.0
G1 X146.164 Y130.227 E1.0
G1 X143.45 Y131.956 E1.0
G1 X140.591 Y133.445 E1.0
G1 X137.623 Y134.673 E1.0
G1 X134.557 Y135.64 E1.0
G1 X131.406 Y136.339 E1.0
G1 X128.21 Y136.759 E1.0
G1 X125 Y136.9 E1.0
G1 X121.79 Y136.759 E1.0
G1 X118.594 Y136.339 E1.0
G1 X115.443 Y135.64 E1.0
G1 X112.377 Y134.673 E1.0
G1 X109.409 Y133.445 E1.0
G1 X106.55 Y131.956 E1.0
G1 X103.836 Y130.227 E1.0
G1 X101.278 Y128.265 E1.0
G1 X98.907 Y126.093 E1.0
G1 X96.735 Y123.722 E1.0
G1 X94.773 Y121.164 E1.0
G1 X93.044 Y118.45 E1.0
G1 X91.555 Y115.591 E1.0
G1 X90.327 Y112.623 E1.0
G1 X89.36 Y109.557 E1.0
G1 X88.661 Y106.406 E1.0
G1 X88.241 Y103.21 E1.0
G1 X88.1 Y100 E1.0
G1 X88.241 Y96.79 E1.0
G1 X88.661 Y93.594 E1.0
G1 X89.36 Y90.443 E1.0
G1 X90.327 Y87.377 E1.0
G1 X91.555 Y84.409 E1.0
G1 X93.044 Y81.55 E1.0
G1 X94.773 Y78.836 E1.0
G1 X96.735 Y76.278 E1.0
;Curves end: 3-1 @ Z2.4

G0 X97.65 Y77.056 ;Move To

;Curve: 3-2 @ Z2.4
;TYPE:WALL-INNER
G1 X99.757 Y74.757 E1.0 F1000.0
G1 X102.056 Y72.65 E1.0
G1 X104.521 Y70.76 E1.0
G1 X107.155 Y69.081 E1.0
G1 X109.91 Y67.647 E1.0
G1 X112.794 Y66.453 E1.0
G1 X115.744 Y65.523 E1.0
G1 X118.806 Y64.844 E1.0
G1 X121.895 Y64.438 E1.0
G1 X125 Y64.301 E1.0
G1 X128.105 Y64.438 E1.0
G1 X131.194 Y64.844 E1.0
G1 X134.256 Y65.523 E1.0
G1 X137.206 Y66.453 E1.0
G1 X140.09 Y67.647 E1.0
G1 X142.845 Y69.081 E1.0
G1 X145.479 Y70.76 E1.0
G1 X147.944 Y72.65 E1.0
G1 X150.243 Y74.757 E1.0
G1 X152.35 Y77.056 E1.0
G1 X154.24 Y79.521 E1.0
G1 X155.919 Y82.155 E1.0
G1 X157.353 Y84.91 E1.0
G1 X158.547 Y87.794 E1.0
G1 X159.477 Y90.744 E1.0
G1 X160.156 Y93.806 E1.0
G1 X160.562 Y96.895 E1.0
G1 X160.699 Y100 E1.0
G1 X160.562 Y103.105 E1.0
G1 X160.156 Y106.194 E1.0
G1 X159.477 Y109.256 E1.0
G1 X158.547 Y112.206 E1.0
G1 X157.353 Y115.09 E1.0
G1 X155.919 Y117.845 E1.0
G1 X154.24 Y120.479 E1.0
G1 X152.35 Y122.944 E1.0
G1 X150.243 Y125.243 E1.0
G1 X147.944 Y127.35 E1.0
G1 X145.479 Y129.24 E1.0
G1 X142.845 Y130.919 E1.0
G1 X140.09 Y132.353 E1.0
G1 X137.206 Y133.547 E1.0
G1 X134.256 Y134.477 E1.0
G1 X131.194 Y135.156 E1.0
G1 X128.105 Y135.562 E1.0
G1 X125 Y135.699 E1.0
G1 X121.895 Y135.562 E1.0
G1 X118.806 Y135.156 E1.0
G1 X115.744 Y134.477 E1.0
G1 X112.794 Y133.547 E1.0
G1 X109.91 Y132.353 E1.0
G1 X107.155 Y130.919 E1.0
G1 X104.521 Y129.24 E1.0
G1 X102.056 Y127.35 E1.0
G1 X99.757 Y125.243 E1.0
G1 X97.65 Y122.944 E1.0
G1 X95.76 Y120.479 E1.0
G1 X94.081 Y117.845 E1.0
G1 X92.647 Y115.09 E1.0
G1 X91.453 Y112.206 E1.0
G1 X90.523 Y109.256 E1.0
G1 X89.844 Y106.194 E1.0
G1 X89.438 Y103.105 E1.0
G1 X89.301 Y100 E1.0
G1 X89.438 Y96.895 E1.0
G1 X89.844 Y93.806 E1.0
G1 X90.523 Y90.744 E1.0
G1 X91.453 Y87.794 E1.0
G1 X92.647 Y84.91 E1.0
G1 X94.081 Y82.155 E1.0
G1 X95.76 Y79.521 E1.0
G1 X97.65 Y77.056 E1.0
;Curves end: 3-2 @ Z2.4

G0 X98.565 Y77.834 ;Move To

;Curve: 3-3 @ Z2.4
G1 X100.607 Y75.607 E1.0 F1000.0
G1 X102.834 Y73.565 E1.0
G1 X105.206 Y71.747 E1.0
G1 X107.76 Y70.118 E1.0
G1 X110.411 Y68.739 E1.0
G1 X113.211 Y67.579 E1.0
G1 X116.045 Y66.686 E1.0
G1 X119.018 Y66.027 E1.0
G1 X122 Y65.635 E1.0
G1 X125 Y65.502 E1.0
G1 X128 Y65.635 E1.0
G1 X130.982 Y66.027 E1.0
G1 X133.955 Y66.686 E1.0
G1 X136.789 Y67.579 E1.0
G1 X139.589 Y68.739 E1.0
G1 X142.24 Y70.118 E1.0
G1 X144.794 Y71.747 E1.0
G1 X147.166 Y73.565 E1.0
G1 X149.393 Y75.607 E1.0
G1 X151.435 Y77.834 E1.0
G1 X153.253 Y80.206 E1.0
G1 X154.882 Y82.76 E1.0
G1 X156.261 Y85.411 E1.0
G1 X157.421 Y88.211 E1.0
G1 X158.314 Y91.045 E1.0
G1 X158.973 Y94.018 E1.0
G1 X159.365 Y97 E1.0
G1 X159.498 Y100 E1.0
G1 X159.365 Y103 E1.0
G1 X158.973 Y105.982 E1.0
G1 X158.314 Y108.955 E1.0
G1 X157.421 Y111.789 E1.0
G1 X156.261 Y114.589 E1.0
G1 X154.882 Y117.24 E1.0
G1 X153.253 Y119.794 E1.0
G1 X151.435 Y122.166 E1.0
G1 X149.393 Y124.393 E1.0
G1 X147.166 Y126.435 E1.0
G1 X144.794 Y128.253 E1.0
G1 X142.24 Y129.882 E1.0
G1 X139.589 Y131.261 E1.0
G1 X136.789 Y132.421 E1.0
G1 X133.955 Y133.314 E1.0
G1 X130.982 Y133.973 E1.0
G1 X128 Y134.365 E1.0
G1 X125 Y134.498 E1.0
G1 X122 Y134.365 E1.0
G1 X119.018 Y133.973 E1.0
G1 X116.045 Y133.314 E1.0
G1 X113.211 Y132.421 E1.0
G1 X110.411 Y131.261 E1.0
G1 X107.76 Y129.882 E1.0
G1 X105.206 Y128.253 E1.0
G1 X102.834 Y126.435 E1.0
G1 X100.607 Y124.393 E1.0
G1 X98.565 Y122.166 E1.0
G1 X96.747 Y119.794 E1.0
G1 X95.118 Y117.24 E1.0
G1 X93.739 Y114.589 E1.0
G1 X92.579 Y111.789 E1.0
G1 X91.686 Y108.955 E1.0
G1 X91.027 Y105.982 E1.0
G1 X90.635 Y103 E1.0
G1 X90.502 Y100 E1.0
G1 X90.635 Y97 E1.0
G1 X91.027 Y94.018 E1.0
G1 X91.686 Y91.045 E1.0
G1 X92.579 Y88.211 E1.0
G1 X93.739 Y85.411 E1.0
G1 X95.118 Y82.76 E1.0
G1 X96.747 Y80.206 E1.0
G1 X98.565 Y77.834 E1.0
;Curves end: 3-3 @ Z2.4

G0 X99.485 Y78.606 ;Move To

;Curve: 3-4 @ Z2.4
G1 X101.456 Y76.456 E1.0 F1000.0
G1 X103.606 Y74.485 E1.0
G1 X105.891 Y72.733 E1.0
G1 X108.357 Y71.161 E1.0
G1 X110.921 Y69.827 E1.0
G1 X113.618 Y68.709 E1.0
G1 X116.357 Y67.847 E1.0
G1 X119.23 Y67.21 E1.0
G1 X122.105 Y66.832 E1.0
G1 X125 Y66.703 E1.0
G1 X127.895 Y66.832 E1.0
G1 X130.77 Y67.21 E1.0
G1 X133.643 Y67.847 E1.0
G1 X136.382 Y68.709 E1.0
G1 X139.079 Y69.827 E1.0
G1 X141.643 Y71.161 E1.0
G1 X144.109 Y72.733 E1.0
G1 X146.394 Y74.485 E1.0
G1 X148.544 Y76.456 E1.0
G1 X150.515 Y78.606 E1.0
G1 X152.267 Y80.891 E1.0
G1 X153.839 Y83.357 E1.0
G1 X155.173 Y85.921 E1.0
G1 X156.291 Y88.618 E1.0
G1 X157.153 Y91.357 E1.0
G1 X157.79 Y94.23 E1.0
G1 X158.168 Y97.105 E1.0
G1 X158.297 Y100 E1.0
G1 X158.168 Y102.895 E1.0
G1 X157.79 Y105.77 E1.0
G1 X157.153 Y108.643 E1.0
G1 X156.291 Y111.382 E1.0
G1 X155.173 Y114.079 E1.0
G1 X153.839 Y116.643 E1.0
G1 X152.267 Y119.109 E1.0
G1 X150.515 Y121.394 E1.0
G1 X148.544 Y123.544 E1.0
G1 X146.394 Y125.515 E1.0
G1 X144.109 Y127.267 E1.0
G1 X141.643 Y128.839 E1.0
G1 X139.079 Y130.173 E1.0
G1 X136.382 Y131.291 E1.0
G1 X133.643 Y132.153 E1.0
G1 X130.77 Y132.79 E1.0
G1 X127.895 Y133.168 E1.0
G1 X125 Y133.297 E1.0
G1 X122.105 Y133.168 E1.0
G1 X119.23 Y132.79 E1.0
G1 X116.357 Y132.153 E1.0
G1 X113.618 Y131.291 E1.0
G1 X110.921 Y130.173 E1.0
G1 X108.357 Y128.839 E1.0
G1 X105.891 Y127.267 E1.0
G1 X103.606 Y125.515 E1.0
G1 X101.456 Y123.544 E1.0
G1 X99.485 Y121.394 E1.0
G1 X97.733 Y119.109 E1.0
G1 X96.161 Y116.643 E1.0
G1 X94.827 Y114.079 E1.0
G1 X93.709 Y111.382 E1.0
G1 X92.847 Y108.643 E1.0
G1 X92.21 Y105.77 E1.0
G1 X91.832 Y102.895 E1.0
G1 X91.703 Y100 E1.0
G1 X91.832 Y97.105 E1.0
G1 X92.21 Y94.23 E1.0
G1 X92.847 Y91.357 E1.0
G1 X93.709 Y88.618 E1.0
G1 X94.827 Y85.921 E1.0
G1 X96.161 Y83.357 E1.0
G1 X97.733 Y80.891 E1.0
G1 X99.485 Y78.606 E1.0
;Layer end: 3

G0 X96.735 Y76.278 Z3.2 ;Layer Change Transition Move

;Layer: 4 @ Z3.2
;TYPE:WALL-OUTER
;Curve: 4-1 @ Z3.2
G1 X98.907 Y73.907 E1.0 F1000.0
G1 X101.278 Y71.735 E1.0
G1 X103.836 Y69.773 E1.0
G1 X106.55 Y68.044 E1.0
G1 X109.409 Y66.555 E1.0
G1 X112.377 Y65.327 E1.0
G1 X115.443 Y64.36 E1.0
G1 X118.594 Y63.661 E1.0
G1 X121.79 Y63.241 E1.0
G1 X125 Y63.1 E1.0
G1 X128.21 Y63.241 E1.0
G1 X131.406 Y63.661 E1.0
G1 X134.557 Y64.36 E1.0
G1 X137.623 Y65.327 E1.0
G1 X140.591 Y66.555 E1.0
G1 X143.45 Y68.044 E1.0
G1 X146.164 Y69.773 E1.0
G1 X148.722 Y71.735 E1.0
G1 X151.093 Y73.907 E1.0
G1 X153.265 Y76.278 E1.0
G1 X155.227 Y78.836 E1.0
G1 X156.956 Y81.55 E1.0
G1 X158.445 Y84.409 E1.0
G1 X159.673 Y87.377 E1.0
G1 X160.64 Y90.443 E1.0
G1 X161.339 Y93.594 E1.0
G1 X161.759 Y96.79 E1.0
G1 X161.9 Y100 E1.0
G1 X161.759 Y103.21 E1.0
G1 X161.339 Y106.406 E1.0
G1 X160.64 Y109.557 E1.0
G1 X159.673 Y112.623 E1.0
G1 X158.445 Y115.591 E1.0
G1 X156.956 Y118.45 E1.0
G1 X155.227 Y121.164 E1.0
G1 X153.265 Y123.722 E1.0
G1 X151.093 Y126.093 E1.0
G1 X148.722 Y128.265 E1.0
G1 X146.164 Y130.227 E1.0
G1 X143.45 Y131.956 E1.0
G1 X140.591 Y133.445 E1.0
G1 X137.623 Y134.673 E1.0
G1 X134.557 Y135.64 E1.0
G1 X131.406 Y136.339 E1.0
G1 X128.21 Y136.759 E1.0
G1 X125 Y136.9 E1.0
G1 X121.79 Y136.759 E1.0
G1 X118.594 Y136.339 E1.0
G1 X115.443 Y135.64 E1.0
G1 X112.377 Y134.673 E1.0
G1 X109.409 Y133.445 E1.0
G1 X106.55 Y131.956 E1.0
G1 X103.836 Y130.227 E1.0
G1 X101.278 Y128.265 E1.0
G1 X98.907 Y126.093 E1.0
G1 X96.735 Y123.722 E1.0
G1 X94.773 Y121.164 E1.0
G1 X93.044 Y118.45 E1.0
G1 X91.555 Y115.591 E1.0
G1 X90.327 Y112.623 E1.0
G1 X89.36 Y109.557 E1.0
G1 X88.661 Y106.406 E1.0
G1 X88.241 Y103.21 E1.0
G1 X88.1 Y100 E1.0
G1 X88.241 Y96.79 E1.0
G1 X88.661 Y93.594 E1.0
G1 X89.36 Y90.443 E1.0
G1 X90.327 Y87.377 E1.0
G1 X91.555 Y84.409 E1.0
G1 X93.044 Y81.55 E1.0
G1 X94.773 Y78.836 E1.0
G1 X96.735 Y76.278 E1.0
;Curves end: 4-1 @ Z3.2

G0 X97.65 Y77.056 ;Move To

;Curve: 4-2 @ Z3.2
;TYPE:WALL-INNER
G1 X99.757 Y74.757 E1.0 F1000.0
G1 X102.056 Y72.65 E1.0
G1 X104.521 Y70.76 E1.0
G1 X107.155 Y69.081 E1.0
G1 X109.91 Y67.647 E1.0
G1 X112.794 Y66.453 E1.0
G1 X115.744 Y65.523 E1.0
G1 X118.806 Y64.844 E1.0
G1 X121.895 Y64.438 E1.0
G1 X125 Y64.301 E1.0
G1 X128.105 Y64.438 E1.0
G1 X131.194 Y64.844 E1.0
G1 X134.256 Y65.523 E1.0
G1 X137.206 Y66.453 E1.0
G1 X140.09 Y67.647 E1.0
G1 X142.845 Y69.081 E1.0
G1 X145.479 Y70.76 E1.0
G1 X147.944 Y72.65 E1.0
G1 X150.243 Y74.757 E1.0
G1 X152.35 Y77.056 E1.0
G1 X154.24 Y79.521 E1.0
G1 X155.919 Y82.155 E1.0
G1 X157.353 Y84.91 E1.0
G1 X158.547 Y87.794 E1.0
G1 X159.477 Y90.744 E1.0
G1 X160.156 Y93.806 E1.0
G1 X160.562 Y96.895 E1.0
G1 X160.699 Y100 E1.0
G1 X160.562 Y103.105 E1.0
G1 X160.156 Y106.194 E1.0
G1 X159.477 Y109.256 E1.0
G1 X158.547 Y112.206 E1.0
G1 X157.353 Y115.09 E1.0
G1 X155.919 Y117.845 E1.0
G1 X154.24 Y120.479 E1.0
G1 X152.35 Y122.944 E1.0
G1 X150.243 Y125.243 E1.0
G1 X147.944 Y127.35 E1.0
G1 X145.479 Y129.24 E1.0
G1 X142.845 Y130.919 E1.0
G1 X140.09 Y132.353 E1.0
G1 X137.206 Y133.547 E1.0
G1 X134.256 Y134.477 E1.0
G1 X131.194 Y135.156 E1.0
G1 X128.105 Y135.562 E1.0
G1 X125 Y135.699 E1.0
G1 X121.895 Y135.562 E1.0
G1 X118.806 Y135.156 E1.0
G1 X115.744 Y134.477 E1.0
G1 X112.794 Y133.547 E1.0
G1 X109.91 Y132.353 E1.0
G1 X107.155 Y130.919 E1.0
G1 X104.521 Y129.24 E1.0
G1 X102.056 Y127.35 E1.0
G1 X99.757 Y125.243 E1.0
G1 X97.65 Y122.944 E1.0
G1 X95.76 Y120.479 E1.0
G1 X94.081 Y117.845 E1.0
G1 X92.647 Y115.09 E1.0
G1 X91.453 Y112.206 E1.0
G1 X90.523 Y109.256 E1.0
G1 X89.844 Y106.194 E1.0
G1 X89.438 Y103.105 E1.0
G1 X89.301 Y100 E1.0
G1 X89.438 Y96.895 E1.0
G1 X89.844 Y93.806 E1.0
G1 X90.523 Y90.744 E1.0
G1 X91.453 Y87.794 E1.0
G1 X92.647 Y84.91 E1.0
G1 X94.081 Y82.155 E1.0
G1 X95.76 Y79.521 E1.0
G1 X97.65 Y77.056 E1.0
;Curves end: 4-2 @ Z3.2

G0 X98.565 Y77.834 ;Move To

;Curve: 4-3 @ Z3.2
G1 X100.607 Y75.607 E1.0 F1000.0
G1 X102.834 Y73.565 E1.0
G1 X105.206 Y71.747 E1.0
G1 X107.76 Y70.118 E1.0
G1 X110.411 Y68.739 E1.0
G1 X113.211 Y67.579 E1.0
G1 X116.045 Y66.686 E1.0
G1 X119.018 Y66.027 E1.0
G1 X122 Y65.635 E1.0
G1 X125 Y65.502 E1.0
G1 X128 Y65.635 E1.0
G1 X130.982 Y66.027 E1.0
G1 X133.955 Y66.686 E1.0
G1 X136.789 Y67.579 E1.0
G1 X139.589 Y68.739 E1.0
G1 X142.24 Y70.118 E1.0
G1 X144.794 Y71.747 E1.0
G1 X147.166 Y73.565 E1.0
G1 X149.393 Y75.607 E1.0
G1 X151.435 Y77.834 E1.0
G1 X153.253 Y80.206 E1.0
G1 X154.882 Y82.76 E1.0
G1 X156.261 Y85.411 E1.0
G1 X157.421 Y88.211 E1.0
G1 X158.314 Y91.045 E1.0
G1 X158.973 Y94.018 E1.0
G1 X159.365 Y97 E1.0
G1 X159.498 Y100 E1.0
G1 X159.365 Y103 E1.0
G1 X158.973 Y105.982 E1.0
G1 X158.314 Y108.955 E1.0
G1 X157.421 Y111.789 E1.0
G1 X156.261 Y114.589 E1.0
G1 X154.882 Y117.24 E1.0
G1 X153.253 Y119.794 E1.0
G1 X151.435 Y122.166 E1.0
G1 X149.393 Y124.393 E1.0
G1 X147.166 Y126.435 E1.0
G1 X144.794 Y128.253 E1.0
G1 X142.24 Y129.882 E1.0
G1 X139.589 Y131.261 E1.0
G1 X136.789 Y132.421 E1.0
G1 X133.955 Y133.314 E1.0
G1 X130.982 Y133.973 E1.0
G1 X128 Y134.365 E1.0
G1 X125 Y134.498 E1.0
G1 X122 Y134.365 E1.0
G1 X119.018 Y133.973 E1.0
G1 X116.045 Y133.314 E1.0
G1 X113.211 Y132.421 E1.0
G1 X110.411 Y131.261 E1.0
G1 X107.76 Y129.882 E1.0
G1 X105.206 Y128.253 E1.0
G1 X102.834 Y126.435 E1.0
G1 X100.607 Y124.393 E1.0
G1 X98.565 Y122.166 E1.0
G1 X96.747 Y119.794 E1.0
G1 X95.118 Y117.24 E1.0
G1 X93.739 Y114.589 E1.0
G1 X92.579 Y111.789 E1.0
G1 X91.686 Y108.955 E1.0
G1 X91.027 Y105.982 E1.0
G1 X90.635 Y103 E1.0
G1 X90.502 Y100 E1.0
G1 X90.635 Y97 E1.0
G1 X91.027 Y94.018 E1.0
G1 X91.686 Y91.045 E1.0
G1 X92.579 Y88.211 E1.0
G1 X93.739 Y85.411 E1.0
G1 X95.118 Y82.76 E1.0
G1 X96.747 Y80.206 E1.0
G1 X98.565 Y77.834 E1.0
;Curves end: 4-3 @ Z3.2

G0 X99.485 Y78.606 ;Move To

;Curve: 4-4 @ Z3.2
G1 X101.456 Y76.456 E1.0 F1000.0
G1 X103.606 Y74.485 E1.0
G1 X105.891 Y72.733 E1.0
G1 X108.357 Y71.161 E1.0
G1 X110.921 Y69.827 E1.0
G1 X113.618 Y68.709 E1.0
G1 X116.357 Y67.847 E1.0
G1 X119.23 Y67.21 E1.0
G1 X122.105 Y66.832 E1.0
G1 X125 Y66.703 E1.0
G1 X127.895 Y66.832 E1.0
G1 X130.77 Y67.21 E1.0
G1 X133.643 Y67.847 E1.0
G1 X136.382 Y68.709 E1.0
G1 X139.079 Y69.827 E1.0
G1 X141.643 Y71.161 E1.0
G1 X144.109 Y72.733 E1.0
G1 X146.394 Y74.485 E1.0
G1 X148.544 Y76.456 E1.0
G1 X150.515 Y78.606 E1.0
G1 X152.267 Y80.891 E1.0
G1 X153.839 Y83.357 E1.0
G1 X155.173 Y85.921 E1.0
G1 X156.291 Y88.618 E1.0
G1 X157.153 Y91.357 E1.0
G1 X157.79 Y94.23 E1.0
G1 X158.168 Y97.105 E1.0
G1 X158.297 Y100 E1.0
G1 X158.168 Y102.895 E1.0
G1 X157.79 Y105.77 E1.0
G1 X157.153 Y108.643 E1.0
G1 X156.291 Y111.382 E1.0
G1 X155.173 Y114.079 E1.0
G1 X153.839 Y116.643 E1.0
G1 X152.267 Y119.109 E1.0
G1 X150.515 Y121.394 E1.0
G1 X148.544 Y123.544 E1.0
G1 X146.394 Y125.515 E1.0
G1 X144.109 Y127.267 E1.0
G1 X141.643 Y128.839 E1.0
G1 X139.079 Y130.173 E1.0
G1 X136.382 Y131.291 E1.0
G1 X133.643 Y132.153 E1.0
G1 X130.77 Y132.79 E1.0
G1 X127.895 Y133.168 E1.0
G1 X125 Y133.297 E1.0
G1 X122.105 Y133.168 E1.0
G1 X119.23 Y132.79 E1.0
G1 X116.357 Y132.153 E1.0
G1 X113.618 Y131.291 E1.0
G1 X110.921 Y130.173 E1.0
G1 X108.357 Y128.839 E1.0
G1 X105.891 Y127.267 E1.0
G1 X103.606 Y125.515 E1.0
G1 X101.456 Y123.544 E1.0
G1 X99.485 Y121.394 E1.0
G1 X97.733 Y119.109 E1.0
G1 X96.161 Y116.643 E1.0
G1 X94.827 Y114.079 E1.0
G1 X93.709 Y111.382 E1.0
G1 X92.847 Y108.643 E1.0
G1 X92.21 Y105.77 E1.0
G1 X91.832 Y102.895 E1.0
G1 X91.703 Y100 E1.0
G1 X91.832 Y97.105 E1.0
G1 X92.21 Y94.23 E1.0
G1 X92.847 Y91.357 E1.0
G1 X93.709 Y88.618 E1.0
G1 X94.827 Y85.921 E1.0
G1 X96.161 Y83.357 E1.0
G1 X97.733 Y80.891 E1.0
G1 X99.485 Y78.606 E1.0
;Layer end: 4

G0 X96.735 Y76.278 Z4.0 ;Layer Change Transition Move

;Layer: 5 @ Z4.0
;TYPE:WALL-OUTER
;Curve: 5-1 @ Z4.0
G1 X98.907 Y73.907 E1.0 F1000.0
G1 X101.278 Y71.735 E1.0
G1 X103.836 Y69.773 E1.0
G1 X106.55 Y68.044 E1.0
G1 X109.409 Y66.555 E1.0
G1 X112.377 Y65.327 E1.0
G1 X115.443 Y64.36 E1.0
G1 X118.594 Y63.661 E1.0
G1 X121.79 Y63.241 E1.0
G1 X125 Y63.1 E1.0
G1 X128.21 Y63.241 E1.0
G1 X131.406 Y63.661 E1.0
G1 X134.557 Y64.36 E1.0
G1 X137.623 Y65.327 E1.0
G1 X140.591 Y66.555 E1.0
G1 X143.45 Y68.044 E1.0
G1 X146.164 Y69.773 E1.0
G1 X148.722 Y71.735 E1.0
G1 X151.093 Y73.907 E1.0
G1 X153.265 Y76.278 E1.0
G1 X155.227 Y78.836 E1.0
G1 X156.956 Y81.55 E1.0
G1 X158.445 Y84.409 E1.0
G1 X159.673 Y87.377 E1.0
G1 X160.64 Y90.443 E1.0
G1 X161.339 Y93.594 E1.0
G1 X161.759 Y96.79 E1.0
G1 X161.9 Y100 E1.0
G1 X161.759 Y103.21 E1.0
G1 X161.339 Y106.406 E1.0
G1 X160.64 Y109.557 E1.0
G1 X159.673 Y112.623 E1.0
G1 X158.445 Y115.591 E1.0
G1 X156.956 Y118.45 E1.0
G1 X155.227 Y121.164 E1.0
G1 X153.265 Y123.722 E1.0
G1 X151.093 Y126.093 E1.0
G1 X148.722 Y128.265 E1.0
G1 X146.164 Y130.227 E1.0
G1 X143.45 Y131.956 E1.0
G1 X140.591 Y133.445 E1.0
G1 X137.623 Y134.673 E1.0
G1 X134.557 Y135.64 E1.0
G1 X131.406 Y136.339 E1.0
G1 X128.21 Y136.759 E1.0
G1 X125 Y136.9 E1.0
G1 X121.79 Y136.759 E1.0
G1 X118.594 Y136.339 E1.0
G1 X115.443 Y135.64 E1.0
G1 X112.377 Y134.673 E1.0
G1 X109.409 Y133.445 E1.0
G1 X106.55 Y131.956 E1.0
G1 X103.836 Y130.227 E1.0
G1 X101.278 Y128.265 E1.0
G1 X98.907 Y126.093 E1.0
G1 X96.735 Y123.722 E1.0
G1 X94.773 Y121.164 E1.0
G1 X93.044 Y118.45 E1.0
G1 X91.555 Y115.591 E1.0
G1 X90.327 Y112.623 E1.0
G1 X89.36 Y109.557 E1.0
G1 X88.661 Y106.406 E1.0
G1 X88.241 Y103.21 E1.0
G1 X88.1 Y100 E1.0
G1 X88.241 Y96.79 E1.0
G1 X88.661 Y93.594 E1.0
G1 X89.36 Y90.443 E1.0
G1 X90.327 Y87.377 E1.0
G1 X91.555 Y84.409 E1.0
G1 X93.044 Y81.55 E1.0
G1 X94.773 Y78.836 E1.0
G1 X96.735 Y76.278 E1.0
;Curves end: 5-1 @ Z4.0

G0 X97.65 Y77.056 ;Move To

;Curve: 5-2 @ Z4.0
;TYPE:WALL-INNER
G1 X99.757 Y74.757 E1.0 F1000.0
G1 X102.056 Y72.65 E1.0
G1 X104.521 Y70.76 E1.0
G1 X107.155 Y69.081 E1.0
G1 X109.91 Y67.647 E1.0
G1 X112.794 Y66.453 E1.0
G1 X115.744 Y65.523 E1.0
G1 X118.806 Y64.844 E1.0
G1 X121.895 Y64.438 E1.0
G1 X125 Y64.301 E1.0
G1 X128.105 Y64.438 E1.0
G1 X131.194 Y64.844 E1.0
G1 X134.256 Y65.523 E1.0
G1 X137.206 Y66.453 E1.0
G1 X140.09 Y67.647 E1.0
G1 X142.845 Y69.081 E1.0
G1 X145.479 Y70.76 E1.0
G1 X147.944 Y72.65 E1.0
G1 X150.243 Y74.757 E1.0
G1 X152.35 Y77.056 E1.0
G1 X154.24 Y79.521 E1.0
G1 X155.919 Y82.155 E1.0
G1 X157.353 Y84.91 E1.0
G1 X158.547 Y87.794 E1.0
G1 X159.477 Y90.744 E1.0
G1 X160.156 Y93.806 E1.0
G1 X160.562 Y96.895 E1.0
G1 X160.699 Y100 E1.0
G1 X160.562 Y103.105 E1.0
G1 X160.156 Y106.194 E1.0
G1 X159.477 Y109.256 E1.0
G1 X158.547 Y112.206 E1.0
G1 X157.353 Y115.09 E1.0
G1 X155.919 Y117.845 E1.0
G1 X154.24 Y120.479 E1.0
G1 X152.35 Y122.944 E1.0
G1 X150.243 Y125.243 E1.0
G1 X147.944 Y127.35 E1.0
G1 X145.479 Y129.24 E1.0
G1 X142.845 Y130.919 E1.0
G1 X140.09 Y132.353 E1.0
G1 X137.206 Y133.547 E1.0
G1 X134.256 Y134.477 E1.0
G1 X131.194 Y135.156 E1.0
G1 X128.105 Y135.562 E1.0
G1 X125 Y135.699 E1.0
G1 X121.895 Y135.562 E1.0
G1 X118.806 Y135.156 E1.0
G1 X115.744 Y134.477 E1.0
G1 X112.794 Y133.547 E1.0
G1 X109.91 Y132.353 E1.0
G1 X107.155 Y130.919 E1.0
G1 X104.521 Y129.24 E1.0
G1 X102.056 Y127.35 E1.0
G1 X99.757 Y125.243 E1.0
G1 X97.65 Y122.944 E1.0
G1 X95.76 Y120.479 E1.0
G1 X94.081 Y117.845 E1.0
G1 X92.647 Y115.09 E1.0
G1 X91.453 Y112.206 E1.0
G1 X90.523 Y109.256 E1.0
G1 X89.844 Y106.194 E1.0
G1 X89.438 Y103.105 E1.0
G1 X89.301 Y100 E1.0
G1 X89.438 Y96.895 E1.0
G1 X89.844 Y93.806 E1.0
G1 X90.523 Y90.744 E1.0
G1 X91.453 Y87.794 E1.0
G1 X92.647 Y84.91 E1.0
G1 X94.081 Y82.155 E1.0
G1 X95.76 Y79.521 E1.0
G1 X97.65 Y77.056 E1.0
;Curves end: 5-2 @ Z4.0

G0 X98.565 Y77.834 ;Move To

;Curve: 5-3 @ Z4.0
G1 X100.607 Y75.607 E1.0 F1000.0
G1 X102.834 Y73.565 E1.0
G1 X105.206 Y71.747 E1.0
G1 X107.76 Y70.118 E1.0
G1 X110.411 Y68.739 E1.0
G1 X113.211 Y67.579 E1.0
G1 X116.045 Y66.686 E1.0
G1 X119.018 Y66.027 E1.0
G1 X122 Y65.635 E1.0
G1 X125 Y65.502 E1.0
G1 X128 Y65.635 E1.0
G1 X130.982 Y66.027 E1.0
G1 X133.955 Y66.686 E1.0
G1 X136.789 Y67.579 E1.0
G1 X139.589 Y68.739 E1.0
G1 X142.24 Y70.118 E1.0
G1 X144.794 Y71.747 E1.0
G1 X147.166 Y73.565 E1.0
G1 X149.393 Y75.607 E1.0
G1 X151.435 Y77.834 E1.0
G1 X153.253 Y80.206 E1.0
G1 X154.882 Y82.76 E1.0
G1 X156.261 Y85.411 E1.0
G1 X157.421 Y88.211 E1.0
G1 X158.314 Y91.045 E1.0
G1 X158.973 Y94.018 E1.0
G1 X159.365 Y97 E1.0
G1 X159.498 Y100 E1.0
G1 X159.365 Y103 E1.0
G1 X158.973 Y105.982 E1.0
G1 X158.314 Y108.955 E1.0
G1 X157.421 Y111.789 E1.0
G1 X156.261 Y114.589 E1.0
G1 X154.882 Y117.24 E1.0
G1 X153.253 Y119.794 E1.0
G1 X151.435 Y122.166 E1.0
G1 X149.393 Y124.393 E1.0
G1 X147.166 Y126.435 E1.0
G1 X144.794 Y128.253 E1.0
G1 X142.24 Y129.882 E1.0
G1 X139.589 Y131.261 E1.0
G1 X136.789 Y132.421 E1.0
G1 X133.955 Y133.314 E1.0
G1 X130.982 Y133.973 E1.0
G1 X128 Y134.365 E1.0
G1 X125 Y134.498 E1.0
G1 X122 Y134.365 E1.0
G1 X119.018 Y133.973 E1.0
G1 X116.045 Y133.314 E1.0
G1 X113.211 Y132.421 E1.0
G1 X110.411 Y131.261 E1.0
G1 X107.76 Y129.882 E1.0
G1 X105.206 Y128.253 E1.0
G1 X102.834 Y126.435 E1.0
G1 X100.607 Y124.393 E1.0
G1 X98.565 Y122.166 E1.0
G1 X96.747 Y119.794 E1.0
G1 X95.118 Y117.24 E1.0
G1 X93.739 Y114.589 E1.0
G1 X92.579 Y111.789 E1.0
G1 X91.686 Y108.955 E1.0
G1 X91.027 Y105.982 E1.0
G1 X90.635 Y103 E1.0
G1 X90.502 Y100 E1.0
G1 X90.635 Y97 E1.0
G1 X91.027 Y94.018 E1.0
G1 X91.686 Y91.045 E1.0
G1 X92.579 Y88.211 E1.0
G1 X93.739 Y85.411 E1.0
G1 X95.118 Y82.76 E1.0
G1 X96.747 Y80.206 E1.0
G1 X98.565 Y77.834 E1.0
;Curves end: 5-3 @ Z4.0

G0 X99.485 Y78.606 ;Move To

;Curve: 5-4 @ Z4.0
G1 X101.456 Y76.456 E1.0 F1000.0
G1 X103.606 Y74.485 E1.0
G1 X105.891 Y72.733 E1.0
G1 X108.357 Y71.161 E1.0
G1 X110.921 Y69.827 E1.0
G1 X113.618 Y68.709 E1.0
G1 X116.357 Y67.847 E1.0
G1 X119.23 Y67.21 E1.0
G1 X122.105 Y66.832 E1.0
G1 X125 Y66.703 E1.0
G1 X127.895 Y66.832 E1.0
G1 X130.77 Y67.21 E1.0
G1 X133.643 Y67.847 E1.0
G1 X136.382 Y68.709 E1.0
G1 X139.079 Y69.827 E1.0
G1 X141.643 Y71.161 E1.0
G1 X144.109 Y72.733 E1.0
G1 X146.394 Y74.485 E1.0
G1 X148.544 Y76.456 E1.0
G1 X150.515 Y78.606 E1.0
G1 X152.267 Y80.891 E1.0
G1 X153.839 Y83.357 E1.0
G1 X155.173 Y85.921 E1.0
G1 X156.291 Y88.618 E1.0
G1 X157.153 Y91.357 E1.0
G1 X157.79 Y94.23 E1.0
G1 X158.168 Y97.105 E1.0
G1 X158.297 Y100 E1.0
G1 X158.168 Y102.895 E1.0
G1 X157.79 Y105.77 E1.0
G1 X157.153 Y108.643 E1.0
G1 X156.291 Y111.382 E1.0
G1 X155.173 Y114.079 E1.0
G1 X153.839 Y116.643 E1.0
G1 X152.267 Y119.109 E1.0
G1 X150.515 Y121.394 E1.0
G1 X148.544 Y123.544 E1.0
G1 X146.394 Y125.515 E1.0
G1 X144.109 Y127.267 E1.0
G1 X141.643 Y128.839 E1.0
G1 X139.079 Y130.173 E1.0
G1 X136.382 Y131.291 E1.0
G1 X133.643 Y132.153 E1.0
G1 X130.77 Y132.79 E1.0
G1 X127.895 Y133.168 E1.0
G1 X125 Y133.297 E1.0
G1 X122.105 Y133.168 E1.0
G1 X119.23 Y132.79 E1.0
G1 X116.357 Y132.153 E1.0
G1 X113.618 Y131.291 E1.0
G1 X110.921 Y130.173 E1.0
G1 X108.357 Y128.839 E1.0
G1 X105.891 Y127.267 E1.0
G1 X103.606 Y125.515 E1.0
G1 X101.456 Y123.544 E1.0
G1 X99.485 Y121.394 E1.0
G1 X97.733 Y119.109 E1.0
G1 X96.161 Y116.643 E1.0
G1 X94.827 Y114.079 E1.0
G1 X93.709 Y111.382 E1.0
G1 X92.847 Y108.643 E1.0
G1 X92.21 Y105.77 E1.0
G1 X91.832 Y102.895 E1.0
G1 X91.703 Y100 E1.0
G1 X91.832 Y97.105 E1.0
G1 X92.21 Y94.23 E1.0
G1 X92.847 Y91.357 E1.0
G1 X93.709 Y88.618 E1.0
G1 X94.827 Y85.921 E1.0
G1 X96.161 Y83.357 E1.0
G1 X97.733 Y80.891 E1.0
G1 X99.485 Y78.606 E1.0
;Layer end: 5

G0 X96.735 Y76.278 Z4.8 ;Layer Change Transition Move

;Layer: 6 @ Z4.8
;TYPE:WALL-OUTER
;Curve: 6-1 @ Z4.8
G1 X98.907 Y73.907 E1.0 F1000.0
G1 X101.278 Y71.735 E1.0
G1 X103.836 Y69.773 E1.0
G1 X106.55 Y68.044 E1.0
G1 X109.409 Y66.555 E1.0
G1 X112.377 Y65.327 E1.0
G1 X115.443 Y64.36 E1.0
G1 X118.594 Y63.661 E1.0
G1 X121.79 Y63.241 E1.0
G1 X125 Y63.1 E1.0
G1 X128.21 Y63.241 E1.0
G1 X131.406 Y63.661 E1.0
G1 X134.557 Y64.36 E1.0
G1 X137.623 Y65.327 E1.0
G1 X140.591 Y66.555 E1.0
G1 X143.45 Y68.044 E1.0
G1 X146.164 Y69.773 E1.0
G1 X148.722 Y71.735 E1.0
G1 X151.093 Y73.907 E1.0
G1 X153.265 Y76.278 E1.0
G1 X155.227 Y78.836 E1.0
G1 X156.956 Y81.55 E1.0
G1 X158.445 Y84.409 E1.0
G1 X159.673 Y87.377 E1.0
G1 X160.64 Y90.443 E1.0
G1 X161.339 Y93.594 E1.0
G1 X161.759 Y96.79 E1.0
G1 X161.9 Y100 E1.0
G1 X161.759 Y103.21 E1.0
G1 X161.339 Y106.406 E1.0
G1 X160.64 Y109.557 E1.0
G1 X159.673 Y112.623 E1.0
G1 X158.445 Y115.591 E1.0
G1 X156.956 Y118.45 E1.0
G1 X155.227 Y121.164 E1.0
G1 X153.265 Y123.722 E1.0
G1 X151.093 Y126.093 E1.0
G1 X148.722 Y128.265 E1.0
G1 X146.164 Y130.227 E1.0
G1 X143.45 Y131.956 E1.0
G1 X140.591 Y133.445 E1.0
G1 X137.623 Y134.673 E1.0
G1 X134.557 Y135.64 E1.0
G1 X131.406 Y136.339 E1.0
G1 X128.21 Y136.759 E1.0
G1 X125 Y136.9 E1.0
G1 X121.79 Y136.759 E1.0
G1 X118.594 Y136.339 E1.0
G1 X115.443 Y135.64 E1.0
G1 X112.377 Y134.673 E1.0
G1 X109.409 Y133.445 E1.0
G1 X106.55 Y131.956 E1.0
G1 X103.836 Y130.227 E1.0
G1 X101.278 Y128.265 E1.0
G1 X98.907 Y126.093 E1.0
G1 X96.735 Y123.722 E1.0
G1 X94.773 Y121.164 E1.0
G1 X93.044 Y118.45 E1.0
G1 X91.555 Y115.591 E1.0
G1 X90.327 Y112.623 E1.0
G1 X89.36 Y109.557 E1.0
G1 X88.661 Y106.406 E1.0
G1 X88.241 Y103.21 E1.0
G1 X88.1 Y100 E1.0
G1 X88.241 Y96.79 E1.0
G1 X88.661 Y93.594 E1.0
G1 X89.36 Y90.443 E1.0
G1 X90.327 Y87.377 E1.0
G1 X91.555 Y84.409 E1.0
G1 X93.044 Y81.55 E1.0
G1 X94.773 Y78.836 E1.0
G1 X96.735 Y76.278 E1.0
;Curves end: 6-1 @ Z4.8

G0 X97.65 Y77.056 ;Move To

;Curve: 6-2 @ Z4.8
;TYPE:WALL-INNER
G1 X99.757 Y74.757 E1.0 F1000.0
G1 X102.056 Y72.65 E1.0
G1 X104.521 Y70.76 E1.0
G1 X107.155 Y69.081 E1.0
G1 X109.91 Y67.647 E1.0
G1 X112.794 Y66.453 E1.0
G1 X115.744 Y65.523 E1.0
G1 X118.806 Y64.844 E1.0
G1 X121.895 Y64.438 E1.0
G1 X125 Y64.301 E1.0
G1 X128.105 Y64.438 E1.0
G1 X131.194 Y64.844 E1.0
G1 X134.256 Y65.523 E1.0
G1 X137.206 Y66.453 E1.0
G1 X140.09 Y67.647 E1.0
G1 X142.845 Y69.081 E1.0
G1 X145.479 Y70.76 E1.0
G1 X147.944 Y72.65 E1.0
G1 X150.243 Y74.757 E1.0
G1 X152.35 Y77.056 E1.0
G1 X154.24 Y79.521 E1.0
G1 X155.919 Y82.155 E1.0
G1 X157.353 Y84.91 E1.0
G1 X158.547 Y87.794 E1.0
G1 X159.477 Y90.744 E1.0
G1 X160.156 Y93.806 E1.0
G1 X160.562 Y96.895 E1.0
G1 X160.699 Y100 E1.0
G1 X160.562 Y103.105 E1.0
G1 X160.156 Y106.194 E1.0
G1 X159.477 Y109.256 E1.0
G1 X158.547 Y112.206 E1.0
G1 X157.353 Y115.09 E1.0
G1 X155.919 Y117.845 E1.0
G1 X154.24 Y120.479 E1.0
G1 X152.35 Y122.944 E1.0
G1 X150.243 Y125.243 E1.0
G1 X147.944 Y127.35 E1.0
G1 X145.479 Y129.24 E1.0
G1 X142.845 Y130.919 E1.0
G1 X140.09 Y132.353 E1.0
G1 X137.206 Y133.547 E1.0
G1 X134.256 Y134.477 E1.0
G1 X131.194 Y135.156 E1.0
G1 X128.105 Y135.562 E1.0
G1 X125 Y135.699 E1.0
G1 X121.895 Y135.562 E1.0
G1 X118.806 Y135.156 E1.0
G1 X115.744 Y134.477 E1.0
G1 X112.794 Y133.547 E1.0
G1 X109.91 Y132.353 E1.0
G1 X107.155 Y130.919 E1.0
G1 X104.521 Y129.24 E1.0
G1 X102.056 Y127.35 E1.0
G1 X99.757 Y125.243 E1.0
G1 X97.65 Y122.944 E1.0
G1 X95.76 Y120.479 E1.0
G1 X94.081 Y117.845 E1.0
G1 X92.647 Y115.09 E1.0
G1 X91.453 Y112.206 E1.0
G1 X90.523 Y109.256 E1.0
G1 X89.844 Y106.194 E1.0
G1 X89.438 Y103.105 E1.0
G1 X89.301 Y100 E1.0
G1 X89.438 Y96.895 E1.0
G1 X89.844 Y93.806 E1.0
G1 X90.523 Y90.744 E1.0
G1 X91.453 Y87.794 E1.0
G1 X92.647 Y84.91 E1.0
G1 X94.081 Y82.155 E1.0
G1 X95.76 Y79.521 E1.0
G1 X97.65 Y77.056 E1.0
;Curves end: 6-2 @ Z4.8

G0 X98.565 Y77.834 ;Move To

;Curve: 6-3 @ Z4.8
G1 X100.607 Y75.607 E1.0 F1000.0
G1 X102.834 Y73.565 E1.0
G1 X105.206 Y71.747 E1.0
G1 X107.76 Y70.118 E1.0
G1 X110.411 Y68.739 E1.0
G1 X113.211 Y67.579 E1.0
G1 X116.045 Y66.686 E1.0
G1 X119.018 Y66.027 E1.0
G1 X122 Y65.635 E1.0
G1 X125 Y65.502 E1.0
G1 X128 Y65.635 E1.0
G1 X130.982 Y66.027 E1.0
G1 X133.955 Y66.686 E1.0
G1 X136.789 Y67.579 E1.0
G1 X139.589 Y68.739 E1.0
G1 X142.24 Y70.118 E1.0
G1 X144.794 Y71.747 E1.0
G1 X147.166 Y73.565 E1.0
G1 X149.393 Y75.607 E1.0
G1 X151.435 Y77.834 E1.0
G1 X153.253 Y80.206 E1.0
G1 X154.882 Y82.76 E1.0
G1 X156.261 Y85.411 E1.0
G1 X157.421 Y88.211 E1.0
G1 X158.314 Y91.045 E1.0
G1 X158.973 Y94.018 E1.0
G1 X159.365 Y97 E1.0
G1 X159.498 Y100 E1.0
G1 X159.365 Y103 E1.0
G1 X158.973 Y105.982 E1.0
G1 X158.314 Y108.955 E1.0
G1 X157.421 Y111.789 E1.0
G1 X156.261 Y114.589 E1.0
G1 X154.882 Y117.24 E1.0
G1 X153.253 Y119.794 E1.0
G1 X151.435 Y122.166 E1.0
G1 X149.393 Y124.393 E1.0
G1 X147.166 Y126.435 E1.0
G1 X144.794 Y128.253 E1.0
G1 X142.24 Y129.882 E1.0
G1 X139.589 Y131.261 E1.0
G1 X136.789 Y132.421 E1.0
G1 X133.955 Y133.314 E1.0
G1 X130.982 Y133.973 E1.0
G1 X128 Y134.365 E1.0
G1 X125 Y134.498 E1.0
G1 X122 Y134.365 E1.0
G1 X119.018 Y133.973 E1.0
G1 X116.045 Y133.314 E1.0
G1 X113.211 Y132.421 E1.0
G1 X110.411 Y131.261 E1.0
G1 X107.76 Y129.882 E1.0
G1 X105.206 Y128.253 E1.0
G1 X102.834 Y126.435 E1.0
G1 X100.607 Y124.393 E1.0
G1 X98.565 Y122.166 E1.0
G1 X96.747 Y119.794 E1.0
G1 X95.118 Y117.24 E1.0
G1 X93.739 Y114.589 E1.0
G1 X92.579 Y111.789 E1.0
G1 X91.686 Y108.955 E1.0
G1 X91.027 Y105.982 E1.0
G1 X90.635 Y103 E1.0
G1 X90.502 Y100 E1.0
G1 X90.635 Y97 E1.0
G1 X91.027 Y94.018 E1.0
G1 X91.686 Y91.045 E1.0
G1 X92.579 Y88.211 E1.0
G1 X93.739 Y85.411 E1.0
G1 X95.118 Y82.76 E1.0
G1 X96.747 Y80.206 E1.0
G1 X98.565 Y77.834 E1.0
;Curves end: 6-3 @ Z4.8

G0 X99.485 Y78.606 ;Move To

;Curve: 6-4 @ Z4.8
G1 X101.456 Y76.456 E1.0 F1000.0
G1 X103.606 Y74.485 E1.0
G1 X105.891 Y72.733 E1.0
G1 X108.357 Y71.161 E1.0
G1 X110.921 Y69.827 E1.0
G1 X113.618 Y68.709 E1.0
G1 X116.357 Y67.847 E1.0
G1 X119.23 Y67.21 E1.0
G1 X122.105 Y66.832 E1.0
G1 X125 Y66.703 E1.0
G1 X127.895 Y66.832 E1.0
G1 X130.77 Y67.21 E1.0
G1 X133.643 Y67.847 E1.0
G1 X136.382 Y68.709 E1.0
G1 X139.079 Y69.827 E1.0
G1 X141.643 Y71.161 E1.0
G1 X144.109 Y72.733 E1.0
G1 X146.394 Y74.485 E1.0
G1 X148.544 Y76.456 E1.0
G1 X150.515 Y78.606 E1.0
G1 X152.267 Y80.891 E1.0
G1 X153.839 Y83.357 E1.0
G1 X155.173 Y85.921 E1.0
G1 X156.291 Y88.618 E1.0
G1 X157.153 Y91.357 E1.0
G1 X157.79 Y94.23 E1.0
G1 X158.168 Y97.105 E1.0
G1 X158.297 Y100 E1.0
G1 X158.168 Y102.895 E1.0
G1 X157.79 Y105.77 E1.0
G1 X157.153 Y108.643 E1.0
G1 X156.291 Y111.382 E1.0
G1 X155.173 Y114.079 E1.0
G1 X153.839 Y116.643 E1.0
G1 X152.267 Y119.109 E1.0
G1 X150.515 Y121.394 E1.0
G1 X148.544 Y123.544 E1.0
G1 X146.394 Y125.515 E1.0
G1 X144.109 Y127.267 E1.0
G1 X141.643 Y128.839 E1.0
G1 X139.079 Y130.173 E1.0
G1 X136.382 Y131.291 E1.0
G1 X133.643 Y132.153 E1.0
G1 X130.77 Y132.79 E1.0
G1 X127.895 Y133.168 E1.0
G1 X125 Y133.297 E1.0
G1 X122.105 Y133.168 E1.0
G1 X119.23 Y132.79 E1.0
G1 X116.357 Y132.153 E1.0
G1 X113.618 Y131.291 E1.0
G1 X110.921 Y130.173 E1.0
G1 X108.357 Y128.839 E1.0
G1 X105.891 Y127.267 E1.0
G1 X103.606 Y125.515 E1.0
G1 X101.456 Y123.544 E1.0
G1 X99.485 Y121.394 E1.0
G1 X97.733 Y119.109 E1.0
G1 X96.161 Y116.643 E1.0
G1 X94.827 Y114.079 E1.0
G1 X93.709 Y111.382 E1.0
G1 X92.847 Y108.643 E1.0
G1 X92.21 Y105.77 E1.0
G1 X91.832 Y102.895 E1.0
G1 X91.703 Y100 E1.0
G1 X91.832 Y97.105 E1.0
G1 X92.21 Y94.23 E1.0
G1 X92.847 Y91.357 E1.0
G1 X93.709 Y88.618 E1.0
G1 X94.827 Y85.921 E1.0
G1 X96.161 Y83.357 E1.0
G1 X97.733 Y80.891 E1.0
G1 X99.485 Y78.606 E1.0
;Layer end: 6

G0 X96.735 Y76.278 Z5.6 ;Layer Change Transition Move

;Layer: 7 @ Z5.6
;TYPE:WALL-OUTER
;Curve: 7-1 @ Z5.6
G1 X98.907 Y73.907 E1.0 F1000.0
G1 X101.278 Y71.735 E1.0
G1 X103.836 Y69.773 E1.0
G1 X106.55 Y68.044 E1.0
G1 X109.409 Y66.555 E1.0
G1 X112.377 Y65.327 E1.0
G1 X115.443 Y64.36 E1.0
G1 X118.594 Y63.661 E1.0
G1 X121.79 Y63.241 E1.0
G1 X125 Y63.1 E1.0
G1 X128.21 Y63.241 E1.0
G1 X131.406 Y63.661 E1.0
G1 X134.557 Y64.36 E1.0
G1 X137.623 Y65.327 E1.0
G1 X140.591 Y66.555 E1.0
G1 X143.45 Y68.044 E1.0
G1 X146.164 Y69.773 E1.0
G1 X148.722 Y71.735 E1.0
G1 X151.093 Y73.907 E1.0
G1 X153.265 Y76.278 E1.0
G1 X155.227 Y78.836 E1.0
G1 X156.956 Y81.55 E1.0
G1 X158.445 Y84.409 E1.0
G1 X159.673 Y87.377 E1.0
G1 X160.64 Y90.443 E1.0
G1 X161.339 Y93.594 E1.0
G1 X161.759 Y96.79 E1.0
G1 X161.9 Y100 E1.0
G1 X161.759 Y103.21 E1.0
G1 X161.339 Y106.406 E1.0
G1 X160.64 Y109.557 E1.0
G1 X159.673 Y112.623 E1.0
G1 X158.445 Y115.591 E1.0
G1 X156.956 Y118.45 E1.0
G1 X155.227 Y121.164 E1.0
G1 X153.265 Y123.722 E1.0
G1 X151.093 Y126.093 E1.0
G1 X148.722 Y128.265 E1.0
G1 X146.164 Y130.227 E1.0
G1 X143.45 Y131.956 E1.0
G1 X140.591 Y133.445 E1.0
G1 X137.623 Y134.673 E1.0
G1 X134.557 Y135.64 E1.0
G1 X131.406 Y136.339 E1.0
G1 X128.21 Y136.759 E1.0
G1 X125 Y136.9 E1.0
G1 X121.79 Y136.759 E1.0
G1 X118.594 Y136.339 E1.0
G1 X115.443 Y135.64 E1.0
G1 X112.377 Y134.673 E1.0
G1 X109.409 Y133.445 E1.0
G1 X106.55 Y131.956 E1.0
G1 X103.836 Y130.227 E1.0
G1 X101.278 Y128.265 E1.0
G1 X98.907 Y126.093 E1.0
G1 X96.735 Y123.722 E1.0
G1 X94.773 Y121.164 E1.0
G1 X93.044 Y118.45 E1.0
G1 X91.555 Y115.591 E1.0
G1 X90.327 Y112.623 E1.0
G1 X89.36 Y109.557 E1.0
G1 X88.661 Y106.406 E1.0
G1 X88.241 Y103.21 E1.0
G1 X88.1 Y100 E1.0
G1 X88.241 Y96.79 E1.0
G1 X88.661 Y93.594 E1.0
G1 X89.36 Y90.443 E1.0
G1 X90.327 Y87.377 E1.0
G1 X91.555 Y84.409 E1.0
G1 X93.044 Y81.55 E1.0
G1 X94.773 Y78.836 E1.0
G1 X96.735 Y76.278 E1.0
;Curves end: 7-1 @ Z5.6

G0 X97.65 Y77.056 ;Move To

;Curve: 7-2 @ Z5.6
;TYPE:WALL-INNER
G1 X99.757 Y74.757 E1.0 F1000.0
G1 X102.056 Y72.65 E1.0
G1 X104.521 Y70.76 E1.0
G1 X107.155 Y69.081 E1.0
G1 X109.91 Y67.647 E1.0
G1 X112.794 Y66.453 E1.0
G1 X115.744 Y65.523 E1.0
G1 X118.806 Y64.844 E1.0
G1 X121.895 Y64.438 E1.0
G1 X125 Y64.301 E1.0
G1 X128.105 Y64.438 E1.0
G1 X131.194 Y64.844 E1.0
G1 X134.256 Y65.523 E1.0
G1 X137.206 Y66.453 E1.0
G1 X140.09 Y67.647 E1.0
G1 X142.845 Y69.081 E1.0
G1 X145.479 Y70.76 E1.0
G1 X147.944 Y72.65 E1.0
G1 X150.243 Y74.757 E1.0
G1 X152.35 Y77.056 E1.0
G1 X154.24 Y79.521 E1.0
G1 X155.919 Y82.155 E1.0
G1 X157.353 Y84.91 E1.0
G1 X158.547 Y87.794 E1.0
G1 X159.477 Y90.744 E1.0
G1 X160.156 Y93.806 E1.0
G1 X160.562 Y96.895 E1.0
G1 X160.699 Y100 E1.0
G1 X160.562 Y103.105 E1.0
G1 X160.156 Y106.194 E1.0
G1 X159.477 Y109.256 E1.0
G1 X158.547 Y112.206 E1.0
G1 X157.353 Y115.09 E1.0
G1 X155.919 Y117.845 E1.0
G1 X154.24 Y120.479 E1.0
G1 X152.35 Y122.944 E1.0
G1 X150.243 Y125.243 E1.0
G1 X147.944 Y127.35 E1.0
G1 X145.479 Y129.24 E1.0
G1 X142.845 Y130.919 E1.0
G1 X140.09 Y132.353 E1.0
G1 X137.206 Y133.547 E1.0
G1 X134.256 Y134.477 E1.0
G1 X131.194 Y135.156 E1.0
G1 X128.105 Y135.562 E1.0
G1 X125 Y135.699 E1.0
G1 X121.895 Y135.562 E1.0
G1 X118.806 Y135.156 E1.0
G1 X115.744 Y134.477 E1.0
G1 X112.794 Y133.547 E1.0
G1 X109.91 Y132.353 E1.0
G1 X107.155 Y130.919 E1.0
G1 X104.521 Y129.24 E1.0
G1 X102.056 Y127.35 E1.0
G1 X99.757 Y125.243 E1.0
G1 X97.65 Y122.944 E1.0
G1 X95.76 Y120.479 E1.0
G1 X94.081 Y117.845 E1.0
G1 X92.647 Y115.09 E1.0
G1 X91.453 Y112.206 E1.0
G1 X90.523 Y109.256 E1.0
G1 X89.844 Y106.194 E1.0
G1 X89.438 Y103.105 E1.0
G1 X89.301 Y100 E1.0
G1 X89.438 Y96.895 E1.0
G1 X89.844 Y93.806 E1.0
G1 X90.523 Y90.744 E1.0
G1 X91.453 Y87.794 E1.0
G1 X92.647 Y84.91 E1.0
G1 X94.081 Y82.155 E1.0
G1 X95.76 Y79.521 E1.0
G1 X97.65 Y77.056 E1.0
;Curves end: 7-2 @ Z5.6

G0 X98.565 Y77.834 ;Move To

;Curve: 7-3 @ Z5.6
G1 X100.607 Y75.607 E1.0 F1000.0
G1 X102.834 Y73.565 E1.0
G1 X105.206 Y71.747 E1.0
G1 X107.76 Y70.118 E1.0
G1 X110.411 Y68.739 E1.0
G1 X113.211 Y67.579 E1.0
G1 X116.045 Y66.686 E1.0
G1 X119.018 Y66.027 E1.0
G1 X122 Y65.635 E1.0
G1 X125 Y65.502 E1.0
G1 X128 Y65.635 E1.0
G1 X130.982 Y66.027 E1.0
G1 X133.955 Y66.686 E1.0
G1 X136.789 Y67.579 E1.0
G1 X139.589 Y68.739 E1.0
G1 X142.24 Y70.118 E1.0
G1 X144.794 Y71.747 E1.0
G1 X147.166 Y73.565 E1.0
G1 X149.393 Y75.607 E1.0
G1 X151.435 Y77.834 E1.0
G1 X153.253 Y80.206 E1.0
G1 X154.882 Y82.76 E1.0
G1 X156.261 Y85.411 E1.0
G1 X157.421 Y88.211 E1.0
G1 X158.314 Y91.045 E1.0
G1 X158.973 Y94.018 E1.0
G1 X159.365 Y97 E1.0
G1 X159.498 Y100 E1.0
G1 X159.365 Y103 E1.0
G1 X158.973 Y105.982 E1.0
G1 X158.314 Y108.955 E1.0
G1 X157.421 Y111.789 E1.0
G1 X156.261 Y114.589 E1.0
G1 X154.882 Y117.24 E1.0
G1 X153.253 Y119.794 E1.0
G1 X151.435 Y122.166 E1.0
G1 X149.393 Y124.393 E1.0
G1 X147.166 Y126.435 E1.0
G1 X144.794 Y128.253 E1.0
G1 X142.24 Y129.882 E1.0
G1 X139.589 Y131.261 E1.0
G1 X136.789 Y132.421 E1.0
G1 X133.955 Y133.314 E1.0
G1 X130.982 Y133.973 E1.0
G1 X128 Y134.365 E1.0
G1 X125 Y134.498 E1.0
G1 X122 Y134.365 E1.0
G1 X119.018 Y133.973 E1.0
G1 X116.045 Y133.314 E1.0
G1 X113.211 Y132.421 E1.0
G1 X110.411 Y131.261 E1.0
G1 X107.76 Y129.882 E1.0
G1 X105.206 Y128.253 E1.0
G1 X102.834 Y126.435 E1.0
G1 X100.607 Y124.393 E1.0
G1 X98.565 Y122.166 E1.0
G1 X96.747 Y119.794 E1.0
G1 X95.118 Y117.24 E1.0
G1 X93.739 Y114.589 E1.0
G1 X92.579 Y111.789 E1.0
G1 X91.686 Y108.955 E1.0
G1 X91.027 Y105.982 E1.0
G1 X90.635 Y103 E1.0
G1 X90.502 Y100 E1.0
G1 X90.635 Y97 E1.0
G1 X91.027 Y94.018 E1.0
G1 X91.686 Y91.045 E1.0
G1 X92.579 Y88.211 E1.0
G1 X93.739 Y85.411 E1.0
G1 X95.118 Y82.76 E1.0
G1 X96.747 Y80.206 E1.0
G1 X98.565 Y77.834 E1.0
;Curves end: 7-3 @ Z5.6

G0 X99.485 Y78.606 ;Move To

;Curve: 7-4 @ Z5.6
G1 X101.456 Y76.456 E1.0 F1000.0
G1 X103.606 Y74.485 E1.0
G1 X105.891 Y72.733 E1.0
G1 X108.357 Y71.161 E1.0
G1 X110.921 Y69.827 E1.0
G1 X113.618 Y68.709 E1.0
G1 X116.357 Y67.847 E1.0
G1 X119.23 Y67.21 E1.0
G1 X122.105 Y66.832 E1.0
G1 X125 Y66.703 E1.0
G1 X127.895 Y66.832 E1.0
G1 X130.77 Y67.21 E1.0
G1 X133.643 Y67.847 E1.0
G1 X136.382 Y68.709 E1.0
G1 X139.079 Y69.827 E1.0
G1 X141.643 Y71.161 E1.0
G1 X144.109 Y72.733 E1.0
G1 X146.394 Y74.485 E1.0
G1 X148.544 Y76.456 E1.0
G1 X150.515 Y78.606 E1.0
G1 X152.267 Y80.891 E1.0
G1 X153.839 Y83.357 E1.0
G1 X155.173 Y85.921 E1.0
G1 X156.291 Y88.618 E1.0
G1 X157.153 Y91.357 E1.0
G1 X157.79 Y94.23 E1.0
G1 X158.168 Y97.105 E1.0
G1 X158.297 Y100 E1.0
G1 X158.168 Y102.895 E1.0
G1 X157.79 Y105.77 E1.0
G1 X157.153 Y108.643 E1.0
G1 X156.291 Y111.382 E1.0
G1 X155.173 Y114.079 E1.0
G1 X153.839 Y116.643 E1.0
G1 X152.267 Y119.109 E1.0
G1 X150.515 Y121.394 E1.0
G1 X148.544 Y123.544 E1.0
G1 X146.394 Y125.515 E1.0
G1 X144.109 Y127.267 E1.0
G1 X141.643 Y128.839 E1.0
G1 X139.079 Y130.173 E1.0
G1 X136.382 Y131.291 E1.0
G1 X133.643 Y132.153 E1.0
G1 X130.77 Y132.79 E1.0
G1 X127.895 Y133.168 E1.0
G1 X125 Y133.297 E1.0
G1 X122.105 Y133.168 E1.0
G1 X119.23 Y132.79 E1.0
G1 X116.357 Y132.153 E1.0
G1 X113.618 Y131.291 E1.0
G1 X110.921 Y130.173 E1.0
G1 X108.357 Y128.839 E1.0
G1 X105.891 Y127.267 E1.0
G1 X103.606 Y125.515 E1.0
G1 X101.456 Y123.544 E1.0
G1 X99.485 Y121.394 E1.0
G1 X97.733 Y119.109 E1.0
G1 X96.161 Y116.643 E1.0
G1 X94.827 Y114.079 E1.0
G1 X93.709 Y111.382 E1.0
G1 X92.847 Y108.643 E1.0
G1 X92.21 Y105.77 E1.0
G1 X91.832 Y102.895 E1.0
G1 X91.703 Y100 E1.0
G1 X91.832 Y97.105 E1.0
G1 X92.21 Y94.23 E1.0
G1 X92.847 Y91.357 E1.0
G1 X93.709 Y88.618 E1.0
G1 X94.827 Y85.921 E1.0
G1 X96.161 Y83.357 E1.0
G1 X97.733 Y80.891 E1.0
G1 X99.485 Y78.606 E1.0
;Layer end: 7

G0 X96.735 Y76.278 Z6.4 ;Layer Change Transition Move

;Layer: 8 @ Z6.4
;TYPE:WALL-OUTER
;Curve: 8-1 @ Z6.4
G1 X98.907 Y73.907 E1.0 F1000.0
G1 X101.278 Y71.735 E1.0
G1 X103.836 Y69.773 E1.0
G1 X106.55 Y68.044 E1.0
G1 X109.409 Y66.555 E1.0
G1 X112.377 Y65.327 E1.0
G1 X115.443 Y64.36 E1.0
G1 X118.594 Y63.661 E1.0
G1 X121.79 Y63.241 E1.0
G1 X125 Y63.1 E1.0
G1 X128.21 Y63.241 E1.0
G1 X131.406 Y63.661 E1.0
G1 X134.557 Y64.36 E1.0
G1 X137.623 Y65.327 E1.0
G1 X140.591 Y66.555 E1.0
G1 X143.45 Y68.044 E1.0
G1 X146.164 Y69.773 E1.0
G1 X148.722 Y71.735 E1.0
G1 X151.093 Y73.907 E1.0
G1 X153.265 Y76.278 E1.0
G1 X155.227 Y78.836 E1.0
G1 X156.956 Y81.55 E1.0
G1 X158.445 Y84.409 E1.0
G1 X159.673 Y87.377 E1.0
G1 X160.64 Y90.443 E1.0
G1 X161.339 Y93.594 E1.0
G1 X161.759 Y96.79 E1.0
G1 X161.9 Y100 E1.0
G1 X161.759 Y103.21 E1.0
G1 X161.339 Y106.406 E1.0
G1 X160.64 Y109.557 E1.0
G1 X159.673 Y112.623 E1.0
G1 X158.445 Y115.591 E1.0
G1 X156.956 Y118.45 E1.0
G1 X155.227 Y121.164 E1.0
G1 X153.265 Y123.722 E1.0
G1 X151.093 Y126.093 E1.0
G1 X148.722 Y128.265 E1.0
G1 X146.164 Y130.227 E1.0
G1 X143.45 Y131.956 E1.0
G1 X140.591 Y133.445 E1.0
G1 X137.623 Y134.673 E1.0
G1 X134.557 Y135.64 E1.0
G1 X131.406 Y136.339 E1.0
G1 X128.21 Y136.759 E1.0
G1 X125 Y136.9 E1.0
G1 X121.79 Y136.759 E1.0
G1 X118.594 Y136.339 E1.0
G1 X115.443 Y135.64 E1.0
G1 X112.377 Y134.673 E1.0
G1 X109.409 Y133.445 E1.0
G1 X106.55 Y131.956 E1.0
G1 X103.836 Y130.227 E1.0
G1 X101.278 Y128.265 E1.0
G1 X98.907 Y126.093 E1.0
G1 X96.735 Y123.722 E1.0
G1 X94.773 Y121.164 E1.0
G1 X93.044 Y118.45 E1.0
G1 X91.555 Y115.591 E1.0
G1 X90.327 Y112.623 E1.0
G1 X89.36 Y109.557 E1.0
G1 X88.661 Y106.406 E1.0
G1 X88.241 Y103.21 E1.0
G1 X88.1 Y100 E1.0
G1 X88.241 Y96.79 E1.0
G1 X88.661 Y93.594 E1.0
G1 X89.36 Y90.443 E1.0
G1 X90.327 Y87.377 E1.0
G1 X91.555 Y84.409 E1.0
G1 X93.044 Y81.55 E1.0
G1 X94.773 Y78.836 E1.0
G1 X96.735 Y76.278 E1.0
;Curves end: 8-1 @ Z6.4

G0 X97.65 Y77.056 ;Move To

;Curve: 8-2 @ Z6.4
;TYPE:WALL-INNER
G1 X99.757 Y74.757 E1.0 F1000.0
G1 X102.056 Y72.65 E1.0
G1 X104.521 Y70.76 E1.0
G1 X107.155 Y69.081 E1.0
G1 X109.91 Y67.647 E1.0
G1 X112.794 Y66.453 E1.0
G1 X115.744 Y65.523 E1.0
G1 X118.806 Y64.844 E1.0
G1 X121.895 Y64.438 E1.0
G1 X125 Y64.301 E1.0
G1 X128.105 Y64.438 E1.0
G1 X131.194 Y64.844 E1.0
G1 X134.256 Y65.523 E1.0
G1 X137.206 Y66.453 E1.0
G1 X140.09 Y67.647 E1.0
G1 X142.845 Y69.081 E1.0
G1 X145.479 Y70.76 E1.0
G1 X147.944 Y72.65 E1.0
G1 X150.243 Y74.757 E1.0
G1 X152.35 Y77.056 E1.0
G1 X154.24 Y79.521 E1.0
G1 X155.919 Y82.155 E1.0
G1 X157.353 Y84.91 E1.0
G1 X158.547 Y87.794 E1.0
G1 X159.477 Y90.744 E1.0
G1 X160.156 Y93.806 E1.0
G1 X160.562 Y96.895 E1.0
G1 X160.699 Y100 E1.0
G1 X160.562 Y103.105 E1.0
G1 X160.156 Y106.194 E1.0
G1 X159.477 Y109.256 E1.0
G1 X158.547 Y112.206 E1.0
G1 X157.353 Y115.09 E1.0
G1 X155.919 Y117.845 E1.0
G1 X154.24 Y120.479 E1.0
G1 X152.35 Y122.944 E1.0
G1 X150.243 Y125.243 E1.0
G1 X147.944 Y127.35 E1.0
G1 X145.479 Y129.24 E1.0
G1 X142.845 Y130.919 E1.0
G1 X140.09 Y132.353 E1.0
G1 X137.206 Y133.547 E1.0
G1 X134.256 Y134.477 E1.0
G1 X131.194 Y135.156 E1.0
G1 X128.105 Y135.562 E1.0
G1 X125 Y135.699 E1.0
G1 X121.895 Y135.562 E1.0
G1 X118.806 Y135.156 E1.0
G1 X115.744 Y134.477 E1.0
G1 X112.794 Y133.547 E1.0
G1 X109.91 Y132.353 E1.0
G1 X107.155 Y130.919 E1.0
G1 X104.521 Y129.24 E1.0
G1 X102.056 Y127.35 E1.0
G1 X99.757 Y125.243 E1.0
G1 X97.65 Y122.944 E1.0
G1 X95.76 Y120.479 E1.0
G1 X94.081 Y117.845 E1.0
G1 X92.647 Y115.09 E1.0
G1 X91.453 Y112.206 E1.0
G1 X90.523 Y109.256 E1.0
G1 X89.844 Y106.194 E1.0
G1 X89.438 Y103.105 E1.0
G1 X89.301 Y100 E1.0
G1 X89.438 Y96.895 E1.0
G1 X89.844 Y93.806 E1.0
G1 X90.523 Y90.744 E1.0
G1 X91.453 Y87.794 E1.0
G1 X92.647 Y84.91 E1.0
G1 X94.081 Y82.155 E1.0
G1 X95.76 Y79.521 E1.0
G1 X97.65 Y77.056 E1.0
;Curves end: 8-2 @ Z6.4

G0 X98.565 Y77.834 ;Move To

;Curve: 8-3 @ Z6.4
G1 X100.607 Y75.607 E1.0 F1000.0
G1 X102.834 Y73.565 E1.0
G1 X105.206 Y71.747 E1.0
G1 X107.76 Y70.118 E1.0
G1 X110.411 Y68.739 E1.0
G1 X113.211 Y67.579 E1.0
G1 X116.045 Y66.686 E1.0
G1 X119.018 Y66.027 E1.0
G1 X122 Y65.635 E1.0
G1 X125 Y65.502 E1.0
G1 X128 Y65.635 E1.0
G1 X130.982 Y66.027 E1.0
G1 X133.955 Y66.686 E1.0
G1 X136.789 Y67.579 E1.0
G1 X139.589 Y68.739 E1.0
G1 X142.24 Y70.118 E1.0
G1 X144.794 Y71.747 E1.0
G1 X147.166 Y73.565 E1.0
G1 X149.393 Y75.607 E1.0
G1 X151.435 Y77.834 E1.0
G1 X153.253 Y80.206 E1.0
G1 X154.882 Y82.76 E1.0
G1 X156.261 Y85.411 E1.0
G1 X157.421 Y88.211 E1.0
G1 X158.314 Y91.045 E1.0
G1 X158.973 Y94.018 E1.0
G1 X159.365 Y97 E1.0
G1 X159.498 Y100 E1.0
G1 X159.365 Y103 E1.0
G1 X158.973 Y105.982 E1.0
G1 X158.314 Y108.955 E1.0
G1 X157.421 Y111.789 E1.0
G1 X156.261 Y114.589 E1.0
G1 X154.882 Y117.24 E1.0
G1 X153.253 Y119.794 E1.0
G1 X151.435 Y122.166 E1.0
G1 X149.393 Y124.393 E1.0
G1 X147.166 Y126.435 E1.0
G1 X144.794 Y128.253 E1.0
G1 X142.24 Y129.882 E1.0
G1 X139.589 Y131.261 E1.0
G1 X136.789 Y132.421 E1.0
G1 X133.955 Y133.314 E1.0
G1 X130.982 Y133.973 E1.0
G1 X128 Y134.365 E1.0
G1 X125 Y134.498 E1.0
G1 X122 Y134.365 E1.0
G1 X119.018 Y133.973 E1.0
G1 X116.045 Y133.314 E1.0
G1 X113.211 Y132.421 E1.0
G1 X110.411 Y131.261 E1.0
G1 X107.76 Y129.882 E1.0
G1 X105.206 Y128.253 E1.0
G1 X102.834 Y126.435 E1.0
G1 X100.607 Y124.393 E1.0
G1 X98.565 Y122.166 E1.0
G1 X96.747 Y119.794 E1.0
G1 X95.118 Y117.24 E1.0
G1 X93.739 Y114.589 E1.0
G1 X92.579 Y111.789 E1.0
G1 X91.686 Y108.955 E1.0
G1 X91.027 Y105.982 E1.0
G1 X90.635 Y103 E1.0
G1 X90.502 Y100 E1.0
G1 X90.635 Y97 E1.0
G1 X91.027 Y94.018 E1.0
G1 X91.686 Y91.045 E1.0
G1 X92.579 Y88.211 E1.0
G1 X93.739 Y85.411 E1.0
G1 X95.118 Y82.76 E1.0
G1 X96.747 Y80.206 E1.0
G1 X98.565 Y77.834 E1.0
;Curves end: 8-3 @ Z6.4

G0 X99.485 Y78.606 ;Move To

;Curve: 8-4 @ Z6.4
G1 X101.456 Y76.456 E1.0 F1000.0
G1 X103.606 Y74.485 E1.0
G1 X105.891 Y72.733 E1.0
G1 X108.357 Y71.161 E1.0
G1 X110.921 Y69.827 E1.0
G1 X113.618 Y68.709 E1.0
G1 X116.357 Y67.847 E1.0
G1 X119.23 Y67.21 E1.0
G1 X122.105 Y66.832 E1.0
G1 X125 Y66.703 E1.0
G1 X127.895 Y66.832 E1.0
G1 X130.77 Y67.21 E1.0
G1 X133.643 Y67.847 E1.0
G1 X136.382 Y68.709 E1.0
G1 X139.079 Y69.827 E1.0
G1 X141.643 Y71.161 E1.0
G1 X144.109 Y72.733 E1.0
G1 X146.394 Y74.485 E1.0
G1 X148.544 Y76.456 E1.0
G1 X150.515 Y78.606 E1.0
G1 X152.267 Y80.891 E1.0
G1 X153.839 Y83.357 E1.0
G1 X155.173 Y85.921 E1.0
G1 X156.291 Y88.618 E1.0
G1 X157.153 Y91.357 E1.0
G1 X157.79 Y94.23 E1.0
G1 X158.168 Y97.105 E1.0
G1 X158.297 Y100 E1.0
G1 X158.168 Y102.895 E1.0
G1 X157.79 Y105.77 E1.0
G1 X157.153 Y108.643 E1.0
G1 X156.291 Y111.382 E1.0
G1 X155.173 Y114.079 E1.0
G1 X153.839 Y116.643 E1.0
G1 X152.267 Y119.109 E1.0
G1 X150.515 Y121.394 E1.0
G1 X148.544 Y123.544 E1.0
G1 X146.394 Y125.515 E1.0
G1 X144.109 Y127.267 E1.0
G1 X141.643 Y128.839 E1.0
G1 X139.079 Y130.173 E1.0
G1 X136.382 Y131.291 E1.0
G1 X133.643 Y132.153 E1.0
G1 X130.77 Y132.79 E1.0
G1 X127.895 Y133.168 E1.0
G1 X125 Y133.297 E1.0
G1 X122.105 Y133.168 E1.0
G1 X119.23 Y132.79 E1.0
G1 X116.357 Y132.153 E1.0
G1 X113.618 Y131.291 E1.0
G1 X110.921 Y130.173 E1.0
G1 X108.357 Y128.839 E1.0
G1 X105.891 Y127.267 E1.0
G1 X103.606 Y125.515 E1.0
G1 X101.456 Y123.544 E1.0
G1 X99.485 Y121.394 E1.0
G1 X97.733 Y119.109 E1.0
G1 X96.161 Y116.643 E1.0
G1 X94.827 Y114.079 E1.0
G1 X93.709 Y111.382 E1.0
G1 X92.847 Y108.643 E1.0
G1 X92.21 Y105.77 E1.0
G1 X91.832 Y102.895 E1.0
G1 X91.703 Y100 E1.0
G1 X91.832 Y97.105 E1.0
G1 X92.21 Y94.23 E1.0
G1 X92.847 Y91.357 E1.0
G1 X93.709 Y88.618 E1.0
G1 X94.827 Y85.921 E1.0
G1 X96.161 Y83.357 E1.0
G1 X97.733 Y80.891 E1.0
G1 X99.485 Y78.606 E1.0
;Layer end: 8

G0 X96.735 Y76.278 Z7.2 ;Layer Change Transition Move

;Layer: 9 @ Z7.2
;TYPE:WALL-OUTER
;Curve: 9-1 @ Z7.2
G1 X98.907 Y73.907 E1.0 F1000.0
G1 X101.278 Y71.735 E1.0
G1 X103.836 Y69.773 E1.0
G1 X106.55 Y68.044 E1.0
G1 X109.409 Y66.555 E1.0
G1 X112.377 Y65.327 E1.0
G1 X115.443 Y64.36 E1.0
G1 X118.594 Y63.661 E1.0
G1 X121.79 Y63.241 E1.0
G1 X125 Y63.1 E1.0
G1 X128.21 Y63.241 E1.0
G1 X131.406 Y63.661 E1.0
G1 X134.557 Y64.36 E1.0
G1 X137.623 Y65.327 E1.0
G1 X140.591 Y66.555 E1.0
G1 X143.45 Y68.044 E1.0
G1 X146.164 Y69.773 E1.0
G1 X148.722 Y71.735 E1.0
G1 X151.093 Y73.907 E1.0
G1 X153.265 Y76.278 E1.0
G1 X155.227 Y78.836 E1.0
G1 X156.956 Y81.55 E1.0
G1 X158.445 Y84.409 E1.0
G1 X159.673 Y87.377 E1.0
G1 X160.64 Y90.443 E1.0
G1 X161.339 Y93.594 E1.0
G1 X161.759 Y96.79 E1.0
G1 X161.9 Y100 E1.0
G1 X161.759 Y103.21 E1.0
G1 X161.339 Y106.406 E1.0
G1 X160.64 Y109.557 E1.0
G1 X159.673 Y112.623 E1.0
G1 X158.445 Y115.591 E1.0
G1 X156.956 Y118.45 E1.0
G1 X155.227 Y121.164 E1.0
G1 X153.265 Y123.722 E1.0
G1 X151.093 Y126.093 E1.0
G1 X148.722 Y128.265 E1.0
G1 X146.164 Y130.227 E1.0
G1 X143.45 Y131.956 E1.0
G1 X140.591 Y133.445 E1.0
G1 X137.623 Y134.673 E1.0
G1 X134.557 Y135.64 E1.0
G1 X131.406 Y136.339 E1.0
G1 X128.21 Y136.759 E1.0
G1 X125 Y136.9 E1.0
G1 X121.79 Y136.759 E1.0
G1 X118.594 Y136.339 E1.0
G1 X115.443 Y135.64 E1.0
G1 X112.377 Y134.673 E1.0
G1 X109.409 Y133.445 E1.0
G1 X106.55 Y131.956 E1.0
G1 X103.836 Y130.227 E1.0
G1 X101.278 Y128.265 E1.0
G1 X98.907 Y126.093 E1.0
G1 X96.735 Y123.722 E1.0
G1 X94.773 Y121.164 E1.0
G1 X93.044 Y118.45 E1.0
G1 X91.555 Y115.591 E1.0
G1 X90.327 Y112.623 E1.0
G1 X89.36 Y109.557 E1.0
G1 X88.661 Y106.406 E1.0
G1 X88.241 Y103.21 E1.0
G1 X88.1 Y100 E1.0
G1 X88.241 Y96.79 E1.0
G1 X88.661 Y93.594 E1.0
G1 X89.36 Y90.443 E1.0
G1 X90.327 Y87.377 E1.0
G1 X91.555 Y84.409 E1.0
G1 X93.044 Y81.55 E1.0
G1 X94.773 Y78.836 E1.0
G1 X96.735 Y76.278 E1.0
;Curves end: 9-1 @ Z7.2

G0 X97.65 Y77.056 ;Move To

;Curve: 9-2 @ Z7.2
;TYPE:WALL-INNER
G1 X99.757 Y74.757 E1.0 F1000.0
G1 X102.056 Y72.65 E1.0
G1 X104.521 Y70.76 E1.0
G1 X107.155 Y69.081 E1.0
G1 X109.91 Y67.647 E1.0
G1 X112.794 Y66.453 E1.0
G1 X115.744 Y65.523 E1.0
G1 X118.806 Y64.844 E1.0
G1 X121.895 Y64.438 E1.0
G1 X125 Y64.301 E1.0
G1 X128.105 Y64.438 E1.0
G1 X131.194 Y64.844 E1.0
G1 X134.256 Y65.523 E1.0
G1 X137.206 Y66.453 E1.0
G1 X140.09 Y67.647 E1.0
G1 X142.845 Y69.081 E1.0
G1 X145.479 Y70.76 E1.0
G1 X147.944 Y72.65 E1.0
G1 X150.243 Y74.757 E1.0
G1 X152.35 Y77.056 E1.0
G1 X154.24 Y79.521 E1.0
G1 X155.919 Y82.155 E1.0
G1 X157.353 Y84.91 E1.0
G1 X158.547 Y87.794 E1.0
G1 X159.477 Y90.744 E1.0
G1 X160.156 Y93.806 E1.0
G1 X160.562 Y96.895 E1.0
G1 X160.699 Y100 E1.0
G1 X160.562 Y103.105 E1.0
G1 X160.156 Y106.194 E1.0
G1 X159.477 Y109.256 E1.0
G1 X158.547 Y112.206 E1.0
G1 X157.353 Y115.09 E1.0
G1 X155.919 Y117.845 E1.0
G1 X154.24 Y120.479 E1.0
G1 X152.35 Y122.944 E1.0
G1 X150.243 Y125.243 E1.0
G1 X147.944 Y127.35 E1.0
G1 X145.479 Y129.24 E1.0
G1 X142.845 Y130.919 E1.0
G1 X140.09 Y132.353 E1.0
G1 X137.206 Y133.547 E1.0
G1 X134.256 Y134.477 E1.0
G1 X131.194 Y135.156 E1.0
G1 X128.105 Y135.562 E1.0
G1 X125 Y135.699 E1.0
G1 X121.895 Y135.562 E1.0
G1 X118.806 Y135.156 E1.0
G1 X115.744 Y134.477 E1.0
G1 X112.794 Y133.547 E1.0
G1 X109.91 Y132.353 E1.0
G1 X107.155 Y130.919 E1.0
G1 X104.521 Y129.24 E1.0
G1 X102.056 Y127.35 E1.0
G1 X99.757 Y125.243 E1.0
G1 X97.65 Y122.944 E1.0
G1 X95.76 Y120.479 E1.0
G1 X94.081 Y117.845 E1.0
G1 X92.647 Y115.09 E1.0
G1 X91.453 Y112.206 E1.0
G1 X90.523 Y109.256 E1.0
G1 X89.844 Y106.194 E1.0
G1 X89.438 Y103.105 E1.0
G1 X89.301 Y100 E1.0
G1 X89.438 Y96.895 E1.0
G1 X89.844 Y93.806 E1.0
G1 X90.523 Y90.744 E1.0
G1 X91.453 Y87.794 E1.0
G1 X92.647 Y84.91 E1.0
G1 X94.081 Y82.155 E1.0
G1 X95.76 Y79.521 E1.0
G1 X97.65 Y77.056 E1.0
;Curves end: 9-2 @ Z7.2

G0 X98.565 Y77.834 ;Move To

;Curve: 9-3 @ Z7.2
G1 X100.607 Y75.607 E1.0 F1000.0
G1 X102.834 Y73.565 E1.0
G1 X105.206 Y71.747 E1.0
G1 X107.76 Y70.118 E1.0
G1 X110.411 Y68.739 E1.0
G1 X113.211 Y67.579 E1.0
G1 X116.045 Y66.686 E1.0
G1 X119.018 Y66.027 E1.0
G1 X122 Y65.635 E1.0
G1 X125 Y65.502 E1.0
G1 X128 Y65.635 E1.0
G1 X130.982 Y66.027 E1.0
G1 X133.955 Y66.686 E1.0
G1 X136.789 Y67.579 E1.0
G1 X139.589 Y68.739 E1.0
G1 X142.24 Y70.118 E1.0
G1 X144.794 Y71.747 E1.0
G1 X147.166 Y73.565 E1.0
G1 X149.393 Y75.607 E1.0
G1 X151.435 Y77.834 E1.0
G1 X153.253 Y80.206 E1.0
G1 X154.882 Y82.76 E1.0
G1 X156.261 Y85.411 E1.0
G1 X157.421 Y88.211 E1.0
G1 X158.314 Y91.045 E1.0
G1 X158.973 Y94.018 E1.0
G1 X159.365 Y97 E1.0
G1 X159.498 Y100 E1.0
G1 X159.365 Y103 E1.0
G1 X158.973 Y105.982 E1.0
G1 X158.314 Y108.955 E1.0
G1 X157.421 Y111.789 E1.0
G1 X156.261 Y114.589 E1.0
G1 X154.882 Y117.24 E1.0
G1 X153.253 Y119.794 E1.0
G1 X151.435 Y122.166 E1.0
G1 X149.393 Y124.393 E1.0
G1 X147.166 Y126.435 E1.0
G1 X144.794 Y128.253 E1.0
G1 X142.24 Y129.882 E1.0
G1 X139.589 Y131.261 E1.0
G1 X136.789 Y132.421 E1.0
G1 X133.955 Y133.314 E1.0
G1 X130.982 Y133.973 E1.0
G1 X128 Y134.365 E1.0
G1 X125 Y134.498 E1.0
G1 X122 Y134.365 E1.0
G1 X119.018 Y133.973 E1.0
G1 X116.045 Y133.314 E1.0
G1 X113.211 Y132.421 E1.0
G1 X110.411 Y131.261 E1.0
G1 X107.76 Y129.882 E1.0
G1 X105.206 Y128.253 E1.0
G1 X102.834 Y126.435 E1.0
G1 X100.607 Y124.393 E1.0
G1 X98.565 Y122.166 E1.0
G1 X96.747 Y119.794 E1.0
G1 X95.118 Y117.24 E1.0
G1 X93.739 Y114.589 E1.0
G1 X92.579 Y111.789 E1.0
G1 X91.686 Y108.955 E1.0
G1 X91.027 Y105.982 E1.0
G1 X90.635 Y103 E1.0
G1 X90.502 Y100 E1.0
G1 X90.635 Y97 E1.0
G1 X91.027 Y94.018 E1.0
G1 X91.686 Y91.045 E1.0
G1 X92.579 Y88.211 E1.0
G1 X93.739 Y85.411 E1.0
G1 X95.118 Y82.76 E1.0
G1 X96.747 Y80.206 E1.0
G1 X98.565 Y77.834 E1.0
;Curves end: 9-3 @ Z7.2

G0 X99.485 Y78.606 ;Move To

;Curve: 9-4 @ Z7.2
G1 X101.456 Y76.456 E1.0 F1000.0
G1 X103.606 Y74.485 E1.0
G1 X105.891 Y72.733 E1.0
G1 X108.357 Y71.161 E1.0
G1 X110.921 Y69.827 E1.0
G1 X113.618 Y68.709 E1.0
G1 X116.357 Y67.847 E1.0
G1 X119.23 Y67.21 E1.0
G1 X122.105 Y66.832 E1.0
G1 X125 Y66.703 E1.0
G1 X127.895 Y66.832 E1.0
G1 X130.77 Y67.21 E1.0
G1 X133.643 Y67.847 E1.0
G1 X136.382 Y68.709 E1.0
G1 X139.079 Y69.827 E1.0
G1 X141.643 Y71.161 E1.0
G1 X144.109 Y72.733 E1.0
G1 X146.394 Y74.485 E1.0
G1 X148.544 Y76.456 E1.0
G1 X150.515 Y78.606 E1.0
G1 X152.267 Y80.891 E1.0
G1 X153.839 Y83.357 E1.0
G1 X155.173 Y85.921 E1.0
G1 X156.291 Y88.618 E1.0
G1 X157.153 Y91.357 E1.0
G1 X157.79 Y94.23 E1.0
G1 X158.168 Y97.105 E1.0
G1 X158.297 Y100 E1.0
G1 X158.168 Y102.895 E1.0
G1 X157.79 Y105.77 E1.0
G1 X157.153 Y108.643 E1.0
G1 X156.291 Y111.382 E1.0
G1 X155.173 Y114.079 E1.0
G1 X153.839 Y116.643 E1.0
G1 X152.267 Y119.109 E1.0
G1 X150.515 Y121.394 E1.0
G1 X148.544 Y123.544 E1.0
G1 X146.394 Y125.515 E1.0
G1 X144.109 Y127.267 E1.0
G1 X141.643 Y128.839 E1.0
G1 X139.079 Y130.173 E1.0
G1 X136.382 Y131.291 E1.0
G1 X133.643 Y132.153 E1.0
G1 X130.77 Y132.79 E1.0
G1 X127.895 Y133.168 E1.0
G1 X125 Y133.297 E1.0
G1 X122.105 Y133.168 E1.0
G1 X119.23 Y132.79 E1.0
G1 X116.357 Y132.153 E1.0
G1 X113.618 Y131.291 E1.0
G1 X110.921 Y130.173 E1.0
G1 X108.357 Y128.839 E1.0
G1 X105.891 Y127.267 E1.0
G1 X103.606 Y125.515 E1.0
G1 X101.456 Y123.544 E1.0
G1 X99.485 Y121.394 E1.0
G1 X97.733 Y119.109 E1.0
G1 X96.161 Y116.643 E1.0
G1 X94.827 Y114.079 E1.0
G1 X93.709 Y111.382 E1.0
G1 X92.847 Y108.643 E1.0
G1 X92.21 Y105.77 E1.0
G1 X91.832 Y102.895 E1.0
G1 X91.703 Y100 E1.0
G1 X91.832 Y97.105 E1.0
G1 X92.21 Y94.23 E1.0
G1 X92.847 Y91.357 E1.0
G1 X93.709 Y88.618 E1.0
G1 X94.827 Y85.921 E1.0
G1 X96.161 Y83.357 E1.0
G1 X97.733 Y80.891 E1.0
G1 X99.485 Y78.606 E1.0
;Layer end: 9

G0 X96.735 Y76.278 Z8.0 ;Layer Change Transition Move

;Layer: 10 @ Z8.0
;TYPE:WALL-OUTER
;Curve: 10-1 @ Z8.0
G1 X98.907 Y73.907 E1.0 F1000.0
G1 X101.278 Y71.735 E1.0
G1 X103.836 Y69.773 E1.0
G1 X106.55 Y68.044 E1.0
G1 X109.409 Y66.555 E1.0
G1 X112.377 Y65.327 E1.0
G1 X115.443 Y64.36 E1.0
G1 X118.594 Y63.661 E1.0
G1 X121.79 Y63.241 E1.0
G1 X125 Y63.1 E1.0
G1 X128.21 Y63.241 E1.0
G1 X131.406 Y63.661 E1.0
G1 X134.557 Y64.36 E1.0
G1 X137.623 Y65.327 E1.0
G1 X140.591 Y66.555 E1.0
G1 X143.45 Y68.044 E1.0
G1 X146.164 Y69.773 E1.0
G1 X148.722 Y71.735 E1.0
G1 X151.093 Y73.907 E1.0
G1 X153.265 Y76.278 E1.0
G1 X155.227 Y78.836 E1.0
G1 X156.956 Y81.55 E1.0
G1 X158.445 Y84.409 E1.0
G1 X159.673 Y87.377 E1.0
G1 X160.64 Y90.443 E1.0
G1 X161.339 Y93.594 E1.0
G1 X161.759 Y96.79 E1.0
G1 X161.9 Y100 E1.0
G1 X161.759 Y103.21 E1.0
G1 X161.339 Y106.406 E1.0
G1 X160.64 Y109.557 E1.0
G1 X159.673 Y112.623 E1.0
G1 X158.445 Y115.591 E1.0
G1 X156.956 Y118.45 E1.0
G1 X155.227 Y121.164 E1.0
G1 X153.265 Y123.722 E1.0
G1 X151.093 Y126.093 E1.0
G1 X148.722 Y128.265 E1.0
G1 X146.164 Y130.227 E1.0
G1 X143.45 Y131.956 E1.0
G1 X140.591 Y133.445 E1.0
G1 X137.623 Y134.673 E1.0
G1 X134.557 Y135.64 E1.0
G1 X131.406 Y136.339 E1.0
G1 X128.21 Y136.759 E1.0
G1 X125 Y136.9 E1.0
G1 X121.79 Y136.759 E1.0
G1 X118.594 Y136.339 E1.0
G1 X115.443 Y135.64 E1.0
G1 X112.377 Y134.673 E1.0
G1 X109.409 Y133.445 E1.0
G1 X106.55 Y131.956 E1.0
G1 X103.836 Y130.227 E1.0
G1 X101.278 Y128.265 E1.0
G1 X98.907 Y126.093 E1.0
G1 X96.735 Y123.722 E1.0
G1 X94.773 Y121.164 E1.0
G1 X93.044 Y118.45 E1.0
G1 X91.555 Y115.591 E1.0
G1 X90.327 Y112.623 E1.0
G1 X89.36 Y109.557 E1.0
G1 X88.661 Y106.406 E1.0
G1 X88.241 Y103.21 E1.0
G1 X88.1 Y100 E1.0
G1 X88.241 Y96.79 E1.0
G1 X88.661 Y93.594 E1.0
G1 X89.36 Y90.443 E1.0
G1 X90.327 Y87.377 E1.0
G1 X91.555 Y84.409 E1.0
G1 X93.044 Y81.55 E1.0
G1 X94.773 Y78.836 E1.0
G1 X96.735 Y76.278 E1.0
;Curves end: 10-1 @ Z8.0

G0 X97.65 Y77.056 ;Move To

;Curve: 10-2 @ Z8.0
;TYPE:WALL-INNER
G1 X99.757 Y74.757 E1.0 F1000.0
G1 X102.056 Y72.65 E1.0
G1 X104.521 Y70.76 E1.0
G1 X107.155 Y69.081 E1.0
G1 X109.91 Y67.647 E1.0
G1 X112.794 Y66.453 E1.0
G1 X115.744 Y65.523 E1.0
G1 X118.806 Y64.844 E1.0
G1 X121.895 Y64.438 E1.0
G1 X125 Y64.301 E1.0
G1 X128.105 Y64.438 E1.0
G1 X131.194 Y64.844 E1.0
G1 X134.256 Y65.523 E1.0
G1 X137.206 Y66.453 E1.0
G1 X140.09 Y67.647 E1.0
G1 X142.845 Y69.081 E1.0
G1 X145.479 Y70.76 E1.0
G1 X147.944 Y72.65 E1.0
G1 X150.243 Y74.757 E1.0
G1 X152.35 Y77.056 E1.0
G1 X154.24 Y79.521 E1.0
G1 X155.919 Y82.155 E1.0
G1 X157.353 Y84.91 E1.0
G1 X158.547 Y87.794 E1.0
G1 X159.477 Y90.744 E1.0
G1 X160.156 Y93.806 E1.0
G1 X160.562 Y96.895 E1.0
G1 X160.699 Y100 E1.0
G1 X160.562 Y103.105 E1.0
G1 X160.156 Y106.194 E1.0
G1 X159.477 Y109.256 E1.0
G1 X158.547 Y112.206 E1.0
G1 X157.353 Y115.09 E1.0
G1 X155.919 Y117.845 E1.0
G1 X154.24 Y120.479 E1.0
G1 X152.35 Y122.944 E1.0
G1 X150.243 Y125.243 E1.0
G1 X147.944 Y127.35 E1.0
G1 X145.479 Y129.24 E1.0
G1 X142.845 Y130.919 E1.0
G1 X140.09 Y132.353 E1.0
G1 X137.206 Y133.547 E1.0
G1 X134.256 Y134.477 E1.0
G1 X131.194 Y135.156 E1.0
G1 X128.105 Y135.562 E1.0
G1 X125 Y135.699 E1.0
G1 X121.895 Y135.562 E1.0
G1 X118.806 Y135.156 E1.0
G1 X115.744 Y134.477 E1.0
G1 X112.794 Y133.547 E1.0
G1 X109.91 Y132.353 E1.0
G1 X107.155 Y130.919 E1.0
G1 X104.521 Y129.24 E1.0
G1 X102.056 Y127.35 E1.0
G1 X99.757 Y125.243 E1.0
G1 X97.65 Y122.944 E1.0
G1 X95.76 Y120.479 E1.0
G1 X94.081 Y117.845 E1.0
G1 X92.647 Y115.09 E1.0
G1 X91.453 Y112.206 E1.0
G1 X90.523 Y109.256 E1.0
G1 X89.844 Y106.194 E1.0
G1 X89.438 Y103.105 E1.0
G1 X89.301 Y100 E1.0
G1 X89.438 Y96.895 E1.0
G1 X89.844 Y93.806 E1.0
G1 X90.523 Y90.744 E1.0
G1 X91.453 Y87.794 E1.0
G1 X92.647 Y84.91 E1.0
G1 X94.081 Y82.155 E1.0
G1 X95.76 Y79.521 E1.0
G1 X97.65 Y77.056 E1.0
;Curves end: 10-2 @ Z8.0

G0 X98.565 Y77.834 ;Move To

;Curve: 10-3 @ Z8.0
G1 X100.607 Y75.607 E1.0 F1000.0
G1 X102.834 Y73.565 E1.0
G1 X105.206 Y71.747 E1.0
G1 X107.76 Y70.118 E1.0
G1 X110.411 Y68.739 E1.0
G1 X113.211 Y67.579 E1.0
G1 X116.045 Y66.686 E1.0
G1 X119.018 Y66.027 E1.0
G1 X122 Y65.635 E1.0
G1 X125 Y65.502 E1.0
G1 X128 Y65.635 E1.0
G1 X130.982 Y66.027 E1.0
G1 X133.955 Y66.686 E1.0
G1 X136.789 Y67.579 E1.0
G1 X139.589 Y68.739 E1.0
G1 X142.24 Y70.118 E1.0
G1 X144.794 Y71.747 E1.0
G1 X147.166 Y73.565 E1.0
G1 X149.393 Y75.607 E1.0
G1 X151.435 Y77.834 E1.0
G1 X153.253 Y80.206 E1.0
G1 X154.882 Y82.76 E1.0
G1 X156.261 Y85.411 E1.0
G1 X157.421 Y88.211 E1.0
G1 X158.314 Y91.045 E1.0
G1 X158.973 Y94.018 E1.0
G1 X159.365 Y97 E1.0
G1 X159.498 Y100 E1.0
G1 X159.365 Y103 E1.0
G1 X158.973 Y105.982 E1.0
G1 X158.314 Y108.955 E1.0
G1 X157.421 Y111.789 E1.0
G1 X156.261 Y114.589 E1.0
G1 X154.882 Y117.24 E1.0
G1 X153.253 Y119.794 E1.0
G1 X151.435 Y122.166 E1.0
G1 X149.393 Y124.393 E1.0
G1 X147.166 Y126.435 E1.0
G1 X144.794 Y128.253 E1.0
G1 X142.24 Y129.882 E1.0
G1 X139.589 Y131.261 E1.0
G1 X136.789 Y132.421 E1.0
G1 X133.955 Y133.314 E1.0
G1 X130.982 Y133.973 E1.0
G1 X128 Y134.365 E1.0
G1 X125 Y134.498 E1.0
G1 X122 Y134.365 E1.0
G1 X119.018 Y133.973 E1.0
G1 X116.045 Y133.314 E1.0
G1 X113.211 Y132.421 E1.0
G1 X110.411 Y131.261 E1.0
G1 X107.76 Y129.882 E1.0
G1 X105.206 Y128.253 E1.0
G1 X102.834 Y126.435 E1.0
G1 X100.607 Y124.393 E1.0
G1 X98.565 Y122.166 E1.0
G1 X96.747 Y119.794 E1.0
G1 X95.118 Y117.24 E1.0
G1 X93.739 Y114.589 E1.0
G1 X92.579 Y111.789 E1.0
G1 X91.686 Y108.955 E1.0
G1 X91.027 Y105.982 E1.0
G1 X90.635 Y103 E1.0
G1 X90.502 Y100 E1.0
G1 X90.635 Y97 E1.0
G1 X91.027 Y94.018 E1.0
G1 X91.686 Y91.045 E1.0
G1 X92.579 Y88.211 E1.0
G1 X93.739 Y85.411 E1.0
G1 X95.118 Y82.76 E1.0
G1 X96.747 Y80.206 E1.0
G1 X98.565 Y77.834 E1.0
;Curves end: 10-3 @ Z8.0

G0 X99.485 Y78.606 ;Move To

;Curve: 10-4 @ Z8.0
G1 X101.456 Y76.456 E1.0 F1000.0
G1 X103.606 Y74.485 E1.0
G1 X105.891 Y72.733 E1.0
G1 X108.357 Y71.161 E1.0
G1 X110.921 Y69.827 E1.0
G1 X113.618 Y68.709 E1.0
G1 X116.357 Y67.847 E1.0
G1 X119.23 Y67.21 E1.0
G1 X122.105 Y66.832 E1.0
G1 X125 Y66.703 E1.0
G1 X127.895 Y66.832 E1.0
G1 X130.77 Y67.21 E1.0
G1 X133.643 Y67.847 E1.0
G1 X136.382 Y68.709 E1.0
G1 X139.079 Y69.827 E1.0
G1 X141.643 Y71.161 E1.0
G1 X144.109 Y72.733 E1.0
G1 X146.394 Y74.485 E1.0
G1 X148.544 Y76.456 E1.0
G1 X150.515 Y78.606 E1.0
G1 X152.267 Y80.891 E1.0
G1 X153.839 Y83.357 E1.0
G1 X155.173 Y85.921 E1.0
G1 X156.291 Y88.618 E1.0
G1 X157.153 Y91.357 E1.0
G1 X157.79 Y94.23 E1.0
G1 X158.168 Y97.105 E1.0
G1 X158.297 Y100 E1.0
G1 X158.168 Y102.895 E1.0
G1 X157.79 Y105.77 E1.0
G1 X157.153 Y108.643 E1.0
G1 X156.291 Y111.382 E1.0
G1 X155.173 Y114.079 E1.0
G1 X153.839 Y116.643 E1.0
G1 X152.267 Y119.109 E1.0
G1 X150.515 Y121.394 E1.0
G1 X148.544 Y123.544 E1.0
G1 X146.394 Y125.515 E1.0
G1 X144.109 Y127.267 E1.0
G1 X141.643 Y128.839 E1.0
G1 X139.079 Y130.173 E1.0
G1 X136.382 Y131.291 E1.0
G1 X133.643 Y132.153 E1.0
G1 X130.77 Y132.79 E1.0
G1 X127.895 Y133.168 E1.0
G1 X125 Y133.297 E1.0
G1 X122.105 Y133.168 E1.0
G1 X119.23 Y132.79 E1.0
G1 X116.357 Y132.153 E1.0
G1 X113.618 Y131.291 E1.0
G1 X110.921 Y130.173 E1.0
G1 X108.357 Y128.839 E1.0
G1 X105.891 Y127.267 E1.0
G1 X103.606 Y125.515 E1.0
G1 X101.456 Y123.544 E1.0
G1 X99.485 Y121.394 E1.0
G1 X97.733 Y119.109 E1.0
G1 X96.161 Y116.643 E1.0
G1 X94.827 Y114.079 E1.0
G1 X93.709 Y111.382 E1.0
G1 X92.847 Y108.643 E1.0
G1 X92.21 Y105.77 E1.0
G1 X91.832 Y102.895 E1.0
G1 X91.703 Y100 E1.0
G1 X91.832 Y97.105 E1.0
G1 X92.21 Y94.23 E1.0
G1 X92.847 Y91.357 E1.0
G1 X93.709 Y88.618 E1.0
G1 X94.827 Y85.921 E1.0
G1 X96.161 Y83.357 E1.0
G1 X97.733 Y80.891 E1.0
G1 X99.485 Y78.606 E1.0
;Layer end: 10

G0 X96.735 Y76.278 Z8.8 ;Layer Change Transition Move

;Layer: 11 @ Z8.8
;TYPE:WALL-OUTER
;Curve: 11-1 @ Z8.8
G1 X98.907 Y73.907 E1.0 F1000.0
G1 X101.278 Y71.735 E1.0
G1 X103.836 Y69.773 E1.0
G1 X106.55 Y68.044 E1.0
G1 X109.409 Y66.555 E1.0
G1 X112.377 Y65.327 E1.0
G1 X115.443 Y64.36 E1.0
G1 X118.594 Y63.661 E1.0
G1 X121.79 Y63.241 E1.0
G1 X125 Y63.1 E1.0
G1 X128.21 Y63.241 E1.0
G1 X131.406 Y63.661 E1.0
G1 X134.557 Y64.36 E1.0
G1 X137.623 Y65.327 E1.0
G1 X140.591 Y66.555 E1.0
G1 X143.45 Y68.044 E1.0
G1 X146.164 Y69.773 E1.0
G1 X148.722 Y71.735 E1.0
G1 X151.093 Y73.907 E1.0
G1 X153.265 Y76.278 E1.0
G1 X155.227 Y78.836 E1.0
G1 X156.956 Y81.55 E1.0
G1 X158.445 Y84.409 E1.0
G1 X159.673 Y87.377 E1.0
G1 X160.64 Y90.443 E1.0
G1 X161.339 Y93.594 E1.0
G1 X161.759 Y96.79 E1.0
G1 X161.9 Y100 E1.0
G1 X161.759 Y103.21 E1.0
G1 X161.339 Y106.406 E1.0
G1 X160.64 Y109.557 E1.0
G1 X159.673 Y112.623 E1.0
G1 X158.445 Y115.591 E1.0
G1 X156.956 Y118.45 E1.0
G1 X155.227 Y121.164 E1.0
G1 X153.265 Y123.722 E1.0
G1 X151.093 Y126.093 E1.0
G1 X148.722 Y128.265 E1.0
G1 X146.164 Y130.227 E1.0
G1 X143.45 Y131.956 E1.0
G1 X140.591 Y133.445 E1.0
G1 X137.623 Y134.673 E1.0
G1 X134.557 Y135.64 E1.0
G1 X131.406 Y136.339 E1.0
G1 X128.21 Y136.759 E1.0
G1 X125 Y136.9 E1.0
G1 X121.79 Y136.759 E1.0
G1 X118.594 Y136.339 E1.0
G1 X115.443 Y135.64 E1.0
G1 X112.377 Y134.673 E1.0
G1 X109.409 Y133.445 E1.0
G1 X106.55 Y131.956 E1.0
G1 X103.836 Y130.227 E1.0
G1 X101.278 Y128.265 E1.0
G1 X98.907 Y126.093 E1.0
G1 X96.735 Y123.722 E1.0
G1 X94.773 Y121.164 E1.0
G1 X93.044 Y118.45 E1.0
G1 X91.555 Y115.591 E1.0
G1 X90.327 Y112.623 E1.0
G1 X89.36 Y109.557 E1.0
G1 X88.661 Y106.406 E1.0
G1 X88.241 Y103.21 E1.0
G1 X88.1 Y100 E1.0
G1 X88.241 Y96.79 E1.0
G1 X88.661 Y93.594 E1.0
G1 X89.36 Y90.443 E1.0
G1 X90.327 Y87.377 E1.0
G1 X91.555 Y84.409 E1.0
G1 X93.044 Y81.55 E1.0
G1 X94.773 Y78.836 E1.0
G1 X96.735 Y76.278 E1.0
;Curves end: 11-1 @ Z8.8

G0 X97.65 Y77.056 ;Move To

;Curve: 11-2 @ Z8.8
;TYPE:WALL-INNER
G1 X99.757 Y74.757 E1.0 F1000.0
G1 X102.056 Y72.65 E1.0
G1 X104.521 Y70.76 E1.0
G1 X107.155 Y69.081 E1.0
G1 X109.91 Y67.647 E1.0
G1 X112.794 Y66.453 E1.0
G1 X115.744 Y65.523 E1.0
G1 X118.806 Y64.844 E1.0
G1 X121.895 Y64.438 E1.0
G1 X125 Y64.301 E1.0
G1 X128.105 Y64.438 E1.0
G1 X131.194 Y64.844 E1.0
G1 X134.256 Y65.523 E1.0
G1 X137.206 Y66.453 E1.0
G1 X140.09 Y67.647 E1.0
G1 X142.845 Y69.081 E1.0
G1 X145.479 Y70.76 E1.0
G1 X147.944 Y72.65 E1.0
G1 X150.243 Y74.757 E1.0
G1 X152.35 Y77.056 E1.0
G1 X154.24 Y79.521 E1.0
G1 X155.919 Y82.155 E1.0
G1 X157.353 Y84.91 E1.0
G1 X158.547 Y87.794 E1.0
G1 X159.477 Y90.744 E1.0
G1 X160.156 Y93.806 E1.0
G1 X160.562 Y96.895 E1.0
G1 X160.699 Y100 E1.0
G1 X160.562 Y103.105 E1.0
G1 X160.156 Y106.194 E1.0
G1 X159.477 Y109.256 E1.0
G1 X158.547 Y112.206 E1.0
G1 X157.353 Y115.09 E1.0
G1 X155.919 Y117.845 E1.0
G1 X154.24 Y120.479 E1.0
G1 X152.35 Y122.944 E1.0
G1 X150.243 Y125.243 E1.0
G1 X147.944 Y127.35 E1.0
G1 X145.479 Y129.24 E1.0
G1 X142.845 Y130.919 E1.0
G1 X140.09 Y132.353 E1.0
G1 X137.206 Y133.547 E1.0
G1 X134.256 Y134.477 E1.0
G1 X131.194 Y135.156 E1.0
G1 X128.105 Y135.562 E1.0
G1 X125 Y135.699 E1.0
G1 X121.895 Y135.562 E1.0
G1 X118.806 Y135.156 E1.0
G1 X115.744 Y134.477 E1.0
G1 X112.794 Y133.547 E1.0
G1 X109.91 Y132.353 E1.0
G1 X107.155 Y130.919 E1.0
G1 X104.521 Y129.24 E1.0
G1 X102.056 Y127.35 E1.0
G1 X99.757 Y125.243 E1.0
G1 X97.65 Y122.944 E1.0
G1 X95.76 Y120.479 E1.0
G1 X94.081 Y117.845 E1.0
G1 X92.647 Y115.09 E1.0
G1 X91.453 Y112.206 E1.0
G1 X90.523 Y109.256 E1.0
G1 X89.844 Y106.194 E1.0
G1 X89.438 Y103.105 E1.0
G1 X89.301 Y100 E1.0
G1 X89.438 Y96.895 E1.0
G1 X89.844 Y93.806 E1.0
G1 X90.523 Y90.744 E1.0
G1 X91.453 Y87.794 E1.0
G1 X92.647 Y84.91 E1.0
G1 X94.081 Y82.155 E1.0
G1 X95.76 Y79.521 E1.0
G1 X97.65 Y77.056 E1.0
;Curves end: 11-2 @ Z8.8

G0 X98.565 Y77.834 ;Move To

;Curve: 11-3 @ Z8.8
G1 X100.607 Y75.607 E1.0 F1000.0
G1 X102.834 Y73.565 E1.0
G1 X105.206 Y71.747 E1.0
G1 X107.76 Y70.118 E1.0
G1 X110.411 Y68.739 E1.0
G1 X113.211 Y67.579 E1.0
G1 X116.045 Y66.686 E1.0
G1 X119.018 Y66.027 E1.0
G1 X122 Y65.635 E1.0
G1 X125 Y65.502 E1.0
G1 X128 Y65.635 E1.0
G1 X130.982 Y66.027 E1.0
G1 X133.955 Y66.686 E1.0
G1 X136.789 Y67.579 E1.0
G1 X139.589 Y68.739 E1.0
G1 X142.24 Y70.118 E1.0
G1 X144.794 Y71.747 E1.0
G1 X147.166 Y73.565 E1.0
G1 X149.393 Y75.607 E1.0
G1 X151.435 Y77.834 E1.0
G1 X153.253 Y80.206 E1.0
G1 X154.882 Y82.76 E1.0
G1 X156.261 Y85.411 E1.0
G1 X157.421 Y88.211 E1.0
G1 X158.314 Y91.045 E1.0
G1 X158.973 Y94.018 E1.0
G1 X159.365 Y97 E1.0
G1 X159.498 Y100 E1.0
G1 X159.365 Y103 E1.0
G1 X158.973 Y105.982 E1.0
G1 X158.314 Y108.955 E1.0
G1 X157.421 Y111.789 E1.0
G1 X156.261 Y114.589 E1.0
G1 X154.882 Y117.24 E1.0
G1 X153.253 Y119.794 E1.0
G1 X151.435 Y122.166 E1.0
G1 X149.393 Y124.393 E1.0
G1 X147.166 Y126.435 E1.0
G1 X144.794 Y128.253 E1.0
G1 X142.24 Y129.882 E1.0
G1 X139.589 Y131.261 E1.0
G1 X136.789 Y132.421 E1.0
G1 X133.955 Y133.314 E1.0
G1 X130.982 Y133.973 E1.0
G1 X128 Y134.365 E1.0
G1 X125 Y134.498 E1.0
G1 X122 Y134.365 E1.0
G1 X119.018 Y133.973 E1.0
G1 X116.045 Y133.314 E1.0
G1 X113.211 Y132.421 E1.0
G1 X110.411 Y131.261 E1.0
G1 X107.76 Y129.882 E1.0
G1 X105.206 Y128.253 E1.0
G1 X102.834 Y126.435 E1.0
G1 X100.607 Y124.393 E1.0
G1 X98.565 Y122.166 E1.0
G1 X96.747 Y119.794 E1.0
G1 X95.118 Y117.24 E1.0
G1 X93.739 Y114.589 E1.0
G1 X92.579 Y111.789 E1.0
G1 X91.686 Y108.955 E1.0
G1 X91.027 Y105.982 E1.0
G1 X90.635 Y103 E1.0
G1 X90.502 Y100 E1.0
G1 X90.635 Y97 E1.0
G1 X91.027 Y94.018 E1.0
G1 X91.686 Y91.045 E1.0
G1 X92.579 Y88.211 E1.0
G1 X93.739 Y85.411 E1.0
G1 X95.118 Y82.76 E1.0
G1 X96.747 Y80.206 E1.0
G1 X98.565 Y77.834 E1.0
;Curves end: 11-3 @ Z8.8

G0 X99.485 Y78.606 ;Move To

;Curve: 11-4 @ Z8.8
G1 X101.456 Y76.456 E1.0 F1000.0
G1 X103.606 Y74.485 E1.0
G1 X105.891 Y72.733 E1.0
G1 X108.357 Y71.161 E1.0
G1 X110.921 Y69.827 E1.0
G1 X113.618 Y68.709 E1.0
G1 X116.357 Y67.847 E1.0
G1 X119.23 Y67.21 E1.0
G1 X122.105 Y66.832 E1.0
G1 X125 Y66.703 E1.0
G1 X127.895 Y66.832 E1.0
G1 X130.77 Y67.21 E1.0
G1 X133.643 Y67.847 E1.0
G1 X136.382 Y68.709 E1.0
G1 X139.079 Y69.827 E1.0
G1 X141.643 Y71.161 E1.0
G1 X144.109 Y72.733 E1.0
G1 X146.394 Y74.485 E1.0
G1 X148.544 Y76.456 E1.0
G1 X150.515 Y78.606 E1.0
G1 X152.267 Y80.891 E1.0
G1 X153.839 Y83.357 E1.0
G1 X155.173 Y85.921 E1.0
G1 X156.291 Y88.618 E1.0
G1 X157.153 Y91.357 E1.0
G1 X157.79 Y94.23 E1.0
G1 X158.168 Y97.105 E1.0
G1 X158.297 Y100 E1.0
G1 X158.168 Y102.895 E1.0
G1 X157.79 Y105.77 E1.0
G1 X157.153 Y108.643 E1.0
G1 X156.291 Y111.382 E1.0
G1 X155.173 Y114.079 E1.0
G1 X153.839 Y116.643 E1.0
G1 X152.267 Y119.109 E1.0
G1 X150.515 Y121.394 E1.0
G1 X148.544 Y123.544 E1.0
G1 X146.394 Y125.515 E1.0
G1 X144.109 Y127.267 E1.0
G1 X141.643 Y128.839 E1.0
G1 X139.079 Y130.173 E1.0
G1 X136.382 Y131.291 E1.0
G1 X133.643 Y132.153 E1.0
G1 X130.77 Y132.79 E1.0
G1 X127.895 Y133.168 E1.0
G1 X125 Y133.297 E1.0
G1 X122.105 Y133.168 E1.0
G1 X119.23 Y132.79 E1.0
G1 X116.357 Y132.153 E1.0
G1 X113.618 Y131.291 E1.0
G1 X110.921 Y130.173 E1.0
G1 X108.357 Y128.839 E1.0
G1 X105.891 Y127.267 E1.0
G1 X103.606 Y125.515 E1.0
G1 X101.456 Y123.544 E1.0
G1 X99.485 Y121.394 E1.0
G1 X97.733 Y119.109 E1.0
G1 X96.161 Y116.643 E1.0
G1 X94.827 Y114.079 E1.0
G1 X93.709 Y111.382 E1.0
G1 X92.847 Y108.643 E1.0
G1 X92.21 Y105.77 E1.0
G1 X91.832 Y102.895 E1.0
G1 X91.703 Y100 E1.0
G1 X91.832 Y97.105 E1.0
G1 X92.21 Y94.23 E1.0
G1 X92.847 Y91.357 E1.0
G1 X93.709 Y88.618 E1.0
G1 X94.827 Y85.921 E1.0
G1 X96.161 Y83.357 E1.0
G1 X97.733 Y80.891 E1.0
G1 X99.485 Y78.606 E1.0
;Layer end: 11

G0 X96.735 Y76.278 Z9.6 ;Layer Change Transition Move

;Layer: 12 @ Z9.6
;TYPE:WALL-OUTER
;Curve: 12-1 @ Z9.6
G1 X98.907 Y73.907 E1.0 F1000.0
G1 X101.278 Y71.735 E1.0
G1 X103.836 Y69.773 E1.0
G1 X106.55 Y68.044 E1.0
G1 X109.409 Y66.555 E1.0
G1 X112.377 Y65.327 E1.0
G1 X115.443 Y64.36 E1.0
G1 X118.594 Y63.661 E1.0
G1 X121.79 Y63.241 E1.0
G1 X125 Y63.1 E1.0
G1 X128.21 Y63.241 E1.0
G1 X131.406 Y63.661 E1.0
G1 X134.557 Y64.36 E1.0
G1 X137.623 Y65.327 E1.0
G1 X140.591 Y66.555 E1.0
G1 X143.45 Y68.044 E1.0
G1 X146.164 Y69.773 E1.0
G1 X148.722 Y71.735 E1.0
G1 X151.093 Y73.907 E1.0
G1 X153.265 Y76.278 E1.0
G1 X155.227 Y78.836 E1.0
G1 X156.956 Y81.55 E1.0
G1 X158.445 Y84.409 E1.0
G1 X159.673 Y87.377 E1.0
G1 X160.64 Y90.443 E1.0
G1 X161.339 Y93.594 E1.0
G1 X161.759 Y96.79 E1.0
G1 X161.9 Y100 E1.0
G1 X161.759 Y103.21 E1.0
G1 X161.339 Y106.406 E1.0
G1 X160.64 Y109.557 E1.0
G1 X159.673 Y112.623 E1.0
G1 X158.445 Y115.591 E1.0
G1 X156.956 Y118.45 E1.0
G1 X155.227 Y121.164 E1.0
G1 X153.265 Y123.722 E1.0
G1 X151.093 Y126.093 E1.0
G1 X148.722 Y128.265 E1.0
G1 X146.164 Y130.227 E1.0
G1 X143.45 Y131.956 E1.0
G1 X140.591 Y133.445 E1.0
G1 X137.623 Y134.673 E1.0
G1 X134.557 Y135.64 E1.0
G1 X131.406 Y136.339 E1.0
G1 X128.21 Y136.759 E1.0
G1 X125 Y136.9 E1.0
G1 X121.79 Y136.759 E1.0
G1 X118.594 Y136.339 E1.0
G1 X115.443 Y135.64 E1.0
G1 X112.377 Y134.673 E1.0
G1 X109.409 Y133.445 E1.0
G1 X106.55 Y131.956 E1.0
G1 X103.836 Y130.227 E1.0
G1 X101.278 Y128.265 E1.0
G1 X98.907 Y126.093 E1.0
G1 X96.735 Y123.722 E1.0
G1 X94.773 Y121.164 E1.0
G1 X93.044 Y118.45 E1.0
G1 X91.555 Y115.591 E1.0
G1 X90.327 Y112.623 E1.0
G1 X89.36 Y109.557 E1.0
G1 X88.661 Y106.406 E1.0
G1 X88.241 Y103.21 E1.0
G1 X88.1 Y100 E1.0
G1 X88.241 Y96.79 E1.0
G1 X88.661 Y93.594 E1.0
G1 X89.36 Y90.443 E1.0
G1 X90.327 Y87.377 E1.0
G1 X91.555 Y84.409 E1.0
G1 X93.044 Y81.55 E1.0
G1 X94.773 Y78.836 E1.0
G1 X96.735 Y76.278 E1.0
;Curves end: 12-1 @ Z9.6

G0 X97.65 Y77.056 ;Move To

;Curve: 12-2 @ Z9.6
;TYPE:WALL-INNER
G1 X99.757 Y74.757 E1.0 F1000.0
G1 X102.056 Y72.65 E1.0
G1 X104.521 Y70.76 E1.0
G1 X107.155 Y69.081 E1.0
G1 X109.91 Y67.647 E1.0
G1 X112.794 Y66.453 E1.0
G1 X115.744 Y65.523 E1.0
G1 X118.806 Y64.844 E1.0
G1 X121.895 Y64.438 E1.0
G1 X125 Y64.301 E1.0
G1 X128.105 Y64.438 E1.0
G1 X131.194 Y64.844 E1.0
G1 X134.256 Y65.523 E1.0
G1 X137.206 Y66.453 E1.0
G1 X140.09 Y67.647 E1.0
G1 X142.845 Y69.081 E1.0
G1 X145.479 Y70.76 E1.0
G1 X147.944 Y72.65 E1.0
G1 X150.243 Y74.757 E1.0
G1 X152.35 Y77.056 E1.0
G1 X154.24 Y79.521 E1.0
G1 X155.919 Y82.155 E1.0
G1 X157.353 Y84.91 E1.0
G1 X158.547 Y87.794 E1.0
G1 X159.477 Y90.744 E1.0
G1 X160.156 Y93.806 E1.0
G1 X160.562 Y96.895 E1.0
G1 X160.699 Y100 E1.0
G1 X160.562 Y103.105 E1.0
G1 X160.156 Y106.194 E1.0
G1 X159.477 Y109.256 E1.0
G1 X158.547 Y112.206 E1.0
G1 X157.353 Y115.09 E1.0
G1 X155.919 Y117.845 E1.0
G1 X154.24 Y120.479 E1.0
G1 X152.35 Y122.944 E1.0
G1 X150.243 Y125.243 E1.0
G1 X147.944 Y127.35 E1.0
G1 X145.479 Y129.24 E1.0
G1 X142.845 Y130.919 E1.0
G1 X140.09 Y132.353 E1.0
G1 X137.206 Y133.547 E1.0
G1 X134.256 Y134.477 E1.0
G1 X131.194 Y135.156 E1.0
G1 X128.105 Y135.562 E1.0
G1 X125 Y135.699 E1.0
G1 X121.895 Y135.562 E1.0
G1 X118.806 Y135.156 E1.0
G1 X115.744 Y134.477 E1.0
G1 X112.794 Y133.547 E1.0
G1 X109.91 Y132.353 E1.0
G1 X107.155 Y130.919 E1.0
G1 X104.521 Y129.24 E1.0
G1 X102.056 Y127.35 E1.0
G1 X99.757 Y125.243 E1.0
G1 X97.65 Y122.944 E1.0
G1 X95.76 Y120.479 E1.0
G1 X94.081 Y117.845 E1.0
G1 X92.647 Y115.09 E1.0
G1 X91.453 Y112.206 E1.0
G1 X90.523 Y109.256 E1.0
G1 X89.844 Y106.194 E1.0
G1 X89.438 Y103.105 E1.0
G1 X89.301 Y100 E1.0
G1 X89.438 Y96.895 E1.0
G1 X89.844 Y93.806 E1.0
G1 X90.523 Y90.744 E1.0
G1 X91.453 Y87.794 E1.0
G1 X92.647 Y84.91 E1.0
G1 X94.081 Y82.155 E1.0
G1 X95.76 Y79.521 E1.0
G1 X97.65 Y77.056 E1.0
;Curves end: 12-2 @ Z9.6

G0 X98.565 Y77.834 ;Move To

;Curve: 12-3 @ Z9.6
G1 X100.607 Y75.607 E1.0 F1000.0
G1 X102.834 Y73.565 E1.0
G1 X105.206 Y71.747 E1.0
G1 X107.76 Y70.118 E1.0
G1 X110.411 Y68.739 E1.0
G1 X113.211 Y67.579 E1.0
G1 X116.045 Y66.686 E1.0
G1 X119.018 Y66.027 E1.0
G1 X122 Y65.635 E1.0
G1 X125 Y65.502 E1.0
G1 X128 Y65.635 E1.0
G1 X130.982 Y66.027 E1.0
G1 X133.955 Y66.686 E1.0
G1 X136.789 Y67.579 E1.0
G1 X139.589 Y68.739 E1.0
G1 X142.24 Y70.118 E1.0
G1 X144.794 Y71.747 E1.0
G1 X147.166 Y73.565 E1.0
G1 X149.393 Y75.607 E1.0
G1 X151.435 Y77.834 E1.0
G1 X153.253 Y80.206 E1.0
G1 X154.882 Y82.76 E1.0
G1 X156.261 Y85.411 E1.0
G1 X157.421 Y88.211 E1.0
G1 X158.314 Y91.045 E1.0
G1 X158.973 Y94.018 E1.0
G1 X159.365 Y97 E1.0
G1 X159.498 Y100 E1.0
G1 X159.365 Y103 E1.0
G1 X158.973 Y105.982 E1.0
G1 X158.314 Y108.955 E1.0
G1 X157.421 Y111.789 E1.0
G1 X156.261 Y114.589 E1.0
G1 X154.882 Y117.24 E1.0
G1 X153.253 Y119.794 E1.0
G1 X151.435 Y122.166 E1.0
G1 X149.393 Y124.393 E1.0
G1 X147.166 Y126.435 E1.0
G1 X144.794 Y128.253 E1.0
G1 X142.24 Y129.882 E1.0
G1 X139.589 Y131.261 E1.0
G1 X136.789 Y132.421 E1.0
G1 X133.955 Y133.314 E1.0
G1 X130.982 Y133.973 E1.0
G1 X128 Y134.365 E1.0
G1 X125 Y134.498 E1.0
G1 X122 Y134.365 E1.0
G1 X119.018 Y133.973 E1.0
G1 X116.045 Y133.314 E1.0
G1 X113.211 Y132.421 E1.0
G1 X110.411 Y131.261 E1.0
G1 X107.76 Y129.882 E1.0
G1 X105.206 Y128.253 E1.0
G1 X102.834 Y126.435 E1.0
G1 X100.607 Y124.393 E1.0
G1 X98.565 Y122.166 E1.0
G1 X96.747 Y119.794 E1.0
G1 X95.118 Y117.24 E1.0
G1 X93.739 Y114.589 E1.0
G1 X92.579 Y111.789 E1.0
G1 X91.686 Y108.955 E1.0
G1 X91.027 Y105.982 E1.0
G1 X90.635 Y103 E1.0
G1 X90.502 Y100 E1.0
G1 X90.635 Y97 E1.0
G1 X91.027 Y94.018 E1.0
G1 X91.686 Y91.045 E1.0
G1 X92.579 Y88.211 E1.0
G1 X93.739 Y85.411 E1.0
G1 X95.118 Y82.76 E1.0
G1 X96.747 Y80.206 E1.0
G1 X98.565 Y77.834 E1.0
;Curves end: 12-3 @ Z9.6

G0 X99.485 Y78.606 ;Move To

;Curve: 12-4 @ Z9.6
G1 X101.456 Y76.456 E1.0 F1000.0
G1 X103.606 Y74.485 E1.0
G1 X105.891 Y72.733 E1.0
G1 X108.357 Y71.161 E1.0
G1 X110.921 Y69.827 E1.0
G1 X113.618 Y68.709 E1.0
G1 X116.357 Y67.847 E1.0
G1 X119.23 Y67.21 E1.0
G1 X122.105 Y66.832 E1.0
G1 X125 Y66.703 E1.0
G1 X127.895 Y66.832 E1.0
G1 X130.77 Y67.21 E1.0
G1 X133.643 Y67.847 E1.0
G1 X136.382 Y68.709 E1.0
G1 X139.079 Y69.827 E1.0
G1 X141.643 Y71.161 E1.0
G1 X144.109 Y72.733 E1.0
G1 X146.394 Y74.485 E1.0
G1 X148.544 Y76.456 E1.0
G1 X150.515 Y78.606 E1.0
G1 X152.267 Y80.891 E1.0
G1 X153.839 Y83.357 E1.0
G1 X155.173 Y85.921 E1.0
G1 X156.291 Y88.618 E1.0
G1 X157.153 Y91.357 E1.0
G1 X157.79 Y94.23 E1.0
G1 X158.168 Y97.105 E1.0
G1 X158.297 Y100 E1.0
G1 X158.168 Y102.895 E1.0
G1 X157.79 Y105.77 E1.0
G1 X157.153 Y108.643 E1.0
G1 X156.291 Y111.382 E1.0
G1 X155.173 Y114.079 E1.0
G1 X153.839 Y116.643 E1.0
G1 X152.267 Y119.109 E1.0
G1 X150.515 Y121.394 E1.0
G1 X148.544 Y123.544 E1.0
G1 X146.394 Y125.515 E1.0
G1 X144.109 Y127.267 E1.0
G1 X141.643 Y128.839 E1.0
G1 X139.079 Y130.173 E1.0
G1 X136.382 Y131.291 E1.0
G1 X133.643 Y132.153 E1.0
G1 X130.77 Y132.79 E1.0
G1 X127.895 Y133.168 E1.0
G1 X125 Y133.297 E1.0
G1 X122.105 Y133.168 E1.0
G1 X119.23 Y132.79 E1.0
G1 X116.357 Y132.153 E1.0
G1 X113.618 Y131.291 E1.0
G1 X110.921 Y130.173 E1.0
G1 X108.357 Y128.839 E1.0
G1 X105.891 Y127.267 E1.0
G1 X103.606 Y125.515 E1.0
G1 X101.456 Y123.544 E1.0
G1 X99.485 Y121.394 E1.0
G1 X97.733 Y119.109 E1.0
G1 X96.161 Y116.643 E1.0
G1 X94.827 Y114.079 E1.0
G1 X93.709 Y111.382 E1.0
G1 X92.847 Y108.643 E1.0
G1 X92.21 Y105.77 E1.0
G1 X91.832 Y102.895 E1.0
G1 X91.703 Y100 E1.0
G1 X91.832 Y97.105 E1.0
G1 X92.21 Y94.23 E1.0
G1 X92.847 Y91.357 E1.0
G1 X93.709 Y88.618 E1.0
G1 X94.827 Y85.921 E1.0
G1 X96.161 Y83.357 E1.0
G1 X97.733 Y80.891 E1.0
G1 X99.485 Y78.606 E1.0
;Layer end: 12

G0 X96.735 Y76.278 Z10.4 ;Layer Change Transition Move

;Layer: 13 @ Z10.4
;TYPE:WALL-OUTER
;Curve: 13-1 @ Z10.4
G1 X98.907 Y73.907 E1.0 F1000.0
G1 X101.278 Y71.735 E1.0
G1 X103.836 Y69.773 E1.0
G1 X106.55 Y68.044 E1.0
G1 X109.409 Y66.555 E1.0
G1 X112.377 Y65.327 E1.0
G1 X115.443 Y64.36 E1.0
G1 X118.594 Y63.661 E1.0
G1 X121.79 Y63.241 E1.0
G1 X125 Y63.1 E1.0
G1 X128.21 Y63.241 E1.0
G1 X131.406 Y63.661 E1.0
G1 X134.557 Y64.36 E1.0
G1 X137.623 Y65.327 E1.0
G1 X140.591 Y66.555 E1.0
G1 X143.45 Y68.044 E1.0
G1 X146.164 Y69.773 E1.0
G1 X148.722 Y71.735 E1.0
G1 X151.093 Y73.907 E1.0
G1 X153.265 Y76.278 E1.0
G1 X155.227 Y78.836 E1.0
G1 X156.956 Y81.55 E1.0
G1 X158.445 Y84.409 E1.0
G1 X159.673 Y87.377 E1.0
G1 X160.64 Y90.443 E1.0
G1 X161.339 Y93.594 E1.0
G1 X161.759 Y96.79 E1.0
G1 X161.9 Y100 E1.0
G1 X161.759 Y103.21 E1.0
G1 X161.339 Y106.406 E1.0
G1 X160.64 Y109.557 E1.0
G1 X159.673 Y112.623 E1.0
G1 X158.445 Y115.591 E1.0
G1 X156.956 Y118.45 E1.0
G1 X155.227 Y121.164 E1.0
G1 X153.265 Y123.722 E1.0
G1 X151.093 Y126.093 E1.0
G1 X148.722 Y128.265 E1.0
G1 X146.164 Y130.227 E1.0
G1 X143.45 Y131.956 E1.0
G1 X140.591 Y133.445 E1.0
G1 X137.623 Y134.673 E1.0
G1 X134.557 Y135.64 E1.0
G1 X131.406 Y136.339 E1.0
G1 X128.21 Y136.759 E1.0
G1 X125 Y136.9 E1.0
G1 X121.79 Y136.759 E1.0
G1 X118.594 Y136.339 E1.0
G1 X115.443 Y135.64 E1.0
G1 X112.377 Y134.673 E1.0
G1 X109.409 Y133.445 E1.0
G1 X106.55 Y131.956 E1.0
G1 X103.836 Y130.227 E1.0
G1 X101.278 Y128.265 E1.0
G1 X98.907 Y126.093 E1.0
G1 X96.735 Y123.722 E1.0
G1 X94.773 Y121.164 E1.0
G1 X93.044 Y118.45 E1.0
G1 X91.555 Y115.591 E1.0
G1 X90.327 Y112.623 E1.0
G1 X89.36 Y109.557 E1.0
G1 X88.661 Y106.406 E1.0
G1 X88.241 Y103.21 E1.0
G1 X88.1 Y100 E1.0
G1 X88.241 Y96.79 E1.0
G1 X88.661 Y93.594 E1.0
G1 X89.36 Y90.443 E1.0
G1 X90.327 Y87.377 E1.0
G1 X91.555 Y84.409 E1.0
G1 X93.044 Y81.55 E1.0
G1 X94.773 Y78.836 E1.0
G1 X96.735 Y76.278 E1.0
;Curves end: 13-1 @ Z10.4

G0 X97.65 Y77.056 ;Move To

;Curve: 13-2 @ Z10.4
;TYPE:WALL-INNER
G1 X99.757 Y74.757 E1.0 F1000.0
G1 X102.056 Y72.65 E1.0
G1 X104.521 Y70.76 E1.0
G1 X107.155 Y69.081 E1.0
G1 X109.91 Y67.647 E1.0
G1 X112.794 Y66.453 E1.0
G1 X115.744 Y65.523 E1.0
G1 X118.806 Y64.844 E1.0
G1 X121.895 Y64.438 E1.0
G1 X125 Y64.301 E1.0
G1 X128.105 Y64.438 E1.0
G1 X131.194 Y64.844 E1.0
G1 X134.256 Y65.523 E1.0
G1 X137.206 Y66.453 E1.0
G1 X140.09 Y67.647 E1.0
G1 X142.845 Y69.081 E1.0
G1 X145.479 Y70.76 E1.0
G1 X147.944 Y72.65 E1.0
G1 X150.243 Y74.757 E1.0
G1 X152.35 Y77.056 E1.0
G1 X154.24 Y79.521 E1.0
G1 X155.919 Y82.155 E1.0
G1 X157.353 Y84.91 E1.0
G1 X158.547 Y87.794 E1.0
G1 X159.477 Y90.744 E1.0
G1 X160.156 Y93.806 E1.0
G1 X160.562 Y96.895 E1.0
G1 X160.699 Y100 E1.0
G1 X160.562 Y103.105 E1.0
G1 X160.156 Y106.194 E1.0
G1 X159.477 Y109.256 E1.0
G1 X158.547 Y112.206 E1.0
G1 X157.353 Y115.09 E1.0
G1 X155.919 Y117.845 E1.0
G1 X154.24 Y120.479 E1.0
G1 X152.35 Y122.944 E1.0
G1 X150.243 Y125.243 E1.0
G1 X147.944 Y127.35 E1.0
G1 X145.479 Y129.24 E1.0
G1 X142.845 Y130.919 E1.0
G1 X140.09 Y132.353 E1.0
G1 X137.206 Y133.547 E1.0
G1 X134.256 Y134.477 E1.0
G1 X131.194 Y135.156 E1.0
G1 X128.105 Y135.562 E1.0
G1 X125 Y135.699 E1.0
G1 X121.895 Y135.562 E1.0
G1 X118.806 Y135.156 E1.0
G1 X115.744 Y134.477 E1.0
G1 X112.794 Y133.547 E1.0
G1 X109.91 Y132.353 E1.0
G1 X107.155 Y130.919 E1.0
G1 X104.521 Y129.24 E1.0
G1 X102.056 Y127.35 E1.0
G1 X99.757 Y125.243 E1.0
G1 X97.65 Y122.944 E1.0
G1 X95.76 Y120.479 E1.0
G1 X94.081 Y117.845 E1.0
G1 X92.647 Y115.09 E1.0
G1 X91.453 Y112.206 E1.0
G1 X90.523 Y109.256 E1.0
G1 X89.844 Y106.194 E1.0
G1 X89.438 Y103.105 E1.0
G1 X89.301 Y100 E1.0
G1 X89.438 Y96.895 E1.0
G1 X89.844 Y93.806 E1.0
G1 X90.523 Y90.744 E1.0
G1 X91.453 Y87.794 E1.0
G1 X92.647 Y84.91 E1.0
G1 X94.081 Y82.155 E1.0
G1 X95.76 Y79.521 E1.0
G1 X97.65 Y77.056 E1.0
;Curves end: 13-2 @ Z10.4

G0 X98.565 Y77.834 ;Move To

;Curve: 13-3 @ Z10.4
G1 X100.607 Y75.607 E1.0 F1000.0
G1 X102.834 Y73.565 E1.0
G1 X105.206 Y71.747 E1.0
G1 X107.76 Y70.118 E1.0
G1 X110.411 Y68.739 E1.0
G1 X113.211 Y67.579 E1.0
G1 X116.045 Y66.686 E1.0
G1 X119.018 Y66.027 E1.0
G1 X122 Y65.635 E1.0
G1 X125 Y65.502 E1.0
G1 X128 Y65.635 E1.0
G1 X130.982 Y66.027 E1.0
G1 X133.955 Y66.686 E1.0
G1 X136.789 Y67.579 E1.0
G1 X139.589 Y68.739 E1.0
G1 X142.24 Y70.118 E1.0
G1 X144.794 Y71.747 E1.0
G1 X147.166 Y73.565 E1.0
G1 X149.393 Y75.607 E1.0
G1 X151.435 Y77.834 E1.0
G1 X153.253 Y80.206 E1.0
G1 X154.882 Y82.76 E1.0
G1 X156.261 Y85.411 E1.0
G1 X157.421 Y88.211 E1.0
G1 X158.314 Y91.045 E1.0
G1 X158.973 Y94.018 E1.0
G1 X159.365 Y97 E1.0
G1 X159.498 Y100 E1.0
G1 X159.365 Y103 E1.0
G1 X158.973 Y105.982 E1.0
G1 X158.314 Y108.955 E1.0
G1 X157.421 Y111.789 E1.0
G1 X156.261 Y114.589 E1.0
G1 X154.882 Y117.24 E1.0
G1 X153.253 Y119.794 E1.0
G1 X151.435 Y122.166 E1.0
G1 X149.393 Y124.393 E1.0
G1 X147.166 Y126.435 E1.0
G1 X144.794 Y128.253 E1.0
G1 X142.24 Y129.882 E1.0
G1 X139.589 Y131.261 E1.0
G1 X136.789 Y132.421 E1.0
G1 X133.955 Y133.314 E1.0
G1 X130.982 Y133.973 E1.0
G1 X128 Y134.365 E1.0
G1 X125 Y134.498 E1.0
G1 X122 Y134.365 E1.0
G1 X119.018 Y133.973 E1.0
G1 X116.045 Y133.314 E1.0
G1 X113.211 Y132.421 E1.0
G1 X110.411 Y131.261 E1.0
G1 X107.76 Y129.882 E1.0
G1 X105.206 Y128.253 E1.0
G1 X102.834 Y126.435 E1.0
G1 X100.607 Y124.393 E1.0
G1 X98.565 Y122.166 E1.0
G1 X96.747 Y119.794 E1.0
G1 X95.118 Y117.24 E1.0
G1 X93.739 Y114.589 E1.0
G1 X92.579 Y111.789 E1.0
G1 X91.686 Y108.955 E1.0
G1 X91.027 Y105.982 E1.0
G1 X90.635 Y103 E1.0
G1 X90.502 Y100 E1.0
G1 X90.635 Y97 E1.0
G1 X91.027 Y94.018 E1.0
G1 X91.686 Y91.045 E1.0
G1 X92.579 Y88.211 E1.0
G1 X93.739 Y85.411 E1.0
G1 X95.118 Y82.76 E1.0
G1 X96.747 Y80.206 E1.0
G1 X98.565 Y77.834 E1.0
;Curves end: 13-3 @ Z10.4

G0 X99.485 Y78.606 ;Move To

;Curve: 13-4 @ Z10.4
G1 X101.456 Y76.456 E1.0 F1000.0
G1 X103.606 Y74.485 E1.0
G1 X105.891 Y72.733 E1.0
G1 X108.357 Y71.161 E1.0
G1 X110.921 Y69.827 E1.0
G1 X113.618 Y68.709 E1.0
