;FLAVOR:RepRap
;TIME:1150
;Filament used: 11.9461m
;Layer height: 1
;Generated with Cura_SteamEngine 2.6.2
M109 S0
;C3DM Cura Start Code   V17y0920
G21         ;Set to Millimeters
G90         ;Set absolute coordinates
M203 X 3000 Y 3000 Z 200 ;Set G0 speed
M104 S0 T12 ;Set Extruder Temp
M140 S0     ;Set Bed Temp
M106 S0 T12 ;Set Fan Speed
M721 S1000 E5000 P0 T12  ;Set Un-Prime, Speed, Pulse, Pause, Tool
M722 S1000 E5000 P0 T12  ;Set Prime, Speed, Pulse, Pause, Tool

M756 S1.0   ;Set Height for FLOW calculations
M221 P0.17 S1.0 W1.6 Z1.0 T12  ;Set Flow Volume, P(10) per nL, S multiplier, W width, Z height, T head
;Total Volume / Distance of Print : 0.0 / 0

G0 Z5       ;Rapid move to
G0 X240 Y10  ;Rapid to
G0 X10 Y10    ;Rapid to
M722 I2		;Prime


;LAYER_COUNT:10
;LAYER:0
M107
G0 F2940 X95.061 Y76.845 Z1
;TYPE:SKIRT
G1 F1200 X95.46 Y76.386 E0.40456
G1 X98.022 Y73.599 E2.92279
G1 X98.678 Y72.945 E3.53898
G1 X99.906 Y71.82 E4.64682
G1 X100.488 Y71.323 E5.15592
G1 X103.252 Y69.13 E7.50296
G1 X104.004 Y68.584 E8.12114
G1 X104.522 Y68.262 E8.52686
G1 X107.831 Y66.331 E11.0754
G1 X108.664 Y65.892 E11.70175
G1 X110.128 Y65.201 E12.77864
G1 X110.815 Y64.906 E13.27598
G1 X114.114 Y63.62 E15.63132
G1 X114.994 Y63.32 E16.24978
G1 X115.586 Y63.164 E16.65703
G1 X119.316 Y62.295 E19.20468
G1 X120.262 Y62.118 E19.84488
G1 X121.903 Y61.887 E20.94724
G1 X122.631 Y61.81 E21.43421
G1 X126.125 Y61.558 E23.76447
G1 X127.054 Y61.531 E24.3827
G1 X127.659 Y61.557 E24.78552
G1 X131.501 Y61.827 E27.34753
G1 X132.472 Y61.939 E27.99773
G1 X134.076 Y62.199 E29.07864
G1 X134.78 Y62.337 E29.55585
G1 X138.203 Y63.128 E31.89285
G1 X139.098 Y63.376 E32.51064
G1 X139.67 Y63.58 E32.91461
G1 X143.224 Y64.956 E35.44974
G1 X144.097 Y65.339 E36.0839
G1 X145.583 Y66.071 E37.18581
G1 X146.236 Y66.421 E37.67865
G1 X149.274 Y68.186 E40.01584
G1 X150.057 Y68.687 E40.63418
G1 X150.543 Y69.049 E41.0373
G1 X153.551 Y71.425 E43.58716
G1 X154.26 Y72.036 E44.20975
G1 X155.42 Y73.128 E45.26951
G1 X155.956 Y73.67 E45.77657
G1 X158.368 Y76.285 E48.14305
G1 X158.968 Y76.994 E48.76089
G1 X159.323 Y77.48 E49.16124
G1 X161.493 Y80.63 E51.70571
G1 X161.993 Y81.428 E52.33213
G1 X162.786 Y82.826 E53.40128
G1 X163.131 Y83.488 E53.89786
G1 X164.664 Y86.687 E56.25756
G1 X165.03 Y87.541 E56.87562
G1 X165.231 Y88.124 E57.28583
G1 X166.384 Y91.803 E59.85049
G1 X166.632 Y92.743 E60.49717
G1 X166.98 Y94.347 E61.58898
G1 X167.109 Y95.054 E62.06704
G1 X167.621 Y98.51 E64.39108
G1 X167.718 Y99.435 E65.00976
G1 X167.738 Y100.042 E65.41376
G1 X167.756 Y103.891 E67.97415
G1 X167.717 Y104.855 E68.61593
G1 X167.58 Y106.47 E69.69409
G1 X167.494 Y107.194 E70.17909
G1 X166.96 Y110.676 E72.5224
G1 X166.78 Y111.588 E73.14077
G1 X166.619 Y112.178 E73.54759
G1 X165.504 Y115.849 E76.0997
G1 X165.192 Y116.735 E76.72455
G1 X164.598 Y118.214 E77.78476
G1 X164.295 Y118.898 E78.28241
G1 X162.747 Y122.093 E80.64405
G1 X162.306 Y122.911 E81.26222
G1 X161.979 Y123.427 E81.66859
G1 X159.833 Y126.606 E84.22
G1 X159.272 Y127.364 E84.8473
G1 X158.262 Y128.61 E85.91424
G1 X157.769 Y129.177 E86.41405
G1 X155.344 Y131.776 E88.7786
G1 X154.681 Y132.427 E89.39669
G1 X154.22 Y132.82 E89.79966
G1 X151.254 Y135.208 E92.33265
G1 X150.49 Y135.77 E92.96355
G1 X149.107 Y136.696 E94.0707
G1 X148.473 Y137.09 E94.56725
G1 X145.428 Y138.837 E96.90248
G1 X144.602 Y139.264 E97.52101
G1 X144.045 Y139.504 E97.92446
G1 X140.501 Y140.914 E100.46167
G1 X139.605 Y141.226 E101.09279
G1 X138.024 Y141.699 E102.19054
G1 X137.305 Y141.887 E102.6849
G1 X133.866 Y142.663 E105.03005
G1 X132.952 Y142.828 E105.64787
G1 X132.346 Y142.894 E106.05337
G1 X128.54 Y143.197 E108.59314
G1 X127.579 Y143.231 E109.2328
G1 X125.912 Y143.215 E110.34174
G1 X125.176 Y143.182 E110.83182
G1 X121.689 Y142.91 E113.15843
G1 X120.767 Y142.798 E113.77626
G1 X120.177 Y142.684 E114.17598
G1 X116.422 Y141.846 E116.73527
G1 X115.5 Y141.597 E117.37056
G1 X113.991 Y141.117 E118.42391
G1 X113.291 Y140.867 E118.91835
G1 X109.983 Y139.558 E121.28486
G1 X109.135 Y139.18 E121.90246
G1 X108.601 Y138.894 E122.30542
G1 X105.297 Y137.007 E124.83644
G1 X104.499 Y136.504 E125.46392
G1 X103.136 Y135.559 E126.5672
G1 X102.536 Y135.111 E127.0653
G1 X99.791 Y132.911 E129.40536
G1 X99.091 Y132.3 E130.02344
G1 X98.662 Y131.866 E130.42937
G1 X96.051 Y129.078 E132.97026
G1 X95.432 Y128.356 E133.60288
G1 X94.416 Y127.059 E134.69885
G1 X93.977 Y126.457 E135.19447
G1 X91.997 Y123.535 E137.5424
G1 X91.51 Y122.744 E138.16031
G1 X91.229 Y122.208 E138.56288
G1 X89.522 Y118.705 E141.15503
G1 X89.123 Y117.778 E141.82637
G1 X88.569 Y116.306 E142.8726
G1 X88.348 Y115.658 E143.32803
G1 X87.324 Y112.307 E145.65888
G1 X87.091 Y111.408 E146.27665
G1 X86.981 Y110.811 E146.68046
G1 X86.39 Y107.011 E149.23862
G1 X86.285 Y106.052 E149.88036
G1 X86.179 Y104.422 E150.96694
G1 X86.156 Y103.693 E151.45211
G1 X86.165 Y100.182 E153.78764
G1 X86.207 Y99.254 E154.40558
G1 X86.278 Y98.649 E154.81079
G1 X86.829 Y94.876 E157.34723
G1 X87.008 Y93.943 E157.97918
G1 X87.393 Y92.321 E159.08811
G1 X87.589 Y91.605 E159.58192
G1 X88.631 Y88.258 E161.91376
G1 X88.945 Y87.383 E162.53215
G1 X89.191 Y86.827 E162.93659
G1 X90.846 Y83.349 E165.49874
G1 X91.299 Y82.497 E166.14063
G1 X92.119 Y81.109 E167.21301
G1 X92.51 Y80.495 E167.69723
G1 X94.503 Y77.588 E170.0418
G1 X95.061 Y76.845 E170.6599
G1 Z2
G0 F2940 X98.408 Y108.918 Z2
;TYPE:WALL-OUTER
G1 Z1
G1 F900 X97.756 Y104.59 E173.64641
G1 X97.756 Y100.211 E176.55933
G1 X98.408 Y95.883 E179.47082
G1 X99.696 Y91.706 E182.37847
G1 X101.597 Y87.76 E185.29208
G1 X104.065 Y84.14 E188.2065
G1 X107.034 Y80.94 E191.11024
G1 X110.463 Y78.206 E194.0275
G1 X114.251 Y76.019 E196.9371
G1 X118.325 Y74.419 E199.84865
G1 X122.59 Y73.446 E202.75863
G1 X126.956 Y73.118 E205.67109
G1 X131.321 Y73.446 E208.58288
G1 X135.586 Y74.419 E211.49287
G1 X139.661 Y76.019 E214.40503
G1 X143.453 Y78.208 E217.3176
G1 X146.873 Y80.936 E220.22769
G1 X149.846 Y84.14 E223.13519
G1 X152.314 Y87.76 E226.04962
G1 X154.215 Y91.706 E228.96323
G1 X155.504 Y95.883 E231.87107
G1 X156.156 Y100.211 E234.78256
G1 X156.156 Y104.59 E237.69548
G1 X155.504 Y108.918 E240.60696
G1 X154.215 Y113.096 E243.51544
G1 X152.314 Y117.042 E246.42905
G1 X149.846 Y120.661 E249.34293
G1 X146.873 Y123.865 E252.25043
G1 X143.453 Y126.593 E255.16052
G1 X139.661 Y128.782 E258.07309
G1 X135.586 Y130.382 E260.98525
G1 X131.321 Y131.355 E263.89524
G1 X126.956 Y131.683 E266.80703
G1 X122.59 Y131.355 E269.71949
G1 X118.325 Y130.382 E272.62947
G1 X114.251 Y128.782 E275.54102
G1 X110.463 Y126.595 E278.45062
G1 X107.034 Y123.861 E281.36788
G1 X104.065 Y120.661 E284.27162
G1 X101.597 Y117.042 E287.18549
G1 X99.696 Y113.096 E290.09911
G1 X98.408 Y108.918 E293.00739
G0 F2940 X99.971 Y108.558
;TYPE:FILL
G1 F960 X99.356 Y104.472 E295.75602
G1 X99.356 Y100.329 E298.51196
G1 X99.972 Y96.237 E301.26464
G1 X101.186 Y92.298 E304.00649
G1 X102.987 Y88.564 E306.76419
G1 X105.325 Y85.134 E309.52547
G1 X108.12 Y82.122 E312.25881
G1 X111.367 Y79.532 E315.02169
G1 X114.945 Y77.466 E317.77007
G1 X118.802 Y75.951 E320.52659
G1 X122.826 Y75.034 E323.27199
G1 X126.956 Y74.724 E326.027
G1 X131.085 Y75.034 E328.78135
G1 X135.112 Y75.951 E331.5287
G1 X138.965 Y77.465 E334.28249
G1 X142.553 Y79.536 E337.0383
G1 X145.783 Y82.114 E339.78736
G1 X148.586 Y85.134 E342.52822
G1 X150.924 Y88.564 E345.28951
G1 X152.725 Y92.299 E348.0478
G1 X153.94 Y96.237 E350.78921
G1 X154.556 Y100.329 E353.54189
G1 X154.556 Y104.472 E356.29783
G1 X153.94 Y108.564 E359.05051
G1 X152.725 Y112.503 E361.79256
G1 X150.924 Y116.238 E364.55085
G1 X148.586 Y119.667 E367.31158
G1 X145.783 Y122.687 E370.05245
G1 X142.553 Y125.265 E372.80151
G1 X138.965 Y127.336 E375.55731
G1 X135.112 Y128.85 E378.31111
G1 X131.085 Y129.767 E381.05845
G1 X126.956 Y130.077 E383.8128
G1 X122.826 Y129.767 E386.56782
G1 X118.802 Y128.85 E389.31322
G1 X114.945 Y127.335 E392.06973
G1 X111.367 Y125.269 E394.81811
G1 X108.12 Y122.679 E397.58099
G1 X105.325 Y119.667 E400.31434
G1 X102.987 Y116.238 E403.07507
G1 X101.189 Y112.509 E405.8289
G1 X99.971 Y108.558 E408.57917
G0 F2940 X101.535 Y108.201
G1 F960 X100.956 Y104.354 E411.16702
G1 X100.956 Y100.447 E413.76597
G1 X101.536 Y96.594 E416.35787
G1 X102.68 Y92.884 E418.94044
G1 X104.376 Y89.366 E421.53837
G1 X106.579 Y86.135 E424.1397
G1 X109.209 Y83.3 E426.71207
G1 X112.271 Y80.858 E429.31736
G1 X115.645 Y78.91 E431.90897
G1 X119.274 Y77.484 E434.50267
G1 X123.061 Y76.621 E437.08638
G1 X126.956 Y76.329 E439.68461
G1 X130.85 Y76.621 E442.28218
G1 X134.64 Y77.484 E444.86784
G1 X138.265 Y78.909 E447.45882
G1 X141.649 Y80.862 E450.05785
G1 X144.694 Y83.292 E452.64932
G1 X147.332 Y86.135 E455.22922
G1 X149.535 Y89.366 E457.83054
G1 X151.231 Y92.883 E460.42787
G1 X152.376 Y96.597 E463.01318
G1 X152.956 Y100.447 E465.60311
G1 X152.956 Y104.354 E468.20206
G1 X152.376 Y108.205 E470.79264
G1 X151.231 Y111.919 E473.37795
G1 X149.535 Y115.436 E475.97528
G1 X147.332 Y118.666 E478.57605
G1 X144.694 Y121.509 E481.15595
G1 X141.649 Y123.939 E483.74742
G1 X138.265 Y125.892 E486.34645
G1 X134.64 Y127.317 E488.93744
G1 X130.85 Y128.18 E491.52309
G1 X126.956 Y128.472 E494.12066
G1 X123.061 Y128.18 E496.7189
G1 X119.274 Y127.317 E499.3026
G1 X115.645 Y125.891 E501.8963
G1 X112.271 Y123.943 E504.48791
G1 X109.209 Y121.501 E507.0932
G1 X106.579 Y118.666 E509.66558
G1 X104.376 Y115.436 E512.26635
G1 X102.683 Y111.923 E514.86042
G1 X101.535 Y108.201 E517.4514
G0 F2940 X103.099 Y107.842
G1 F960 X102.556 Y104.236 E519.87716
G1 X102.556 Y100.565 E522.31912
G1 X103.1 Y96.951 E524.75025
G1 X104.174 Y93.47 E527.17352
G1 X105.765 Y90.168 E529.6117
G1 X107.833 Y87.136 E532.05306
G1 X110.298 Y84.478 E534.46447
G1 X113.175 Y82.184 E536.91216
G1 X116.345 Y80.354 E539.347
G1 X119.745 Y79.018 E541.77703
G1 X123.297 Y78.208 E544.20049
G1 X126.956 Y77.934 E546.64128
G1 X130.615 Y78.208 E549.08207
G1 X134.168 Y79.017 E551.50603
G1 X137.565 Y80.353 E553.9342
G1 X140.745 Y82.188 E556.37647
G1 X143.604 Y84.47 E558.80982
G1 X146.078 Y87.136 E561.2292
G1 X148.146 Y90.169 E563.67112
G1 X149.737 Y93.469 E566.10809
G1 X150.812 Y96.954 E568.53411
G1 X151.356 Y100.566 E570.96392
G1 X151.356 Y104.236 E573.40521
G1 X150.812 Y107.848 E575.83502
G1 X149.737 Y111.333 E578.26104
G1 X148.148 Y114.63 E580.69564
G1 X146.075 Y117.668 E583.14217
G1 X143.604 Y120.331 E585.55873
G1 X140.745 Y122.613 E587.99208
G1 X137.565 Y124.448 E590.43435
G1 X134.168 Y125.784 E592.86252
G1 X130.615 Y126.593 E595.28648
G1 X126.956 Y126.867 E597.72727
G1 X123.297 Y126.593 E600.16806
G1 X119.745 Y125.783 E602.59152
G1 X116.345 Y124.447 E605.02155
G1 X113.175 Y122.617 E607.45639
G1 X110.298 Y120.323 E609.90408
G1 X107.836 Y117.668 E612.31267
G1 X105.764 Y114.63 E614.75883
G1 X104.177 Y111.339 E617.18926
G1 X103.099 Y107.842 E619.62349
G0 F2940 X104.663 Y107.485
G1 F960 X104.156 Y104.118 E621.88848
G1 X104.156 Y100.683 E624.17345
G1 X104.664 Y97.31 E626.44248
G1 X105.668 Y94.054 E628.70901
G1 X107.153 Y90.974 E630.98354
G1 X109.09 Y88.134 E633.27029
G1 X111.39 Y85.653 E635.52074
G1 X114.075 Y83.512 E637.80511
G1 X117.045 Y81.798 E640.08616
G1 X120.216 Y80.552 E642.35251
G1 X123.534 Y79.795 E644.61637
G1 X126.956 Y79.539 E646.89906
G1 X130.38 Y79.795 E649.18307
G1 X133.693 Y80.55 E651.44339
G1 X136.868 Y81.798 E653.7127
G1 X139.845 Y83.516 E655.99911
G1 X142.511 Y85.644 E658.26822
G1 X144.824 Y88.137 E660.5304
G1 X146.757 Y90.971 E662.81235
G1 X148.243 Y94.053 E665.08836
G1 X149.248 Y97.314 E667.35827
G1 X149.756 Y100.684 E669.62533
G1 X149.756 Y104.118 E671.90964
G1 X149.248 Y107.488 E674.17669
G1 X148.243 Y110.749 E676.4466
G1 X146.761 Y113.824 E678.71727
G1 X144.819 Y116.67 E681.00918
G1 X142.511 Y119.157 E683.26618
G1 X139.845 Y121.285 E685.53528
G1 X136.868 Y123.003 E687.82169
G1 X133.693 Y124.251 E690.09101
G1 X130.38 Y125.006 E692.35133
G1 X126.956 Y125.262 E694.63534
G1 X123.534 Y125.006 E696.91802
G1 X120.216 Y124.249 E699.18188
G1 X117.045 Y123.003 E701.44824
G1 X114.075 Y121.289 E703.72928
G1 X111.39 Y119.148 E706.01366
G1 X109.093 Y116.67 E708.26129
G1 X107.151 Y113.824 E710.5532
G1 X105.671 Y110.753 E712.82089
G1 X104.663 Y107.485 E715.09584
G0 F2940 X106.227 Y107.126
G1 F960 X105.756 Y104 E717.19873
G1 X105.756 Y100.801 E719.32672
G1 X106.228 Y97.667 E721.43497
G1 X107.162 Y94.64 E723.54222
G1 X108.54 Y91.78 E725.65401
G1 X110.347 Y89.132 E727.78652
G1 X112.48 Y86.831 E729.87363
G1 X114.979 Y84.838 E731.99989
G1 X117.744 Y83.242 E734.12359
G1 X120.687 Y82.086 E736.22689
G1 X123.771 Y81.382 E738.33115
G1 X126.956 Y81.144 E740.45573
G1 X130.143 Y81.382 E742.58163
G1 X133.222 Y82.084 E744.68235
G1 X136.168 Y83.242 E746.788
G1 X138.945 Y84.844 E748.92061
G1 X141.418 Y86.818 E751.02547
G1 X143.567 Y89.135 E753.12762
G1 X145.37 Y91.777 E755.25533
G1 X146.749 Y94.639 E757.36861
G1 X147.684 Y97.671 E759.47923
G1 X148.156 Y100.803 E761.58617
G1 X148.156 Y103.999 E763.71216
G1 X147.684 Y107.131 E765.8191
G1 X146.749 Y110.163 E767.92971
G1 X145.374 Y113.018 E770.03765
G1 X143.563 Y115.672 E772.17495
G1 X141.418 Y117.983 E774.27237
G1 X138.945 Y119.957 E776.37723
G1 X136.168 Y121.559 E778.50984
G1 X133.222 Y122.717 E780.61548
G1 X130.143 Y123.419 E782.7162
G1 X126.956 Y123.657 E784.84211
G1 X123.771 Y123.419 E786.96668
G1 X120.687 Y122.715 E789.07094
G1 X117.744 Y121.559 E791.17424
G1 X114.979 Y119.963 E793.29794
G1 X112.48 Y117.97 E795.4242
G1 X110.35 Y115.672 E797.5085
G1 X108.539 Y113.018 E799.6458
G1 X107.165 Y110.169 E801.74985
G1 X106.227 Y107.126 E803.86805
G0 F2940 X107.791 Y106.769
G1 F960 X107.356 Y103.881 E805.81082
G1 X107.356 Y100.919 E807.78115
G1 X107.792 Y98.027 E809.72666
G1 X108.657 Y95.221 E811.67989
G1 X109.926 Y92.588 E813.62418
G1 X111.604 Y90.13 E815.60392
G1 X113.57 Y88.009 E817.5277
G1 X115.883 Y86.164 E819.49585
G1 X118.443 Y84.686 E821.4622
G1 X121.158 Y83.62 E823.40245
G1 X124.008 Y82.969 E825.34711
G1 X126.956 Y82.749 E827.31358
G1 X129.906 Y82.969 E829.28138
G1 X132.751 Y83.618 E831.2225
G1 X135.469 Y84.686 E833.16509
G1 X138.045 Y86.173 E835.14365
G1 X140.325 Y87.992 E837.08385
G1 X142.31 Y90.133 E839.02598
G1 X143.982 Y92.583 E840.99908
G1 X145.255 Y95.225 E842.94991
G1 X146.12 Y98.029 E844.90188
G1 X146.556 Y100.922 E846.84804
G1 X146.556 Y103.88 E848.81571
G1 X146.12 Y106.773 E850.76187
G1 X145.256 Y109.574 E852.71173
G1 X143.985 Y112.215 E854.66139
G1 X142.307 Y114.674 E856.64168
G1 X140.325 Y116.809 E858.57953
G1 X138.045 Y118.628 E860.51973
G1 X135.469 Y120.115 E862.4983
G1 X132.751 Y121.183 E864.44089
G1 X129.906 Y121.832 E866.38201
G1 X126.956 Y122.052 E868.3498
G1 X124.008 Y121.832 E870.31628
G1 X121.158 Y121.181 E872.26093
G1 X118.443 Y120.115 E874.20118
G1 X115.883 Y118.637 E876.16754
G1 X113.57 Y116.792 E878.13568
G1 X111.607 Y114.674 E880.05664
G1 X109.926 Y112.212 E882.03971
G1 X108.659 Y109.583 E883.98102
G1 X107.791 Y106.769 E885.93993
G0 F2940 X109.355 Y106.409
G1 F960 X108.956 Y103.763 E887.71995
G1 X108.956 Y101.039 E889.53196
G1 X109.356 Y98.384 E891.31801
G1 X110.151 Y95.807 E893.11195
G1 X111.316 Y93.389 E894.89737
G1 X112.857 Y91.132 E896.7153
G1 X114.66 Y89.187 E898.47951
G1 X116.787 Y87.49 E900.28954
G1 X119.142 Y86.13 E902.09855
G1 X121.629 Y85.154 E903.87574
G1 X124.245 Y84.556 E905.6608
G1 X126.956 Y84.354 E907.46916
G1 X129.669 Y84.556 E909.27886
G1 X132.28 Y85.152 E911.06037
G1 X134.769 Y86.13 E912.83929
G1 X137.141 Y87.499 E914.66109
G1 X139.235 Y89.17 E916.44317
G1 X141.053 Y91.131 E918.22197
G1 X142.594 Y93.389 E920.04045
G1 X143.761 Y95.809 E921.82764
G1 X144.556 Y98.389 E923.6235
G1 X144.956 Y101.041 E925.40757
G1 X144.956 Y103.761 E927.21692
G1 X144.556 Y106.413 E929.00099
G1 X143.762 Y108.987 E930.79283
G1 X142.595 Y111.412 E932.58302
G1 X141.053 Y113.672 E934.40298
G1 X139.232 Y115.634 E936.18362
G1 X137.141 Y117.302 E937.9629
G1 X134.769 Y118.671 E939.78469
G1 X132.28 Y119.649 E941.56361
G1 X129.669 Y120.245 E943.34513
G1 X126.956 Y120.447 E945.15482
G1 X124.245 Y120.245 E946.96318
G1 X121.629 Y119.647 E948.74824
G1 X119.142 Y118.671 E950.52544
G1 X116.787 Y117.311 E952.33445
G1 X114.66 Y115.614 E954.14448
G1 X112.86 Y113.672 E955.90586
G1 X111.316 Y111.411 E957.72712
