;FLAVOR:Marlin
;TIME:2033
;Filament used: 5.08808m
;Layer height: 0.8
;Generated with Cura_SteamEngine 3.2.1
M104 S101
M109 S101
M82 ;absolute extrusion mode
;C3DM Cura Start Code  V18y0202
G21         ;Set to Millimeters
G90         ;Set absolute coordinates
M203 X2000 Y2000 Z200 ;Set G0 speed
M104 S0 T12 ;Set Extruder Temp
M140 S0     ;Set Bed Temp
M106 S0 T12 ;Set Fan Speed
M721 S1000 E0 P0 T12  ;Set Un-Prime, Speed, Pulse, Pause, Tool
M722 S1000 E0 P0 T12  ;Set Prime, Speed, Pulse, Pause, Tool

M756 S0.8   ;Set Height for FLOW calculations
M221 P0.160 S1.00 W1.2 Z0.8 T12  ;Set Flow Volume, P(10) per nL, S multiplier, W width, Z height, T head

G0 Z5       ;Rapid move to
G0 X240 Y10  ;Rapid to
G0 X10 Y10    ;Rapid to
;LAYER_COUNT:38
;LAYER:0
M107
G0 F2400 X85.941 Y71.97 Z0.8
;TYPE:SKIRT
G1 F1200 X88.44 Y68.797 E0.6078
G1 X88.98 Y68.164 E0.733
G1 X90.685 Y66.318 E1.11116
G1 X91.415 Y65.601 E1.26514
G1 X94.442 Y62.9 E1.87563
G1 X95.082 Y62.372 E2.00049
G1 X97.054 Y60.872 E2.37334
G1 X97.893 Y60.295 E2.52657
G1 X101.338 Y58.163 E3.13623
G1 X102.219 Y57.674 E3.28786
G1 X105.185 Y56.208 E3.78575
G1 X105.866 Y55.901 E3.89816
G1 X108.135 Y54.972 E4.26712
G1 X109.103 Y54.63 E4.42161
G1 X113.02 Y53.454 E5.03705
G1 X113.984 Y53.213 E5.18658
G1 X117.146 Y52.579 E5.67189
G1 X117.889 Y52.457 E5.78519
G1 X120.351 Y52.143 E6.15869
G1 X121.366 Y52.063 E6.3119
G1 X125.434 Y51.938 E6.92436
G1 X126.268 Y51.945 E7.04987
G1 X128.75 Y52.064 E7.4238
G1 X129.765 Y52.162 E7.57725
G1 X133.781 Y52.745 E8.18793
G1 X134.596 Y52.896 E8.31267
G1 X137.002 Y53.44 E8.68387
G1 X137.988 Y53.714 E8.83787
G1 X141.882 Y55 E9.45499
G1 X142.654 Y55.288 E9.57898
G1 X144.905 Y56.231 E9.94625
G1 X145.824 Y56.67 E10.09951
G1 X149.399 Y58.59 E10.71017
G1 X150.111 Y59.008 E10.83441
G1 X152.198 Y60.348 E11.20764
G1 X153.03 Y60.941 E11.36139
G1 X156.203 Y63.44 E11.96918
G1 X156.836 Y63.98 E12.09439
G1 X158.682 Y65.685 E12.47255
G1 X159.399 Y66.415 E12.62653
G1 X162.1 Y69.442 E13.23702
G1 X162.628 Y70.082 E13.36188
G1 X164.128 Y72.054 E13.73473
G1 X164.705 Y72.893 E13.88796
G1 X166.837 Y76.338 E14.49762
G1 X167.326 Y77.219 E14.64925
G1 X168.792 Y80.185 E15.14713
G1 X169.099 Y80.866 E15.25955
G1 X170.028 Y83.135 E15.62851
G1 X170.37 Y84.103 E15.783
G1 X171.546 Y88.02 E16.39844
G1 X171.787 Y88.984 E16.54797
G1 X172.421 Y92.146 E17.03327
G1 X172.543 Y92.888 E17.14643
G1 X172.857 Y95.348 E17.51963
G1 X172.937 Y96.365 E17.67314
G1 X173.062 Y100.435 E18.2859
G1 X173.055 Y101.268 E18.41126
G1 X172.936 Y103.75 E18.78519
G1 X172.838 Y104.765 E18.93865
G1 X172.255 Y108.781 E19.54933
G1 X172.104 Y109.596 E19.67406
G1 X171.56 Y112.002 E20.04526
G1 X171.286 Y112.988 E20.19926
G1 X170 Y116.882 E20.81638
G1 X169.712 Y117.654 E20.94037
G1 X168.769 Y119.905 E21.30764
G1 X168.33 Y120.824 E21.4609
G1 X166.41 Y124.399 E22.07156
G1 X165.992 Y125.111 E22.19581
G1 X164.652 Y127.198 E22.56903
G1 X164.149 Y127.914 E22.70071
G1 X162.155 Y130.519 E23.19438
G1 X161.556 Y131.234 E23.33475
G1 X159.346 Y133.648 E23.82726
G1 X158.585 Y134.399 E23.98815
G1 X155.558 Y137.1 E24.59865
G1 X154.918 Y137.628 E24.7235
G1 X152.946 Y139.128 E25.09635
G1 X152.107 Y139.705 E25.24958
G1 X148.662 Y141.837 E25.85925
G1 X147.781 Y142.326 E26.01088
G1 X144.815 Y143.792 E26.50876
G1 X144.134 Y144.099 E26.62117
G1 X141.865 Y145.028 E26.99013
G1 X140.897 Y145.37 E27.14462
G1 X136.98 Y146.546 E27.76006
G1 X136.016 Y146.787 E27.90959
G1 X132.854 Y147.421 E28.3949
G1 X132.111 Y147.543 E28.5082
G1 X129.649 Y147.857 E28.8817
G1 X128.634 Y147.937 E29.03491
G1 X124.566 Y148.062 E29.64737
G1 X123.732 Y148.055 E29.77288
G1 X121.25 Y147.936 E30.14681
G1 X120.235 Y147.838 E30.30027
G1 X116.219 Y147.255 E30.91095
G1 X115.404 Y147.104 E31.03568
G1 X112.998 Y146.56 E31.40688
G1 X112.012 Y146.286 E31.56088
G1 X108.118 Y145 E32.178
G1 X107.346 Y144.712 E32.30199
G1 X105.093 Y143.768 E32.66959
G1 X104.174 Y143.329 E32.82286
G1 X100.601 Y141.41 E33.43318
G1 X99.889 Y140.992 E33.55742
G1 X97.802 Y139.652 E33.93065
G1 X96.97 Y139.059 E34.0844
G1 X93.797 Y136.56 E34.6922
G1 X93.164 Y136.02 E34.8174
G1 X91.318 Y134.315 E35.19556
G1 X90.601 Y133.585 E35.34954
G1 X87.9 Y130.558 E35.96003
G1 X87.373 Y129.919 E36.08468
G1 X85.872 Y127.946 E36.45774
G1 X85.294 Y127.105 E36.6113
G1 X83.163 Y123.661 E37.22076
G1 X82.674 Y122.781 E37.37226
G1 X81.208 Y119.815 E37.87014
G1 X80.902 Y119.135 E37.98235
G1 X79.972 Y116.864 E38.35165
G1 X79.628 Y115.894 E38.50653
G1 X78.453 Y111.979 E39.12163
G1 X78.213 Y111.016 E39.27098
G1 X77.579 Y107.854 E39.75629
G1 X77.457 Y107.111 E39.86959
G1 X77.143 Y104.649 E40.24309
G1 X77.063 Y103.634 E40.3963
G1 X76.938 Y99.566 E41.00876
G1 X76.945 Y98.732 E41.13427
G1 X77.064 Y96.25 E41.5082
G1 X77.162 Y95.235 E41.66165
G1 X77.745 Y91.219 E42.27233
G1 X77.896 Y90.404 E42.39707
G1 X78.44 Y87.998 E42.76827
G1 X78.714 Y87.012 E42.92227
G1 X80 Y83.118 E43.53939
G1 X80.288 Y82.346 E43.66338
G1 X81.231 Y80.095 E44.03065
G1 X81.67 Y79.176 E44.18391
G1 X83.59 Y75.601 E44.79457
G1 X84.008 Y74.889 E44.91881
G1 X85.348 Y72.802 E45.29204
G1 X85.941 Y71.97 E45.44579
G1 F300 Z1.3
G0 F2400 X94.773 Y78.836 Z1.3
;TYPE:WALL-OUTER
G1 F300 Z0.8
G1 F1200 X96.735 Y76.278 E45.93092
G1 X98.907 Y73.907 E46.4148
G1 X101.278 Y71.735 E46.89867
G1 X103.836 Y69.773 E47.3838
G1 X106.55 Y68.044 E47.86806
G1 X109.409 Y66.555 E48.35314
G1 X112.377 Y65.327 E48.8365
G1 X115.443 Y64.36 E49.32029
G1 X118.594 Y63.661 E49.80599
G1 X121.79 Y63.241 E50.29108
G1 X125 Y63.1 E50.7746
G1 X128.21 Y63.241 E51.25812
G1 X131.406 Y63.661 E51.7432
G1 X134.557 Y64.36 E52.22891
G1 X137.623 Y65.327 E52.7127
G1 X140.591 Y66.555 E53.19605
G1 X143.45 Y68.044 E53.68114
G1 X146.164 Y69.773 E54.16539
G1 X148.722 Y71.735 E54.65052
G1 X151.093 Y73.907 E55.1344
G1 X153.265 Y76.278 E55.61828
G1 X155.227 Y78.836 E56.10341
G1 X156.956 Y81.55 E56.58766
G1 X158.445 Y84.409 E57.07275
G1 X159.673 Y87.377 E57.55611
G1 X160.64 Y90.443 E58.0399
G1 X161.339 Y93.594 E58.5256
G1 X161.759 Y96.79 E59.01068
G1 X161.9 Y100 E59.4942
G1 X161.759 Y103.21 E59.97772
G1 X161.339 Y106.406 E60.46281
G1 X160.64 Y109.557 E60.94851
G1 X159.673 Y112.623 E61.4323
G1 X158.445 Y115.591 E61.91566
G1 X156.956 Y118.45 E62.40075
G1 X155.227 Y121.164 E62.885
G1 X153.265 Y123.722 E63.37013
G1 X151.093 Y126.093 E63.85401
G1 X148.722 Y128.265 E64.33788
G1 X146.164 Y130.227 E64.82301
G1 X143.45 Y131.956 E65.30727
G1 X140.591 Y133.445 E65.79235
G1 X137.623 Y134.673 E66.27571
G1 X134.557 Y135.64 E66.7595
G1 X131.406 Y136.339 E67.2452
G1 X128.21 Y136.759 E67.73029
G1 X125 Y136.9 E68.21381
G1 X121.79 Y136.759 E68.69733
G1 X118.594 Y136.339 E69.18241
G1 X115.443 Y135.64 E69.66812
G1 X112.377 Y134.673 E70.15191
G1 X109.409 Y133.445 E70.63526
G1 X106.55 Y131.956 E71.12035
G1 X103.836 Y130.227 E71.6046
G1 X101.278 Y128.265 E72.08973
G1 X98.907 Y126.093 E72.57361
G1 X96.735 Y123.722 E73.05749
G1 X94.773 Y121.164 E73.54262
G1 X93.044 Y118.45 E74.02687
G1 X91.555 Y115.591 E74.51196
G1 X90.327 Y112.623 E74.99532
G1 X89.36 Y109.557 E75.47911
G1 X88.661 Y106.406 E75.96481
G1 X88.241 Y103.21 E76.44989
G1 X88.1 Y100 E76.93341
G1 X88.241 Y96.79 E77.41693
G1 X88.661 Y93.594 E77.90202
G1 X89.36 Y90.443 E78.38772
G1 X90.327 Y87.377 E78.87151
G1 X91.555 Y84.409 E79.35487
G1 X93.044 Y81.55 E79.83996
G1 X94.773 Y78.836 E80.32421
G0 F2400 X95.76 Y79.521
;TYPE:WALL-INNER
G1 F960 X97.65 Y77.056 E80.79164
G1 X99.757 Y74.757 E81.26092
G1 X102.056 Y72.65 E81.7302
G1 X104.521 Y70.76 E82.19763
G1 X107.155 Y69.081 E82.66769
G1 X109.91 Y67.647 E83.13507
G1 X112.794 Y66.453 E83.60479
G1 X115.744 Y65.523 E84.07026
G1 X118.806 Y64.844 E84.54224
G1 X121.895 Y64.438 E85.01108
G1 X125 Y64.301 E85.47879
G1 X128.105 Y64.438 E85.9465
G1 X131.194 Y64.844 E86.41534
G1 X134.256 Y65.523 E86.88732
G1 X137.206 Y66.453 E87.35279
G1 X140.09 Y67.647 E87.82251
G1 X142.845 Y69.081 E88.28989
G1 X145.479 Y70.76 E88.75995
G1 X147.944 Y72.65 E89.22738
G1 X150.243 Y74.757 E89.69666
G1 X152.35 Y77.056 E90.16594
G1 X154.24 Y79.521 E90.63337
G1 X155.919 Y82.155 E91.10343
G1 X157.353 Y84.91 E91.57081
G1 X158.547 Y87.794 E92.04053
G1 X159.477 Y90.744 E92.506
G1 X160.156 Y93.806 E92.97798
G1 X160.562 Y96.895 E93.44682
G1 X160.699 Y100 E93.91453
G1 X160.562 Y103.105 E94.38224
G1 X160.156 Y106.194 E94.85108
G1 X159.477 Y109.256 E95.32306
G1 X158.547 Y112.206 E95.78853
G1 X157.353 Y115.09 E96.25825
G1 X155.919 Y117.845 E96.72563
G1 X154.24 Y120.479 E97.19569
G1 X152.35 Y122.944 E97.66312
G1 X150.243 Y125.243 E98.1324
G1 X147.944 Y127.35 E98.60168
G1 X145.479 Y129.24 E99.06911
G1 X142.845 Y130.919 E99.53917
G1 X140.09 Y132.353 E100.00655
G1 X137.206 Y133.547 E100.47627
G1 X134.256 Y134.477 E100.94174
G1 X131.194 Y135.156 E101.41372
G1 X128.105 Y135.562 E101.88256
G1 X125 Y135.699 E102.35027
G1 X121.895 Y135.562 E102.81798
G1 X118.806 Y135.156 E103.28682
G1 X115.744 Y134.477 E103.7588
G1 X112.794 Y133.547 E104.22427
G1 X109.91 Y132.353 E104.69399
G1 X107.155 Y130.919 E105.16137
G1 X104.521 Y129.24 E105.63143
G1 X102.056 Y127.35 E106.09886
G1 X99.757 Y125.243 E106.56814
G1 X97.65 Y122.944 E107.03742
G1 X95.76 Y120.479 E107.50485
G1 X94.081 Y117.845 E107.97491
G1 X92.647 Y115.09 E108.44229
G1 X91.453 Y112.206 E108.91201
G1 X90.523 Y109.256 E109.37748
G1 X89.844 Y106.194 E109.84946
G1 X89.438 Y103.105 E110.3183
G1 X89.301 Y100 E110.78601
G1 X89.438 Y96.895 E111.25372
G1 X89.844 Y93.806 E111.72256
G1 X90.523 Y90.744 E112.19454
G1 X91.453 Y87.794 E112.66001
G1 X92.647 Y84.91 E113.12973
G1 X94.081 Y82.155 E113.59711
G1 X95.76 Y79.521 E114.06717
G0 F2400 X96.747 Y80.206
G1 F960 X98.565 Y77.834 E114.5169
G1 X100.607 Y75.607 E114.97158
G1 X102.834 Y73.565 E115.42627
G1 X105.206 Y71.747 E115.876
G1 X107.76 Y70.118 E116.33186
G1 X110.411 Y68.739 E116.78154
G1 X113.211 Y67.579 E117.23763
G1 X116.045 Y66.686 E117.68477
G1 X119.018 Y66.027 E118.14302
G1 X122 Y65.635 E118.59562
G1 X125 Y65.502 E119.04752
G1 X128 Y65.635 E119.49942
G1 X130.982 Y66.027 E119.95202
G1 X133.955 Y66.686 E120.41027
G1 X136.789 Y67.579 E120.85742
G1 X139.589 Y68.739 E121.3135
G1 X142.24 Y70.118 E121.76318
G1 X144.794 Y71.747 E122.21904
G1 X147.166 Y73.565 E122.66877
G1 X149.393 Y75.607 E123.12346
G1 X151.435 Y77.834 E123.57814
G1 X153.253 Y80.206 E124.02788
G1 X154.882 Y82.76 E124.48374
G1 X156.261 Y85.411 E124.93342
G1 X157.421 Y88.211 E125.3895
G1 X158.314 Y91.045 E125.83664
G1 X158.973 Y94.018 E126.29489
G1 X159.365 Y97 E126.7475
G1 X159.498 Y100 E127.1994
G1 X159.365 Y103 E127.65129
G1 X158.973 Y105.982 E128.1039
G1 X158.314 Y108.955 E128.56215
G1 X157.421 Y111.789 E129.00929
G1 X156.261 Y114.589 E129.46538
G1 X154.882 Y117.24 E129.91506
G1 X153.253 Y119.794 E130.37092
G1 X151.435 Y122.166 E130.82065
G1 X149.393 Y124.393 E131.27533
G1 X147.166 Y126.435 E131.73002
G1 X144.794 Y128.253 E132.17975
G1 X142.24 Y129.882 E132.63561
G1 X139.589 Y131.261 E133.08529
G1 X136.789 Y132.421 E133.54137
G1 X133.955 Y133.314 E133.98852
G1 X130.982 Y133.973 E134.44677
G1 X128 Y134.365 E134.89937
G1 X125 Y134.498 E135.35127
G1 X122 Y134.365 E135.80317
G1 X119.018 Y133.973 E136.25577
G1 X116.045 Y133.314 E136.71402
G1 X113.211 Y132.421 E137.16117
G1 X110.411 Y131.261 E137.61725
G1 X107.76 Y129.882 E138.06693
G1 X105.206 Y128.253 E138.52279
G1 X102.834 Y126.435 E138.97252
G1 X100.607 Y124.393 E139.42721
G1 X98.565 Y122.166 E139.88189
G1 X96.747 Y119.794 E140.33162
G1 X95.118 Y117.24 E140.78748
G1 X93.739 Y114.589 E141.23716
G1 X92.579 Y111.789 E141.69325
G1 X91.686 Y108.955 E142.14039
G1 X91.027 Y105.982 E142.59864
G1 X90.635 Y103 E143.05125
G1 X90.502 Y100 E143.50315
G1 X90.635 Y97 E143.95504
G1 X91.027 Y94.018 E144.40765
G1 X91.686 Y91.045 E144.8659
G1 X92.579 Y88.211 E145.31304
G1 X93.739 Y85.411 E145.76913
G1 X95.118 Y82.76 E146.21881
G1 X96.747 Y80.206 E146.67467
G0 F2400 X97.733 Y80.891
G1 F960 X99.485 Y78.606 E147.10797
G1 X101.456 Y76.456 E147.54689
G1 X103.606 Y74.485 E147.98581
G1 X105.891 Y72.733 E148.41911
G1 X108.357 Y71.161 E148.85919
G1 X110.921 Y69.827 E149.29413
G1 X113.618 Y68.709 E149.73348
G1 X116.357 Y67.847 E150.16559
G1 X119.23 Y67.21 E150.60843
G1 X122.105 Y66.832 E151.04479
G1 X125 Y66.703 E151.48088
G1 X127.895 Y66.832 E151.91696
G1 X130.77 Y67.21 E152.35333
G1 X133.643 Y67.847 E152.79617
G1 X136.382 Y68.709 E153.22828
G1 X139.079 Y69.827 E153.66762
G1 X141.643 Y71.161 E154.10256
G1 X144.109 Y72.733 E154.54265
G1 X146.394 Y74.485 E154.97595
G1 X148.544 Y76.456 E155.41487
G1 X150.515 Y78.606 E155.85379
G1 X152.267 Y80.891 E156.28709
G1 X153.839 Y83.357 E156.72717
G1 X155.173 Y85.921 E157.16211
G1 X156.291 Y88.618 E157.60146
G1 X157.153 Y91.357 E158.03357
G1 X157.79 Y94.23 E158.47641
G1 X158.168 Y97.105 E158.91278
G1 X158.297 Y100 E159.34886
G1 X158.168 Y102.895 E159.78494
G1 X157.79 Y105.77 E160.22131
G1 X157.153 Y108.643 E160.66415
G1 X156.291 Y111.382 E161.09626
G1 X155.173 Y114.079 E161.53561
G1 X153.839 Y116.643 E161.97055
G1 X152.267 Y119.109 E162.41063
G1 X150.515 Y121.394 E162.84393
G1 X148.544 Y123.544 E163.28285
G1 X146.394 Y125.515 E163.72177
G1 X144.109 Y127.267 E164.15507
G1 X141.643 Y128.839 E164.59516
G1 X139.079 Y130.173 E165.0301
G1 X136.382 Y131.291 E165.46944
G1 X133.643 Y132.153 E165.90155
G1 X130.77 Y132.79 E166.34439
G1 X127.895 Y133.168 E166.78076
G1 X125 Y133.297 E167.21684
G1 X122.105 Y133.168 E167.65293
G1 X119.23 Y132.79 E168.08929
G1 X116.357 Y132.153 E168.53213
G1 X113.618 Y131.291 E168.96424
G1 X110.921 Y130.173 E169.40359
G1 X108.357 Y128.839 E169.83853
G1 X105.891 Y127.267 E170.27861
G1 X103.606 Y125.515 E170.71191
G1 X101.456 Y123.544 E171.15083
G1 X99.485 Y121.394 E171.58976
G1 X97.733 Y119.109 E172.02305
G1 X96.161 Y116.643 E172.46314
G1 X94.827 Y114.079 E172.89808
G1 X93.709 Y111.382 E173.33742
G1 X92.847 Y108.643 E173.76953
G1 X92.21 Y105.77 E174.21237
G1 X91.832 Y102.895 E174.64874
G1 X91.703 Y100 E175.08482
G1 X91.832 Y97.105 E175.52091
G1 X92.21 Y94.23 E175.95727
G1 X92.847 Y91.357 E176.40011
G1 X93.709 Y88.618 E176.83222
G1 X94.827 Y85.921 E177.27157
G1 X96.161 Y83.357 E177.70651
G1 X97.733 Y80.891 E178.14659
G1 F300 Z1.3
G0 F2400 X96.735 Y76.278 Z1.3
;TIME_ELAPSED:71.374643
;LAYER:1
G0 X96.735 Y76.278 Z2.1
;TYPE:WALL-OUTER
G1 F300 Z1.6
G1 F1200 X98.907 Y73.907 E178.63047
G1 X101.278 Y71.735 E179.11435
G1 X103.836 Y69.773 E179.59948
G1 X106.55 Y68.044 E180.08373
G1 X109.409 Y66.555 E180.56882
G1 X112.377 Y65.327 E181.05217
G1 X115.443 Y64.36 E181.53596
G1 X118.594 Y63.661 E182.02167
G1 X121.79 Y63.241 E182.50675
G1 X125 Y63.1 E182.99027
G1 X128.21 Y63.241 E183.47379
G1 X131.406 Y63.661 E183.95887
G1 X134.557 Y64.36 E184.44458
G1 X137.623 Y65.327 E184.92837
G1 X140.591 Y66.555 E185.41173
G1 X143.45 Y68.044 E185.89681
G1 X146.164 Y69.773 E186.38107
G1 X148.722 Y71.735 E186.8662
G1 X151.093 Y73.907 E187.35007
G1 X153.265 Y76.278 E187.83395
G1 X155.227 Y78.836 E188.31908
G1 X156.956 Y81.55 E188.80333
G1 X158.445 Y84.409 E189.28842
G1 X159.673 Y87.377 E189.77178
G1 X160.64 Y90.443 E190.25557
G1 X161.339 Y93.594 E190.74127
G1 X161.759 Y96.79 E191.22635
G1 X161.9 Y100 E191.70988
G1 X161.759 Y103.21 E192.1934
G1 X161.339 Y106.406 E192.67848
G1 X160.64 Y109.557 E193.16418
G1 X159.673 Y112.623 E193.64797
G1 X158.445 Y115.591 E194.13133
G1 X156.956 Y118.45 E194.61642
G1 X155.227 Y121.164 E195.10067
G1 X153.265 Y123.722 E195.5858
G1 X151.093 Y126.093 E196.06968
G1 X148.722 Y128.265 E196.55356
G1 X146.164 Y130.227 E197.03869
G1 X143.45 Y131.956 E197.52294
G1 X140.591 Y133.445 E198.00803
G1 X137.623 Y134.673 E198.49138
G1 X134.557 Y135.64 E198.97517
G1 X131.406 Y136.339 E199.46088
G1 X128.21 Y136.759 E199.94596
G1 X125 Y136.9 E200.42948
G1 X121.79 Y136.759 E200.913
G1 X118.594 Y136.339 E201.39808
G1 X115.443 Y135.64 E201.88379
G1 X112.377 Y134.673 E202.36758
G1 X109.409 Y133.445 E202.85094
G1 X106.55 Y131.956 E203.33602
G1 X103.836 Y130.227 E203.82028
G1 X101.278 Y128.265 E204.30541
G1 X98.907 Y126.093 E204.78928
G1 X96.735 Y123.722 E205.27316
G1 X94.773 Y121.164 E205.75829
G1 X93.044 Y118.45 E206.24254
G1 X91.555 Y115.591 E206.72763
G1 X90.327 Y112.623 E207.21099
G1 X89.36 Y109.557 E207.69478
G1 X88.661 Y106.406 E208.18048
G1 X88.241 Y103.21 E208.66556
